; generated by Slic3r 1.2.9 on 2018-03-22 at 20:19:34

; external perimeters extrusion width = 0.40mm
; perimeters extrusion width = 0.40mm
; infill extrusion width = 0.40mm
; solid infill extrusion width = 0.40mm
; top infill extrusion width = 0.40mm

M107
M104 S185 ; set temperature
G28 ; home all axes
G29 Z3.7
G1 Z5 F5000 ; lift nozzle
M109 S185 ; wait for temperature to be reached
G21 ; set units to millimeters
G90 ; use absolute coordinates
M82 ; use absolute distances for extrusion
G92 E0
G1 E-2.00000 F9000.00000
G92 E0
G1 Z0.200 F12000.000
G1 Z0.400 F12000.000
G1 X0.000 Y32.171 F12000.000
G1 Z0.200 F12000.000
G1 E2.00000 F9000.00000
G1 X-22.500 Y32.171 E2.80166 F2160.000
G1 X-23.423 Y32.111 E2.83462
G1 X-24.355 Y31.988 E2.86811
G1 X-26.138 Y31.510 E2.93388
G1 X-27.006 Y31.151 E2.96736
G1 X-28.605 Y30.228 E3.03312
G1 X-29.350 Y29.656 E3.06661
G1 X-30.656 Y28.350 E3.13239
G1 X-31.228 Y27.605 E3.16587
G1 X-32.151 Y26.006 E3.23164
G1 X-32.510 Y25.138 E3.26513
G1 X-32.988 Y23.355 E3.33090
G1 X-33.111 Y22.422 E3.36440
G1 X-33.171 Y21.500 E3.39734
G1 X-33.171 Y-21.500 E4.92941
G1 X-33.111 Y-22.422 E4.96234
G1 X-32.988 Y-23.355 E4.99585
G1 X-32.510 Y-25.138 E5.06162
G1 X-32.150 Y-26.007 E5.09512
G1 X-31.228 Y-27.605 E5.16087
G1 X-30.656 Y-28.350 E5.19436
G1 X-29.350 Y-29.656 E5.26013
G1 X-28.615 Y-30.220 E5.29317
G1 X-27.006 Y-31.151 E5.35938
G1 X-26.138 Y-31.510 E5.39287
G1 X-24.355 Y-31.988 E5.45864
G1 X-23.422 Y-32.111 E5.49214
G1 X-22.500 Y-32.171 E5.52508
G1 X22.500 Y-32.171 E7.12841
G1 X23.423 Y-32.111 E7.16136
G1 X24.355 Y-31.988 E7.19485 F2160.000
G1 X26.138 Y-31.510 E7.26062
G1 X27.006 Y-31.151 E7.29411
G1 X28.604 Y-30.228 E7.35985
G1 X29.350 Y-29.656 E7.39336
G1 X30.656 Y-28.350 E7.45913
G1 X31.228 Y-27.605 E7.49262
G1 X32.151 Y-26.006 E7.55838
G1 X32.506 Y-25.149 E7.59143
G1 X32.988 Y-23.355 E7.65763
G1 X33.111 Y-22.423 E7.69112
G1 X33.171 Y-21.500 E7.72407
G1 X33.171 Y21.500 E9.25614
G1 X33.111 Y22.423 E9.28910
G1 X32.988 Y23.356 E9.32262
G1 X32.510 Y25.138 E9.38836
G1 X32.151 Y26.006 E9.42184
G1 X31.228 Y27.604 E9.48760
G1 X30.656 Y28.350 E9.52110
G1 X29.350 Y29.656 E9.58687
G1 X28.604 Y30.228 E9.62037
G1 X27.006 Y31.151 E9.68612
G1 X26.138 Y31.510 E9.71961
G1 X24.356 Y31.988 E9.78534
G1 X23.423 Y32.111 E9.81886
G1 X22.500 Y32.171 E9.85182
G1 X0.052 Y32.171 E10.65161
G1 X0.052 Y31.814 F12000.000
G1 X-22.500 Y31.814 E11.45515 F2160.000
G1 X-23.376 Y31.757 E11.48644
G1 X-24.308 Y31.634 E11.51992
G1 X-26.001 Y31.180 E11.58237
G1 X-26.869 Y30.821 E11.61586
G1 X-28.387 Y29.945 E11.67830
G1 X-29.133 Y29.372 E11.71179
G1 X-30.372 Y28.133 E11.77424
G1 X-30.944 Y27.387 E11.80773
G1 X-31.821 Y25.869 E11.87017
G1 X-32.180 Y25.001 E11.90366
G1 X-32.634 Y23.308 E11.96611
G1 X-32.757 Y22.376 E11.99961
G1 X-32.814 Y21.500 E12.03088
G1 X-32.814 Y-21.500 E13.56296
G1 X-32.757 Y-22.376 E13.59423
G1 X-32.634 Y-23.308 E13.62773
G1 X-32.180 Y-25.001 E13.69018
G1 X-31.821 Y-25.870 E13.72368
G1 X-30.944 Y-27.387 E13.78611
G1 X-30.372 Y-28.133 E13.81960
G1 X-29.133 Y-29.372 E13.88205
G1 X-28.397 Y-29.937 E13.91509
G1 X-26.869 Y-30.821 E13.97798
G1 X-26.001 Y-31.180 E14.01147
G1 X-24.308 Y-31.634 E14.07391
G1 X-23.376 Y-31.757 E14.10742
G1 X-22.500 Y-31.814 E14.13869
G1 X22.500 Y-31.814 E15.74202
G1 X23.376 Y-31.757 E15.77331
G1 X24.308 Y-31.634 E15.80680 F2160.000
G1 X26.001 Y-31.180 E15.86924
G1 X26.870 Y-30.821 E15.90274
G1 X28.387 Y-29.945 E15.96516
G1 X29.133 Y-29.372 E15.99866
G1 X30.372 Y-28.133 E16.06111
G1 X30.945 Y-27.387 E16.09460
G1 X31.821 Y-25.869 E16.15705
G1 X32.176 Y-25.013 E16.19009
G1 X32.634 Y-23.308 E16.25298
G1 X32.757 Y-22.376 E16.28646
G1 X32.814 Y-21.500 E16.31775
G1 X32.814 Y21.500 E17.84982
G1 X32.757 Y22.376 E17.88111
G1 X32.634 Y23.309 E17.91463
G1 X32.180 Y25.001 E17.97705
G1 X31.821 Y25.869 E18.01053
G1 X30.945 Y27.387 E18.07297
G1 X30.372 Y28.133 E18.10647
G1 X29.133 Y29.372 E18.16892
G1 X28.387 Y29.945 E18.20242
G1 X26.869 Y30.821 E18.26485
G1 X26.001 Y31.180 E18.29833
G1 X24.309 Y31.634 E18.36075
G1 X23.376 Y31.757 E18.39427
G1 X22.500 Y31.814 E18.42556
G1 X0.105 Y31.814 E19.22349
G1 X0.105 Y31.457 F12000.000
G1 X-22.500 Y31.457 E20.02889 F2160.000
G1 X-23.330 Y31.403 E20.05852
G1 X-24.262 Y31.280 E20.09200
G1 X-25.865 Y30.851 E20.15113
G1 X-26.733 Y30.491 E20.18462
G1 X-28.170 Y29.661 E20.24374
G1 X-28.916 Y29.089 E20.27723
G1 X-30.089 Y27.916 E20.33636
G1 X-30.661 Y27.170 E20.36984
G1 X-31.491 Y25.733 E20.42897
G1 X-31.851 Y24.864 E20.46245
G1 X-32.280 Y23.262 E20.52158
G1 X-32.403 Y22.329 E20.55509
G1 X-32.457 Y21.500 E20.58469
G1 X-32.457 Y-21.500 E22.11676
G1 X-32.403 Y-22.329 E22.14637
G1 X-32.280 Y-23.262 E22.17988
G1 X-31.851 Y-24.865 E22.23900
G1 X-31.491 Y-25.733 E22.27251
G1 X-30.661 Y-27.170 E22.33162
G1 X-30.089 Y-27.916 E22.36510
G1 X-28.916 Y-29.089 E22.42423
G1 X-28.180 Y-29.654 E22.45727
G1 X-26.733 Y-30.491 E22.51684
G1 X-25.864 Y-30.851 E22.55033
G1 X-24.262 Y-31.280 E22.60945
G1 X-23.329 Y-31.403 E22.64295
G1 X-22.500 Y-31.457 E22.67256
G1 X22.500 Y-31.457 E24.27589
G1 X23.330 Y-31.403 E24.30552
G1 X24.262 Y-31.280 E24.33901 F2160.000
G1 X25.864 Y-30.851 E24.39813
G1 X26.733 Y-30.491 E24.43163
G1 X28.170 Y-29.661 E24.49073
G1 X28.916 Y-29.089 E24.52423
G1 X30.089 Y-27.916 E24.58336
G1 X30.661 Y-27.170 E24.61685
G1 X31.491 Y-25.733 E24.67597
G1 X31.846 Y-24.876 E24.70901
G1 X32.280 Y-23.262 E24.76858
G1 X32.403 Y-22.330 E24.80206
G1 X32.457 Y-21.500 E24.83169
G1 X32.457 Y21.500 E26.36376
G1 X32.403 Y22.330 E26.39339
G1 X32.280 Y23.262 E26.42691
G1 X31.851 Y24.865 E26.48600
G1 X31.491 Y25.733 E26.51949
G1 X30.661 Y27.170 E26.57860
G1 X30.089 Y27.916 E26.61210
G1 X28.916 Y29.089 E26.67123
G1 X28.170 Y29.661 E26.70473
G1 X26.733 Y30.491 E26.76384
G1 X25.865 Y30.851 E26.79732
G1 X24.262 Y31.280 E26.85642
G1 X23.330 Y31.403 E26.88994
G1 X22.500 Y31.457 E26.91957
G1 X0.158 Y31.457 E27.71562
G1 E25.71562 F9000.00000
G92 E0
G1 Z0.400 F12000.000
G1 X17.590 Y21.873 F12000.000
G1 Z0.200 F12000.000
G1 E2.00000 F9000.00000
G1 X17.354 Y21.444 E2.01747 F540.000
G1 X17.109 Y20.491 E2.05249
G1 X17.109 Y19.509 E2.08751
G1 X17.346 Y18.586 E2.12144
G1 X17.825 Y17.698 E2.15739
G1 X18.500 Y16.978 E2.19255
G1 X19.334 Y16.450 E2.22772
G1 X20.296 Y16.146 E2.26367
G1 X21.246 Y16.086 E2.29759 F540.000
G1 X22.212 Y16.270 E2.33262
G1 X23.101 Y16.689 E2.36764
G1 X23.859 Y17.316 E2.40266
G1 X24.436 Y18.111 E2.43768
G1 X24.798 Y19.025 E2.47271
G1 X24.921 Y20.000 E2.50773
G1 X24.798 Y20.975 E2.54275
G1 X24.436 Y21.889 E2.57777
G1 X23.859 Y22.684 E2.61280
G1 X23.101 Y23.311 E2.64782
G1 X22.212 Y23.729 E2.68284
G1 X21.246 Y23.914 E2.71787
G1 X20.265 Y23.852 E2.75289
G1 X19.330 Y23.548 E2.78791
G1 X18.500 Y23.022 E2.82293
G1 X17.828 Y22.305 E2.85796
G1 X17.615 Y21.919 E2.87364
G1 X17.928 Y21.747 F12000.000
G1 X17.689 Y21.311 E2.89137 F540.000
G1 X17.467 Y20.446 E2.92318
G1 X17.467 Y19.554 E2.95499
G1 X17.681 Y18.717 E2.98575
G1 X18.117 Y17.908 E3.01849
G1 X18.730 Y17.256 E3.05039
G1 X19.486 Y16.776 E3.08228
G1 X20.362 Y16.500 E3.11502
G1 X21.224 Y16.446 E3.14578 F540.000
G1 X22.101 Y16.613 E3.17759
G1 X22.908 Y16.993 E3.20940
G1 X23.596 Y17.562 E3.24121
G1 X24.121 Y18.284 E3.27301
G1 X24.450 Y19.114 E3.30482
G1 X24.562 Y20.000 E3.33663
G1 X24.450 Y20.886 E3.36844
G1 X24.121 Y21.716 E3.40025
G1 X23.596 Y22.438 E3.43206
G1 X22.908 Y23.007 E3.46386
G1 X22.101 Y23.387 E3.49567
G1 X21.224 Y23.554 E3.52748
G1 X20.333 Y23.498 E3.55929
G1 X19.484 Y23.223 E3.59110
G1 X18.730 Y22.744 E3.62291
G1 X18.119 Y22.093 E3.65471
G1 X17.954 Y21.793 E3.66692
G1 X18.267 Y21.621 F12000.000
G1 X18.023 Y21.179 E3.68491 F540.000
G1 X17.824 Y20.401 E3.71351
G1 X17.824 Y19.599 E3.74210
G1 X18.016 Y18.848 E3.76971
G1 X18.409 Y18.119 E3.79923
G1 X18.959 Y17.533 E3.82786
G1 X19.638 Y17.103 E3.85648
G1 X20.428 Y16.853 E3.88600
G1 X21.201 Y16.805 E3.91361 F540.000
G1 X21.989 Y16.955 E3.94220
G1 X22.715 Y17.297 E3.97080
G1 X23.334 Y17.808 E3.99939
G1 X23.806 Y18.458 E4.02798
G1 X24.101 Y19.204 E4.05658
G1 X24.202 Y20.000 E4.08517
G1 X24.101 Y20.796 E4.11376
G1 X23.806 Y21.542 E4.14236
G1 X23.334 Y22.192 E4.17095
G1 X22.715 Y22.703 E4.19955
G1 X21.989 Y23.045 E4.22814
G1 X21.201 Y23.195 E4.25673
G1 X20.400 Y23.145 E4.28533
G1 X19.637 Y22.897 E4.31392
G1 X18.959 Y22.467 E4.34252
G1 X18.410 Y21.882 E4.37111
G1 X18.292 Y21.667 E4.37984
G1 X17.917 Y21.614 F12000.000
G1 X13.567 Y15.842 F12000.000
G1 X12.461 Y16.740 E4.43059 F1080.000
G1 X11.219 Y17.612 E4.48465
G1 X9.920 Y18.396 E4.53871
G1 X8.570 Y19.088 E4.59277
G1 X7.175 Y19.685 E4.64684
G1 X5.742 Y20.184 E4.70090
G1 X4.278 Y20.583 E4.75496
G1 X2.790 Y20.880 E4.80902
G1 X0.286 Y21.201 E4.89897
G1 X0.286 Y18.138 E5.00811
G1 X2.585 Y17.899 E5.09048
G1 X4.012 Y17.635 E5.14217
G1 X5.412 Y17.256 E5.19386
G1 X6.778 Y16.767 E5.24556
G1 X8.016 Y16.208 E5.29393
G1 X9.372 Y15.467 E5.34901
G1 X10.580 Y14.667 E5.40062
G1 X11.722 Y13.772 E5.45232
G1 X12.787 Y12.790 E5.50393
G1 X13.829 Y11.649 E5.55901
G1 X14.667 Y10.580 E5.60738
G1 X15.468 Y9.370 E5.65908
G1 X16.170 Y8.100 E5.71077
G1 X16.767 Y6.778 E5.76246
G1 X17.256 Y5.412 E5.81415
G1 X17.635 Y4.012 E5.86585
G1 X17.899 Y2.585 E5.91754
G1 X18.138 Y0.286 E5.99991
G1 X21.201 Y0.286 E6.10904 F1080.000
G1 X20.880 Y2.790 E6.19899
G1 X20.583 Y4.278 E6.25305
G1 X20.184 Y5.742 E6.30712
G1 X19.685 Y7.175 E6.36118
G1 X19.088 Y8.570 E6.41524
G1 X18.396 Y9.920 E6.46931
G1 X17.612 Y11.219 E6.52337
G1 X16.740 Y12.461 E6.57743
G1 X15.784 Y13.639 E6.63149
G1 X14.749 Y14.749 E6.68556
G1 X13.608 Y15.809 E6.74106
G1 X13.383 Y15.532 F12000.000
G1 X12.245 Y16.455 E6.79324 F1080.000
G1 X11.024 Y17.312 E6.84642
G1 X9.746 Y18.084 E6.89960
G1 X8.418 Y18.765 E6.95278
G1 X7.046 Y19.352 E7.00596
G1 X5.636 Y19.843 E7.05914
G1 X4.196 Y20.236 E7.11232
G1 X2.732 Y20.527 E7.16551
G1 X0.643 Y20.795 E7.24055
G1 X0.643 Y18.460 E7.32376
G1 X2.636 Y18.253 E7.39517
G1 X4.091 Y17.983 E7.44788
G1 X5.519 Y17.597 E7.50060
G1 X6.912 Y17.098 E7.55331
G1 X8.175 Y16.528 E7.60268
G1 X9.557 Y15.773 E7.65878
G1 X10.789 Y14.957 E7.71144
G1 X11.954 Y14.044 E7.76416
G1 X13.040 Y13.042 E7.81683
G1 X14.102 Y11.880 E7.87292
G1 X14.957 Y10.789 E7.92229
G1 X15.774 Y9.556 E7.97500
G1 X16.489 Y8.260 E8.02772
G1 X17.098 Y6.912 E8.08043
G1 X17.597 Y5.519 E8.13315
G1 X17.983 Y4.091 E8.18586
G1 X18.253 Y2.636 E8.23858
G1 X18.460 Y0.643 E8.30998
G1 X20.795 Y0.643 E8.39319 F1080.000
G1 X20.527 Y2.732 E8.46824
G1 X20.236 Y4.196 E8.52142
G1 X19.843 Y5.636 E8.57460
G1 X19.352 Y7.046 E8.62778
G1 X18.765 Y8.418 E8.68096
G1 X18.084 Y9.746 E8.73415
G1 X17.312 Y11.024 E8.78733
G1 X16.455 Y12.245 E8.84051
G1 X15.514 Y13.405 E8.89369
G1 X14.496 Y14.496 E8.94687
G1 X13.422 Y15.498 E8.99918
G1 X13.179 Y15.237 F12000.000
G1 X12.030 Y16.169 E9.05191 F756.000
G1 X10.829 Y17.013 E9.10421
G1 X9.572 Y17.772 E9.15651
G1 X8.266 Y18.441 E9.20881
G1 X6.916 Y19.019 E9.26111
G1 X5.530 Y19.502 E9.31341
G1 X4.114 Y19.888 E9.36571
G1 X2.675 Y20.175 E9.41801
G1 X1.000 Y20.389 E9.47816
G1 X1.000 Y18.782 E9.53544
G1 X2.687 Y18.607 E9.59588
G1 X4.170 Y18.331 E9.64962
G1 X5.626 Y17.938 E9.70336
G1 X7.046 Y17.429 E9.75709
G1 X8.334 Y16.848 E9.80745
G1 X9.741 Y16.079 E9.86457
G1 X10.998 Y15.247 E9.91829
G1 X12.185 Y14.316 E9.97202
G1 X13.293 Y13.294 E10.02574
G1 X14.375 Y12.111 E10.08286
G1 X15.247 Y10.998 E10.13322
G1 X16.080 Y9.741 E10.18696
G1 X16.809 Y8.421 E10.24069
G1 X17.429 Y7.046 E10.29443
G1 X17.938 Y5.626 E10.34816
G1 X18.331 Y4.170 E10.40190
G1 X18.607 Y2.687 E10.45563
G1 X18.782 Y1.000 E10.51608
G1 X20.389 Y1.000 E10.57336 F756.000
G1 X20.175 Y2.675 E10.63351
G1 X19.888 Y4.114 E10.68581
G1 X19.502 Y5.530 E10.73811
G1 X19.019 Y6.916 E10.79041
G1 X18.441 Y8.266 E10.84271
G1 X17.772 Y9.572 E10.89501
G1 X17.013 Y10.829 E10.94731
G1 X16.169 Y12.030 E10.99961
G1 X15.245 Y13.170 E11.05191
G1 X14.243 Y14.243 E11.10421
G1 X13.217 Y15.201 E11.15421
G1 X13.242 Y15.581 F12000.000
G1 E9.15421 F9000.00000
G92 E0
G1 Z0.400 F12000.000
G1 X21.298 Y0.200 F12000.000
G1 X22.640 Y-6.414 F12000.000
G1 X21.960 Y-10.039 F12000.000
G1 X21.393 Y-12.295 F12000.000
G1 X21.032 Y-12.502 F12000.000
G1 X21.252 Y-16.000 F12000.000
G1 X20.236 Y-16.158 F12000.000
G1 Z0.200 F12000.000
G1 E2.00000 F9000.00000
G1 X19.330 Y-16.452 E2.03392 F540.000
G1 X18.500 Y-16.978 E2.06895
G1 X17.828 Y-17.695 E2.10397
G1 X17.354 Y-18.556 E2.13899
G1 X17.109 Y-19.509 E2.17401
G1 X17.109 Y-20.491 E2.20904
G1 X17.346 Y-21.414 E2.24296
G1 X17.825 Y-22.302 E2.27891
G1 X18.500 Y-23.022 E2.31408
G1 X19.334 Y-23.550 E2.34924
G1 X20.296 Y-23.854 E2.38519
G1 X21.246 Y-23.914 E2.41912 F540.000
G1 X22.212 Y-23.729 E2.45414
G1 X23.101 Y-23.311 E2.48916
G1 X23.859 Y-22.684 E2.52419
G1 X24.436 Y-21.889 E2.55921
G1 X24.798 Y-20.975 E2.59423
G1 X24.921 Y-20.000 E2.62925
G1 X24.798 Y-19.025 E2.66428
G1 X24.436 Y-18.111 E2.69930
G1 X23.859 Y-17.316 E2.73432
G1 X23.101 Y-16.689 E2.76934
G1 X22.212 Y-16.271 E2.80437
G1 X21.242 Y-16.086 E2.83953
G1 X20.288 Y-16.154 E2.87361
G1 X20.314 Y-16.510 F12000.000
G1 X19.484 Y-16.777 E2.90469 F540.000
G1 X18.730 Y-17.256 E2.93650
G1 X18.119 Y-17.907 E2.96830
G1 X17.689 Y-18.689 E3.00011
G1 X17.467 Y-19.554 E3.03192
G1 X17.467 Y-20.446 E3.06373
G1 X17.681 Y-21.283 E3.09449
G1 X18.117 Y-22.092 E3.12723
G1 X18.730 Y-22.744 E3.15912
G1 X19.486 Y-23.224 E3.19102
G1 X20.362 Y-23.500 E3.22376
G1 X21.224 Y-23.554 E3.25452 F540.000
G1 X22.101 Y-23.387 E3.28633
G1 X22.908 Y-23.007 E3.31814
G1 X23.596 Y-22.438 E3.34995
G1 X24.121 Y-21.716 E3.38175
G1 X24.450 Y-20.886 E3.41356
G1 X24.562 Y-20.000 E3.44537
G1 X24.450 Y-19.114 E3.47718
G1 X24.121 Y-18.284 E3.50899
G1 X23.596 Y-17.562 E3.54080
G1 X22.908 Y-16.993 E3.57260
G1 X22.101 Y-16.613 E3.60441
G1 X21.221 Y-16.445 E3.63631
G1 X20.366 Y-16.506 E3.66685
G1 X20.392 Y-16.862 F12000.000
G1 X19.637 Y-17.103 E3.69508 F540.000
G1 X18.959 Y-17.533 E3.72367
G1 X18.410 Y-18.118 E3.75227
G1 X18.023 Y-18.821 E3.78086
G1 X17.824 Y-19.599 E3.80945
G1 X17.824 Y-20.401 E3.83805
G1 X18.016 Y-21.152 E3.86565
G1 X18.409 Y-21.881 E3.89518
G1 X18.959 Y-22.467 E3.92380
G1 X19.638 Y-22.897 E3.95243
G1 X20.428 Y-23.147 E3.98195
G1 X21.201 Y-23.195 E4.00955 F540.000
G1 X21.989 Y-23.045 E4.03815
G1 X22.715 Y-22.703 E4.06674
G1 X23.334 Y-22.192 E4.09533
G1 X23.806 Y-21.542 E4.12393
G1 X24.101 Y-20.796 E4.15252
G1 X24.202 Y-20.000 E4.18112
G1 X24.101 Y-19.204 E4.20971
G1 X23.806 Y-18.458 E4.23830
G1 X23.334 Y-17.808 E4.26690
G1 X22.715 Y-17.297 E4.29549
G1 X21.989 Y-16.955 E4.32408
G1 X21.200 Y-16.805 E4.35271
G1 X20.444 Y-16.859 E4.37972
G1 X20.152 Y-16.607 F12000.000
G1 X16.058 Y-13.301 F12000.000
G1 X16.740 Y-12.461 E4.41827 F1080.000
G1 X17.612 Y-11.219 E4.47233
G1 X18.396 Y-9.920 E4.52640
G1 X19.088 Y-8.570 E4.58046
G1 X19.685 Y-7.175 E4.63452
G1 X20.184 Y-5.742 E4.68858
G1 X20.583 Y-4.278 E4.74265
G1 X20.880 Y-2.790 E4.79671
G1 X21.201 Y-0.286 E4.88666
G1 X18.138 Y-0.286 E4.99579
G1 X17.899 Y-2.585 E5.07816
G1 X17.635 Y-4.012 E5.12986
G1 X17.256 Y-5.412 E5.18155
G1 X16.767 Y-6.778 E5.23324
G1 X16.170 Y-8.100 E5.28493
G1 X15.468 Y-9.370 E5.33663
G1 X14.667 Y-10.580 E5.38832
G1 X13.772 Y-11.722 E5.44001
G1 X12.788 Y-12.788 E5.49170
G1 X11.722 Y-13.772 E5.54340
G1 X10.580 Y-14.667 E5.59509
G1 X9.370 Y-15.468 E5.64678
G1 X8.100 Y-16.170 E5.69847
G1 X6.778 Y-16.767 E5.75017
G1 X5.500 Y-17.225 E5.79854
G1 X4.010 Y-17.635 E5.85362
G1 X2.585 Y-17.899 E5.90523
G1 X0.286 Y-18.138 E5.98760
G1 X0.286 Y-21.201 E6.09674 F1080.000
G1 X2.790 Y-20.880 E6.18669
G1 X4.278 Y-20.583 E6.24075
G1 X5.742 Y-20.184 E6.29481
G1 X7.175 Y-19.685 E6.34888
G1 X8.570 Y-19.088 E6.40294
G1 X9.920 Y-18.396 E6.45700
G1 X11.219 Y-17.612 E6.51106
G1 X12.461 Y-16.740 E6.56513
G1 X13.639 Y-15.784 E6.61919
G1 X14.749 Y-14.749 E6.67325
G1 X15.784 Y-13.639 E6.72731
G1 X16.025 Y-13.342 E6.74096
G1 X15.748 Y-13.117 F12000.000
G1 X16.455 Y-12.245 E6.78094 F1080.000
G1 X17.312 Y-11.024 E6.83412
G1 X18.084 Y-9.746 E6.88730
G1 X18.765 Y-8.418 E6.94048
G1 X19.352 Y-7.046 E6.99366
G1 X19.843 Y-5.636 E7.04684
G1 X20.236 Y-4.196 E7.10002
G1 X20.527 Y-2.732 E7.15320
G1 X20.795 Y-0.643 E7.22825
G1 X18.460 Y-0.643 E7.31146
G1 X18.253 Y-2.636 E7.38287
G1 X17.983 Y-4.091 E7.43558
