; generated by Slic3r 1.2.9 on 2018-03-27 at 14:20:37

; external perimeters extrusion width = 0.40mm
; perimeters extrusion width = 0.40mm
; infill extrusion width = 0.40mm
; solid infill extrusion width = 0.40mm
; top infill extrusion width = 0.40mm

M107
M104 S185 ; set temperature
G28 ; home all axes
G29 Z3.65
G1 Z5 F5000 ; lift nozzle
M109 S185 ; wait for temperature to be reached
G21 ; set units to millimeters
G90 ; use absolute coordinates
M82 ; use absolute distances for extrusion
G92 E0
G1 E-2.00000 F2400.00000
G92 E0
G1 Z0.500 F12000.000
G1 X0.000 Y32.171 F12000.000
G1 Z0.200 F12000.000
G1 E2.00000 F2400.00000
G1 X-22.500 Y32.171 E2.66805 F2160.000
G1 X-23.423 Y32.111 E2.69552
G1 X-24.355 Y31.988 E2.72342
G1 X-26.138 Y31.510 E2.77823
G1 X-27.006 Y31.151 E2.80614
G1 X-28.605 Y30.228 E2.86094
G1 X-29.350 Y29.656 E2.88885
G1 X-30.656 Y28.350 E2.94366
G1 X-31.228 Y27.605 E2.97156
G1 X-32.151 Y26.006 E3.02637
G1 X-32.510 Y25.138 E3.05427
G1 X-32.988 Y23.355 E3.10908
G1 X-33.111 Y22.422 E3.13700
G1 X-33.171 Y21.500 E3.16445
G1 X-33.171 Y-21.500 E4.44117
G1 X-33.111 Y-22.422 E4.46862
G1 X-32.988 Y-23.355 E4.49654
G1 X-32.510 Y-25.138 E4.55135
G1 X-32.150 Y-26.007 E4.57927
G1 X-31.228 Y-27.605 E4.63406
G1 X-30.656 Y-28.350 E4.66197
G1 X-29.350 Y-29.656 E4.71677
G1 X-28.615 Y-30.220 E4.74431
G1 X-27.006 Y-31.151 E4.79948
G1 X-26.138 Y-31.510 E4.82739
G1 X-24.355 Y-31.988 E4.88220
G1 X-23.422 Y-32.111 E4.91012
G1 X-22.500 Y-32.171 E4.93756
G1 X22.500 Y-32.171 E6.27367
G1 X23.423 Y-32.111 E6.30113
G1 X24.355 Y-31.988 E6.32904 F2160.000
G1 X26.138 Y-31.510 E6.38385
G1 X27.006 Y-31.151 E6.41176
G1 X28.604 Y-30.228 E6.46654
G1 X29.350 Y-29.656 E6.49446
G1 X30.656 Y-28.350 E6.54927
G1 X31.228 Y-27.605 E6.57718
G1 X32.151 Y-26.006 E6.63198
G1 X32.506 Y-25.149 E6.65952
G1 X32.988 Y-23.355 E6.71469
G1 X33.111 Y-22.423 E6.74260
G1 X33.171 Y-21.500 E6.77006
G1 X33.171 Y21.500 E8.04679
G1 X33.111 Y22.423 E8.07425
G1 X32.988 Y23.356 E8.10218
G1 X32.510 Y25.138 E8.15696
G1 X32.151 Y26.006 E8.18487
G1 X31.228 Y27.604 E8.23966
G1 X30.656 Y28.350 E8.26758
G1 X29.350 Y29.656 E8.32239
G1 X28.604 Y30.228 E8.35031
G1 X27.006 Y31.151 E8.40510
G1 X26.138 Y31.510 E8.43300
G1 X24.356 Y31.988 E8.48778
G1 X23.423 Y32.111 E8.51572
G1 X22.500 Y32.171 E8.54318
G1 X0.052 Y32.171 E9.20968
G1 X0.052 Y31.814 F12000.000
G1 X-22.500 Y31.814 E9.87929 F2160.000
G1 X-23.376 Y31.757 E9.90537
G1 X-24.308 Y31.634 E9.93327
G1 X-26.001 Y31.180 E9.98531
G1 X-26.869 Y30.821 E10.01322
G1 X-28.387 Y29.945 E10.06525
G1 X-29.133 Y29.372 E10.09316
G1 X-30.372 Y28.133 E10.14520
G1 X-30.944 Y27.387 E10.17310
G1 X-31.821 Y25.869 E10.22515
G1 X-32.180 Y25.001 E10.25305
G1 X-32.634 Y23.308 E10.30509
G1 X-32.757 Y22.376 E10.33301
G1 X-32.814 Y21.500 E10.35907
G1 X-32.814 Y-21.500 E11.63580
G1 X-32.757 Y-22.376 E11.66186
G1 X-32.634 Y-23.308 E11.68978
G1 X-32.180 Y-25.001 E11.74182
G1 X-31.821 Y-25.870 E11.76974
G1 X-30.944 Y-27.387 E11.82176
G1 X-30.372 Y-28.133 E11.84967
G1 X-29.133 Y-29.372 E11.90171
G1 X-28.397 Y-29.937 E11.92924
G1 X-26.869 Y-30.821 E11.98165
G1 X-26.001 Y-31.180 E12.00956
G1 X-24.308 Y-31.634 E12.06159
G1 X-23.376 Y-31.757 E12.08951
G1 X-22.500 Y-31.814 E12.11557
G1 X22.500 Y-31.814 E13.45168
G1 X23.376 Y-31.757 E13.47776
G1 X24.308 Y-31.634 E13.50566 F2160.000
G1 X26.001 Y-31.180 E13.55770
G1 X26.870 Y-30.821 E13.58562
G1 X28.387 Y-29.945 E13.63763
G1 X29.133 Y-29.372 E13.66555
G1 X30.372 Y-28.133 E13.71759
G1 X30.945 Y-27.387 E13.74550
G1 X31.821 Y-25.869 E13.79754
G1 X32.176 Y-25.013 E13.82507
G1 X32.634 Y-23.308 E13.87748
G1 X32.757 Y-22.376 E13.90538
G1 X32.814 Y-21.500 E13.93146
G1 X32.814 Y21.500 E15.20819
G1 X32.757 Y22.376 E15.23426
G1 X32.634 Y23.309 E15.26220
G1 X32.180 Y25.001 E15.31421
G1 X31.821 Y25.869 E15.34211
G1 X30.945 Y27.387 E15.39414
G1 X30.372 Y28.133 E15.42206
G1 X29.133 Y29.372 E15.47410
G1 X28.387 Y29.945 E15.50201
G1 X26.869 Y30.821 E15.55404
G1 X26.001 Y31.180 E15.58195
G1 X24.309 Y31.634 E15.63396
G1 X23.376 Y31.757 E15.66189
G1 X22.500 Y31.814 E15.68797
G1 X0.105 Y31.814 E16.35290
G1 X0.105 Y31.457 F12000.000
G1 X-22.500 Y31.457 E17.02408 F2160.000
G1 X-23.330 Y31.403 E17.04877
G1 X-24.262 Y31.280 E17.07667
G1 X-25.865 Y30.851 E17.12594
G1 X-26.733 Y30.491 E17.15385
G1 X-28.170 Y29.661 E17.20311
G1 X-28.916 Y29.089 E17.23102
G1 X-30.089 Y27.916 E17.28030
G1 X-30.661 Y27.170 E17.30820
G1 X-31.491 Y25.733 E17.35747
G1 X-31.851 Y24.864 E17.38538
G1 X-32.280 Y23.262 E17.43465
G1 X-32.403 Y22.329 E17.46257
G1 X-32.457 Y21.500 E17.48724
G1 X-32.457 Y-21.500 E18.76397
G1 X-32.403 Y-22.329 E18.78864
G1 X-32.280 Y-23.262 E18.81656
G1 X-31.851 Y-24.865 E18.86584
G1 X-31.491 Y-25.733 E18.89376
G1 X-30.661 Y-27.170 E18.94301
G1 X-30.089 Y-27.916 E18.97092
G1 X-28.916 Y-29.089 E19.02019
G1 X-28.180 Y-29.654 E19.04773
G1 X-26.733 Y-30.491 E19.09737
G1 X-25.864 Y-30.851 E19.12527
G1 X-24.262 Y-31.280 E19.17454
G1 X-23.329 Y-31.403 E19.20246
G1 X-22.500 Y-31.457 E19.22714
G1 X22.500 Y-31.457 E20.56324
G1 X23.330 Y-31.403 E20.58793
G1 X24.262 Y-31.280 E20.61584 F2160.000
G1 X25.864 Y-30.851 E20.66511
G1 X26.733 Y-30.491 E20.69302
G1 X28.170 Y-29.661 E20.74227
G1 X28.916 Y-29.089 E20.77019
G1 X30.089 Y-27.916 E20.81947
G1 X30.661 Y-27.170 E20.84737
G1 X31.491 Y-25.733 E20.89664
G1 X31.846 Y-24.876 E20.92418
G1 X32.280 Y-23.262 E20.97382
G1 X32.403 Y-22.330 E21.00172
G1 X32.457 Y-21.500 E21.02641
G1 X32.457 Y21.500 E22.30314
G1 X32.403 Y22.330 E22.32783
G1 X32.280 Y23.262 E22.35576
G1 X31.851 Y24.865 E22.40500
G1 X31.491 Y25.733 E22.43291
G1 X30.661 Y27.170 E22.48217
G1 X30.089 Y27.916 E22.51008
G1 X28.916 Y29.089 E22.55936
G1 X28.170 Y29.661 E22.58727
G1 X26.733 Y30.491 E22.63653
G1 X25.865 Y30.851 E22.66444
G1 X24.262 Y31.280 E22.71368
G1 X23.330 Y31.403 E22.74162
G1 X22.500 Y31.457 E22.76630
G1 X0.158 Y31.457 E23.42968
G1 E21.42968 F2400.00000
G92 E0
G1 Z0.700 F12000.000
G1 X17.590 Y21.873 F12000.000
G1 Z0.200 F12000.000
G1 E2.00000 F2400.00000
G1 X17.354 Y21.444 E2.01456 F540.000
G1 X17.109 Y20.491 E2.04374
G1 X17.109 Y19.509 E2.07293
G1 X17.346 Y18.586 E2.10120
G1 X17.825 Y17.698 E2.13116
G1 X18.500 Y16.978 E2.16046
G1 X19.334 Y16.450 E2.18977
G1 X20.296 Y16.146 E2.21972
G1 X21.246 Y16.086 E2.24799 F540.000
G1 X22.212 Y16.270 E2.27718
G1 X23.101 Y16.689 E2.30637
G1 X23.859 Y17.316 E2.33555
G1 X24.436 Y18.111 E2.36474
G1 X24.798 Y19.025 E2.39392
G1 X24.921 Y20.000 E2.42311
G1 X24.798 Y20.975 E2.45229
G1 X24.436 Y21.889 E2.48148
G1 X23.859 Y22.684 E2.51066
G1 X23.101 Y23.311 E2.53985
G1 X22.212 Y23.729 E2.56904
G1 X21.246 Y23.914 E2.59822
G1 X20.265 Y23.852 E2.62741
G1 X19.330 Y23.548 E2.65659
G1 X18.500 Y23.022 E2.68578
G1 X17.828 Y22.305 E2.71496
G1 X17.615 Y21.919 E2.72803
G1 X17.928 Y21.747 F12000.000
G1 X17.689 Y21.311 E2.74281 F540.000
G1 X17.467 Y20.446 E2.76932
G1 X17.467 Y19.554 E2.79582
G1 X17.681 Y18.717 E2.82146
G1 X18.117 Y17.908 E2.84874
G1 X18.730 Y17.256 E2.87532
G1 X19.486 Y16.776 E2.90190
G1 X20.362 Y16.500 E2.92918
G1 X21.224 Y16.446 E2.95482 F540.000
G1 X22.101 Y16.613 E2.98132
G1 X22.908 Y16.993 E3.00783
G1 X23.596 Y17.562 E3.03434
G1 X24.121 Y18.284 E3.06085
G1 X24.450 Y19.114 E3.08735
G1 X24.562 Y20.000 E3.11386
G1 X24.450 Y20.886 E3.14037
G1 X24.121 Y21.716 E3.16687
G1 X23.596 Y22.438 E3.19338
G1 X22.908 Y23.007 E3.21989
G1 X22.101 Y23.387 E3.24639
G1 X21.224 Y23.554 E3.27290
G1 X20.333 Y23.498 E3.29941
G1 X19.484 Y23.223 E3.32591
G1 X18.730 Y22.744 E3.35242
G1 X18.119 Y22.093 E3.37893
G1 X17.954 Y21.793 E3.38910
G1 X18.267 Y21.621 F12000.000
G1 X18.023 Y21.179 E3.40410 F540.000
G1 X17.824 Y20.401 E3.42792
G1 X17.824 Y19.599 E3.45175
G1 X18.016 Y18.848 E3.47476
G1 X18.409 Y18.119 E3.49936
G1 X18.959 Y17.533 E3.52321
G1 X19.638 Y17.103 E3.54707
G1 X20.428 Y16.853 E3.57167
G1 X21.201 Y16.805 E3.59467 F540.000
G1 X21.989 Y16.955 E3.61850
G1 X22.715 Y17.297 E3.64233
G1 X23.334 Y17.808 E3.66616
G1 X23.806 Y18.458 E3.68999
G1 X24.101 Y19.204 E3.71381
G1 X24.202 Y20.000 E3.73764
G1 X24.101 Y20.796 E3.76147
G1 X23.806 Y21.542 E3.78530
G1 X23.334 Y22.192 E3.80913
G1 X22.715 Y22.703 E3.83296
G1 X21.989 Y23.045 E3.85678
G1 X21.201 Y23.195 E3.88061
G1 X20.400 Y23.145 E3.90444
G1 X19.637 Y22.897 E3.92827
G1 X18.959 Y22.467 E3.95210
G1 X18.410 Y21.882 E3.97592
G1 X18.292 Y21.667 E3.98320
G1 X17.917 Y21.614 F12000.000
G1 X13.567 Y15.842 F12000.000
G1 X12.461 Y16.740 E4.02549 F1080.000
G1 X11.219 Y17.612 E4.07054
G1 X9.920 Y18.396 E4.11559
G1 X8.570 Y19.088 E4.16065
G1 X7.175 Y19.685 E4.20570
G1 X5.742 Y20.184 E4.25075
G1 X4.278 Y20.583 E4.29580
G1 X2.790 Y20.880 E4.34085
G1 X0.286 Y21.201 E4.41581
G1 X0.286 Y18.138 E4.50676
G1 X2.585 Y17.899 E4.57540
G1 X4.012 Y17.635 E4.61848
G1 X5.412 Y17.256 E4.66155
G1 X6.778 Y16.767 E4.70463
G1 X8.016 Y16.208 E4.74494
G1 X9.372 Y15.467 E4.79084
G1 X10.580 Y14.667 E4.83385
G1 X11.722 Y13.772 E4.87693
G1 X12.787 Y12.790 E4.91994
G1 X13.829 Y11.649 E4.96584
G1 X14.667 Y10.580 E5.00615
G1 X15.468 Y9.370 E5.04923
G1 X16.170 Y8.100 E5.09231
G1 X16.767 Y6.778 E5.13538
G1 X17.256 Y5.412 E5.17846
G1 X17.635 Y4.012 E5.22154
G1 X17.899 Y2.585 E5.26462
G1 X18.138 Y0.286 E5.33326
G1 X21.201 Y0.286 E5.42420 F1080.000
G1 X20.880 Y2.790 E5.49916
G1 X20.583 Y4.278 E5.54421
G1 X20.184 Y5.742 E5.58926
G1 X19.685 Y7.175 E5.63432
G1 X19.088 Y8.570 E5.67937
G1 X18.396 Y9.920 E5.72442
G1 X17.612 Y11.219 E5.76947
G1 X16.740 Y12.461 E5.81453
G1 X15.784 Y13.639 E5.85958
G1 X14.749 Y14.749 E5.90463
G1 X13.608 Y15.809 E5.95088
G1 X13.383 Y15.532 F12000.000
G1 X12.245 Y16.455 E5.99436 F1080.000
G1 X11.024 Y17.312 E6.03868
G1 X9.746 Y18.084 E6.08300
G1 X8.418 Y18.765 E6.12732
G1 X7.046 Y19.352 E6.17164
G1 X5.636 Y19.843 E6.21595
G1 X4.196 Y20.236 E6.26027
G1 X2.732 Y20.527 E6.30459
G1 X0.643 Y20.795 E6.36713
G1 X0.643 Y18.460 E6.43647
G1 X2.636 Y18.253 E6.49598
G1 X4.091 Y17.983 E6.53990
G1 X5.519 Y17.597 E6.58383
G1 X6.912 Y17.098 E6.62776
G1 X8.175 Y16.528 E6.66890
G1 X9.557 Y15.773 E6.71565
G1 X10.789 Y14.957 E6.75954
G1 X11.954 Y14.044 E6.80347
G1 X13.040 Y13.042 E6.84735
G1 X14.102 Y11.880 E6.89410
G1 X14.957 Y10.789 E6.93524
G1 X15.774 Y9.556 E6.97917
G1 X16.489 Y8.260 E7.02310
G1 X17.098 Y6.912 E7.06703
G1 X17.597 Y5.519 E7.11096
G1 X17.983 Y4.091 E7.15488
G1 X18.253 Y2.636 E7.19881
G1 X18.460 Y0.643 E7.25832
G1 X20.795 Y0.643 E7.32766 F1080.000
G1 X20.527 Y2.732 E7.39020
G1 X20.236 Y4.196 E7.43452
G1 X19.843 Y5.636 E7.47884
G1 X19.352 Y7.046 E7.52315
G1 X18.765 Y8.418 E7.56747
G1 X18.084 Y9.746 E7.61179
G1 X17.312 Y11.024 E7.65611
G1 X16.455 Y12.245 E7.70042
G1 X15.514 Y13.405 E7.74474
G1 X14.496 Y14.496 E7.78906
G1 X13.422 Y15.498 E7.83265
G1 X13.179 Y15.237 F12000.000
G1 X12.030 Y16.169 E7.87659 F756.000
G1 X10.829 Y17.013 E7.92017
G1 X9.572 Y17.772 E7.96376
G1 X8.266 Y18.441 E8.00734
G1 X6.916 Y19.019 E8.05092
G1 X5.530 Y19.502 E8.09451
G1 X4.114 Y19.888 E8.13809
G1 X2.675 Y20.175 E8.18167
G1 X1.000 Y20.389 E8.23180
G1 X1.000 Y18.782 E8.27953
G1 X2.687 Y18.607 E8.32990
G1 X4.170 Y18.331 E8.37468
G1 X5.626 Y17.938 E8.41946
G1 X7.046 Y17.429 E8.46424
G1 X8.334 Y16.848 E8.50621
G1 X9.741 Y16.079 E8.55381
G1 X10.998 Y15.247 E8.59857
G1 X12.185 Y14.316 E8.64335
G1 X13.293 Y13.294 E8.68812
G1 X14.375 Y12.111 E8.73572
G1 X15.247 Y10.998 E8.77768
G1 X16.080 Y9.741 E8.82246
G1 X16.809 Y8.421 E8.86724
G1 X17.429 Y7.046 E8.91202
G1 X17.938 Y5.626 E8.95680
G1 X18.331 Y4.170 E9.00158
G1 X18.607 Y2.687 E9.04636
G1 X18.782 Y1.000 E9.09673
G1 X20.389 Y1.000 E9.14447 F756.000
G1 X20.175 Y2.675 E9.19459
G1 X19.888 Y4.114 E9.23817
G1 X19.502 Y5.530 E9.28176
G1 X19.019 Y6.916 E9.32534
G1 X18.441 Y8.266 E9.36892
G1 X17.772 Y9.572 E9.41251
G1 X17.013 Y10.829 E9.45609
G1 X16.169 Y12.030 E9.49967
G1 X15.245 Y13.170 E9.54326
G1 X14.243 Y14.243 E9.58684
G1 X13.217 Y15.201 E9.62851
G1 X13.242 Y15.581 F12000.000
G1 E7.62851 F2400.00000
G92 E0
G1 Z0.700 F12000.000
G1 X21.298 Y0.200 F12000.000
G1 X22.640 Y-6.414 F12000.000
G1 X21.960 Y-10.039 F12000.000
G1 X21.393 Y-12.295 F12000.000
G1 X21.032 Y-12.502 F12000.000
G1 X21.252 Y-16.000 F12000.000
G1 X20.236 Y-16.158 F12000.000
G1 Z0.200 F12000.000
G1 E2.00000 F2400.00000
G1 X19.330 Y-16.452 E2.02827 F540.000
G1 X18.500 Y-16.978 E2.05746
G1 X17.828 Y-17.695 E2.08664
G1 X17.354 Y-18.556 E2.11583
G1 X17.109 Y-19.509 E2.14501
G1 X17.109 Y-20.491 E2.17420
G1 X17.346 Y-21.414 E2.20247
G1 X17.825 Y-22.302 E2.23243
G1 X18.500 Y-23.022 E2.26173
G1 X19.334 Y-23.550 E2.29104
G1 X20.296 Y-23.854 E2.32099
G1 X21.246 Y-23.914 E2.34926 F540.000
G1 X22.212 Y-23.729 E2.37845
G1 X23.101 Y-23.311 E2.40764
G1 X23.859 Y-22.684 E2.43682
G1 X24.436 Y-21.889 E2.46601
G1 X24.798 Y-20.975 E2.49519
G1 X24.921 Y-20.000 E2.52438
G1 X24.798 Y-19.025 E2.55356
G1 X24.436 Y-18.111 E2.58275
G1 X23.859 Y-17.316 E2.61193
G1 X23.101 Y-16.689 E2.64112
G1 X22.212 Y-16.271 E2.67031
G1 X21.242 Y-16.086 E2.69961
G1 X20.288 Y-16.154 E2.72801
G1 X20.314 Y-16.510 F12000.000
G1 X19.484 Y-16.777 E2.75391 F540.000
G1 X18.730 Y-17.256 E2.78041
G1 X18.119 Y-17.907 E2.80692
G1 X17.689 Y-18.689 E2.83343
G1 X17.467 Y-19.554 E2.85993
G1 X17.467 Y-20.446 E2.88644
G1 X17.681 Y-21.283 E2.91208
G1 X18.117 Y-22.092 E2.93936
G1 X18.730 Y-22.744 E2.96594
G1 X19.486 Y-23.224 E2.99252
G1 X20.362 Y-23.500 E3.01980
G1 X21.224 Y-23.554 E3.04543 F540.000
G1 X22.101 Y-23.387 E3.07194
G1 X22.908 Y-23.007 E3.09845
G1 X23.596 Y-22.438 E3.12495
G1 X24.121 Y-21.716 E3.15146
G1 X24.450 Y-20.886 E3.17797
G1 X24.562 Y-20.000 E3.20448
G1 X24.450 Y-19.114 E3.23098
G1 X24.121 Y-18.284 E3.25749
G1 X23.596 Y-17.562 E3.28400
G1 X22.908 Y-16.993 E3.31050
G1 X22.101 Y-16.613 E3.33701
G1 X21.221 Y-16.445 E3.36359
G1 X20.366 Y-16.506 E3.38904
G1 X20.392 Y-16.862 F12000.000
G1 X19.637 Y-17.103 E3.41257 F540.000
G1 X18.959 Y-17.533 E3.43639
G1 X18.410 Y-18.118 E3.46022
G1 X18.023 Y-18.821 E3.48405
G1 X17.824 Y-19.599 E3.50788
G1 X17.824 Y-20.401 E3.53171
G1 X18.016 Y-21.152 E3.55471
G1 X18.409 Y-21.881 E3.57931
G1 X18.959 Y-22.467 E3.60317
G1 X19.638 Y-22.897 E3.62702
G1 X20.428 Y-23.147 E3.65162
G1 X21.201 Y-23.195 E3.67463 F540.000
G1 X21.989 Y-23.045 E3.69846
G1 X22.715 Y-22.703 E3.72228
G1 X23.334 Y-22.192 E3.74611
G1 X23.806 Y-21.542 E3.76994
G1 X24.101 Y-20.796 E3.79377
G1 X24.202 Y-20.000 E3.81760
G1 X24.101 Y-19.204 E3.84142
G1 X23.806 Y-18.458 E3.86525
G1 X23.334 Y-17.808 E3.88908
G1 X22.715 Y-17.297 E3.91291
G1 X21.989 Y-16.955 E3.93674
G1 X21.200 Y-16.805 E3.96059
G1 X20.444 Y-16.859 E3.98310
G1 X20.152 Y-16.607 F12000.000
G1 X16.058 Y-13.301 F12000.000
G1 X16.740 Y-12.461 E4.01523 F1080.000
G1 X17.612 Y-11.219 E4.06028
G1 X18.396 Y-9.920 E4.10533
G1 X19.088 Y-8.570 E4.15038
G1 X19.685 Y-7.175 E4.19543
G1 X20.184 Y-5.742 E4.24049
G1 X20.583 Y-4.278 E4.28554
G1 X20.880 Y-2.790 E4.33059
G1 X21.201 Y-0.286 E4.40555
G1 X18.138 Y-0.286 E4.49650
G1 X17.899 Y-2.585 E4.56514
G1 X17.635 Y-4.012 E4.60821
G1 X17.256 Y-5.412 E4.65129
G1 X16.767 Y-6.778 E4.69437
G1 X16.170 Y-8.100 E4.73744
G1 X15.468 Y-9.370 E4.78052
G1 X14.667 Y-10.580 E4.82360
G1 X13.772 Y-11.722 E4.86668
G1 X12.788 Y-12.788 E4.90975
G1 X11.722 Y-13.772 E4.95283
G1 X10.580 Y-14.667 E4.99591
G1 X9.370 Y-15.468 E5.03898
G1 X8.100 Y-16.170 E5.08206
G1 X6.778 Y-16.767 E5.12514
G1 X5.500 Y-17.225 E5.16545
G1 X4.010 Y-17.635 E5.21135
G1 X2.585 Y-17.899 E5.25436
G1 X0.286 Y-18.138 E5.32300
G1 X0.286 Y-21.201 E5.41395 F1080.000
G1 X2.790 Y-20.880 E5.48891
G1 X4.278 Y-20.583 E5.53396
G1 X5.742 Y-20.184 E5.57901
G1 X7.175 Y-19.685 E5.62406
G1 X8.570 Y-19.088 E5.66911
G1 X9.920 Y-18.396 E5.71417
G1 X11.219 Y-17.612 E5.75922
G1 X12.461 Y-16.740 E5.80427
G1 X13.639 Y-15.784 E5.84932
G1 X14.749 Y-14.749 E5.89438
G1 X15.784 Y-13.639 E5.93943
G1 X16.025 Y-13.342 E5.95080
G1 X15.748 Y-13.117 F12000.000
G1 X16.455 Y-12.245 E5.98411 F1080.000
G1 X17.312 Y-11.024 E6.02843
G1 X18.084 Y-9.746 E6.07275
G1 X18.765 Y-8.418 E6.11707
G1 X19.352 Y-7.046 E6.16138
G1 X19.843 Y-5.636 E6.20570
G1 X20.236 Y-4.196 E6.25002
G1 X20.527 Y-2.732 E6.29434
G1 X20.795 Y-0.643 E6.35688
G1 X18.460 Y-0.643 E6.42622
G1 X18.253 Y-2.636 E6.48572
G1 X17.983 Y-4.091 E6.52965
G1 X17.597 Y-5.519 E6.57358
G1 X17.098 Y-6.912 E6.61751
