; generated by Slic3r 1.2.9 on 2018-03-27 at 15:35:35

; external perimeters extrusion width = 0.40mm
; perimeters extrusion width = 0.40mm
; infill extrusion width = 0.40mm
; solid infill extrusion width = 0.40mm
; top infill extrusion width = 0.40mm

M107
M104 S185 ; set temperature
G28 ; home all axes
G29 Z3.65
G1 Z5 F5000 ; lift nozzle
M109 S185 ; wait for temperature to be reached
G21 ; set units to millimeters
G90 ; use absolute coordinates
M82 ; use absolute distances for extrusion
G92 E0
G1 E-2.00000 F2400.00000
G92 E0
G1 Z0.500 F12000.000
G1 X0.000 Y32.170 F12000.000
G1 Z0.200 F12000.000
G1 E2.00000 F2400.00000
G1 X-22.499 Y32.170 E2.66802 F2160.000
G1 X-23.417 Y32.110 E2.69533
G1 X-24.349 Y31.988 E2.72324
G1 X-26.140 Y31.509 E2.77830
G1 X-27.009 Y31.148 E2.80622
G1 X-28.611 Y30.221 E2.86120
G1 X-29.348 Y29.657 E2.88875
G1 X-30.657 Y28.348 E2.94371
G1 X-31.229 Y27.602 E2.97162
G1 X-32.149 Y26.008 E3.02625
G1 X-32.509 Y25.140 E3.05416
G1 X-32.988 Y23.349 E3.10920
G1 X-33.110 Y22.417 E3.13712
G1 X-33.170 Y21.499 E3.16443
G1 X-33.170 Y-21.499 E4.44110
G1 X-33.110 Y-22.417 E4.46840
G1 X-32.988 Y-23.349 E4.49632
G1 X-32.509 Y-25.140 E4.55137
G1 X-32.149 Y-26.008 E4.57927
G1 X-31.229 Y-27.602 E4.63391
G1 X-30.656 Y-28.348 E4.66184
G1 X-29.348 Y-29.657 E4.71678
G1 X-28.612 Y-30.221 E4.74433
G1 X-27.008 Y-31.149 E4.79933
G1 X-26.140 Y-31.509 E4.82724
G1 X-24.349 Y-31.988 E4.88229
G1 X-23.417 Y-32.110 E4.91020
G1 X-22.499 Y-32.170 E4.93751
G1 X22.499 Y-32.170 E6.27356
G1 X23.416 Y-32.111 E6.30084
G1 X24.349 Y-31.988 E6.32877 F2160.000
G1 X26.140 Y-31.509 E6.38383
G1 X27.008 Y-31.149 E6.41173
G1 X28.602 Y-30.229 E6.46637
G1 X29.348 Y-29.656 E6.49429
G1 X30.657 Y-28.348 E6.54924
G1 X31.229 Y-27.602 E6.57715
G1 X32.149 Y-26.008 E6.63179
G1 X32.509 Y-25.140 E6.65970
G1 X32.988 Y-23.349 E6.71475
G1 X33.111 Y-22.416 E6.74268
G1 X33.170 Y-21.499 E6.76997
G1 X33.170 Y21.499 E8.04663
G1 X33.110 Y22.417 E8.07394
G1 X32.988 Y23.349 E8.10185
G1 X32.509 Y25.140 E8.15691
G1 X32.148 Y26.009 E8.18483
G1 X31.229 Y27.602 E8.23945
G1 X30.657 Y28.348 E8.26736
G1 X29.348 Y29.657 E8.32232
G1 X28.602 Y30.229 E8.35023
G1 X27.009 Y31.148 E8.40484
G1 X26.140 Y31.509 E8.43277
G1 X24.349 Y31.988 E8.48783
G1 X23.417 Y32.110 E8.51574
G1 X22.499 Y32.170 E8.54304
G1 X0.052 Y32.170 E9.20951
G1 X0.052 Y31.813 F12000.000
G1 X-22.499 Y31.813 E9.87909 F2160.000
G1 X-23.370 Y31.756 E9.90502
G1 X-24.302 Y31.634 E9.93293
G1 X-26.003 Y31.179 E9.98521
G1 X-26.872 Y30.819 E10.01313
G1 X-28.384 Y29.945 E10.06499
G1 X-29.130 Y29.373 E10.09290
G1 X-30.373 Y28.130 E10.14508
G1 X-30.945 Y27.384 E10.17300
G1 X-31.819 Y25.871 E10.22487
G1 X-32.179 Y25.003 E10.25278
G1 X-32.634 Y23.303 E10.30504
G1 X-32.756 Y22.370 E10.33296
G1 X-32.813 Y21.499 E10.35889
G1 X-32.813 Y-21.499 E11.63556
G1 X-32.756 Y-22.370 E11.66148
G1 X-32.634 Y-23.302 E11.68940
G1 X-32.179 Y-25.003 E11.74167
G1 X-31.819 Y-25.871 E11.76957
G1 X-30.945 Y-27.384 E11.82146
G1 X-30.373 Y-28.131 E11.84938
G1 X-29.130 Y-29.373 E11.90155
G1 X-28.394 Y-29.938 E11.92909
G1 X-26.871 Y-30.819 E11.98134
G1 X-26.003 Y-31.179 E12.00924
G1 X-24.302 Y-31.634 E12.06152
G1 X-23.370 Y-31.756 E12.08943
G1 X-22.499 Y-31.813 E12.11535
G1 X22.499 Y-31.813 E13.45140
G1 X23.370 Y-31.756 E13.47731
G1 X24.302 Y-31.634 E13.50524 F2160.000
G1 X26.003 Y-31.179 E13.55752
G1 X26.871 Y-30.819 E13.58542
G1 X28.384 Y-29.945 E13.63730
G1 X29.131 Y-29.373 E13.66522
G1 X30.373 Y-28.130 E13.71739
G1 X30.945 Y-27.384 E13.74531
G1 X31.819 Y-25.871 E13.79719
G1 X32.179 Y-25.003 E13.82509
G1 X32.634 Y-23.302 E13.87737
G1 X32.756 Y-22.370 E13.90529
G1 X32.813 Y-21.499 E13.93120
G1 X32.813 Y21.499 E15.20787
G1 X32.756 Y22.370 E15.23380
G1 X32.634 Y23.302 E15.26171
G1 X32.179 Y25.003 E15.31398
G1 X31.819 Y25.872 E15.34191
G1 X30.945 Y27.384 E15.39377
G1 X30.373 Y28.130 E15.42168
G1 X29.130 Y29.373 E15.47386
G1 X28.384 Y29.945 E15.50177
G1 X26.872 Y30.819 E15.55363
G1 X26.003 Y31.179 E15.58155
G1 X24.302 Y31.634 E15.63383
G1 X23.370 Y31.756 E15.66174
G1 X22.499 Y31.813 E15.68767
G1 X0.105 Y31.813 E16.35258
G1 X0.105 Y31.456 F12000.000
G1 X-22.499 Y31.456 E17.02372 F2160.000
G1 X-23.324 Y31.402 E17.04827
G1 X-24.256 Y31.280 E17.07618
G1 X-25.866 Y30.849 E17.12567
G1 X-26.735 Y30.489 E17.15360
G1 X-28.167 Y29.662 E17.20269
G1 X-28.913 Y29.090 E17.23061
G1 X-30.090 Y27.913 E17.28001
G1 X-30.662 Y27.167 E17.30793
G1 X-31.489 Y25.734 E17.35705
G1 X-31.849 Y24.866 E17.38495
G1 X-32.280 Y23.257 E17.43443
G1 X-32.402 Y22.324 E17.46235
G1 X-32.456 Y21.499 E17.48690
G1 X-32.456 Y-21.499 E18.76357
G1 X-32.402 Y-22.324 E18.78812
G1 X-32.280 Y-23.256 E18.81603
G1 X-31.849 Y-24.866 E18.86552
G1 X-31.489 Y-25.734 E18.89343
G1 X-30.662 Y-27.167 E18.94255
G1 X-30.090 Y-27.913 E18.97047
G1 X-28.913 Y-29.090 E19.01987
G1 X-28.177 Y-29.654 E19.04741
G1 X-26.734 Y-30.489 E19.09690
G1 X-25.866 Y-30.849 E19.12480
G1 X-24.256 Y-31.280 E19.17430
G1 X-23.324 Y-31.402 E19.20221
G1 X-22.499 Y-31.456 E19.22675
G1 X22.499 Y-31.456 E20.56280
G1 X23.323 Y-31.402 E20.58733
G1 X24.256 Y-31.280 E20.61526 F2160.000
G1 X25.866 Y-30.849 E20.66476
G1 X26.734 Y-30.489 E20.69266
G1 X28.167 Y-29.662 E20.74178
G1 X28.913 Y-29.090 E20.76970
G1 X30.090 Y-27.913 E20.81910
G1 X30.662 Y-27.167 E20.84701
G1 X31.489 Y-25.734 E20.89613
G1 X31.849 Y-24.866 E20.92404
G1 X32.280 Y-23.256 E20.97353
G1 X32.402 Y-22.324 E21.00146
G1 X32.456 Y-21.499 E21.02599
G1 X32.456 Y21.499 E22.30266
G1 X32.402 Y22.324 E22.32721
G1 X32.280 Y23.256 E22.35511
G1 X31.849 Y24.866 E22.40461
G1 X31.489 Y25.735 E22.43254
G1 X30.662 Y27.167 E22.48164
G1 X30.090 Y27.913 E22.50955
G1 X28.913 Y29.090 E22.55895
G1 X28.167 Y29.662 E22.58686
G1 X26.735 Y30.489 E22.63596
G1 X25.866 Y30.849 E22.66389
G1 X24.256 Y31.280 E22.71339
G1 X23.324 Y31.402 E22.74129
G1 X22.499 Y31.456 E22.76584
G1 X0.158 Y31.456 E23.42919
G1 E21.42919 F2400.00000
G92 E0
G1 Z0.700 F12000.000
G1 X0.157 Y24.056 F12000.000
G1 Z0.200 F12000.000
G1 E2.00000 F2400.00000
G1 X-17.556 Y24.056 E2.52594 F1080.000
G1 X-17.556 Y18.442 E2.69263
G1 X17.556 Y18.442 E3.73516 F1080.000
G1 X17.556 Y24.056 E3.90185
G1 X0.210 Y24.056 E4.41688
G1 X0.210 Y23.699 F12000.000
G1 X-17.199 Y23.699 E4.93377 F756.000
G1 X-17.199 Y18.799 E5.07926
G1 X17.199 Y18.799 E6.10058 F756.000
G1 X17.199 Y23.699 E6.24607
G1 X0.262 Y23.699 E6.74893
G1 X0.035 Y24.002 F12000.000
G1 E4.74893 F2400.00000
G92 E0
G1 Z0.700 F12000.000
G1 X-17.999 Y17.999 F12000.000
G1 X-0.665 Y-8.461 F12000.000
G1 X-0.579 Y-8.801 F12000.000
G1 Z0.200 F12000.000
G1 E2.00000 F2400.00000
G1 X-0.579 Y-8.375 E2.01264 F540.000
G1 X-2.236 Y-8.375 E2.06183 F540.000
G1 X-0.579 Y-10.032 E2.13140
G1 X-0.579 Y-8.853 E2.16640
G1 X-0.222 Y-8.853 F12000.000
G1 X-0.222 Y-10.894 E2.22700 F1080.000
G1 X-3.098 Y-8.018 E2.34776
G1 X-0.600 Y-8.018 E2.42193
G1 X-0.600 Y-5.442 E2.49842
G1 X-9.440 Y-5.442 E2.76089
G1 X-5.057 Y-9.826 E2.94494
G1 X-7.556 Y-9.826 E3.01914
G1 X-7.556 Y-12.400 E3.09557
G1 X6.736 Y-12.400 E3.51992 F1080.000
G1 X6.736 Y-5.442 E3.72652
G1 X-0.222 Y-5.442 E3.93311
G1 X-0.222 Y-8.801 E4.03284
G1 X0.135 Y-7.661 F12000.000
G1 X6.379 Y-7.661 E4.21823 F540.000
G1 X6.379 Y-5.799 E4.27352
G1 X0.135 Y-5.799 E4.45891
G1 X0.135 Y-7.609 E4.51264
G1 X0.135 Y-8.011 F12000.000
G1 X0.135 Y-7.991 F12000.000
G1 X0.135 Y-9.853 E4.56792 F540.000
G1 X6.379 Y-9.853 E4.75331 F540.000
G1 X6.379 Y-7.991 E4.80860
G1 X0.188 Y-7.991 E4.99243
G1 X-0.215 Y-7.991 F12000.000
G1 X0.188 Y-10.183 F12000.000
G1 X0.135 Y-10.183 E4.99399 F540.000
G1 X0.135 Y-11.756 E5.04070
G1 X-5.822 Y-5.799 E5.29084
G1 X-8.578 Y-5.799 E5.37266
G1 X-2.336 Y-12.043 E5.63480
G1 X6.379 Y-12.043 E5.89355 F540.000
G1 X6.379 Y-10.183 E5.94878
G1 X0.240 Y-10.183 E6.13105
G1 X0.161 Y-10.138 F12000.000
G1 X-0.957 Y-7.661 F12000.000
G1 X-0.957 Y-5.799 E6.18634 F540.000
G1 X-5.292 Y-5.799 E6.31504
G1 X-3.430 Y-7.661 E6.39323
G1 X-1.010 Y-7.661 E6.46509 F540.000
G1 X-0.607 Y-7.661 F12000.000
G1 X-4.126 Y-10.782 F12000.000
G1 X-4.726 Y-10.183 E6.49027 F540.000
G1 X-7.199 Y-10.183 E6.56369
G1 X-7.199 Y-12.043 E6.61891
G1 X-2.864 Y-12.043 E6.74763 F540.000
G1 X-4.089 Y-10.819 E6.79905
G1 X-4.036 Y-10.444 F12000.000
G1 E4.79905 F2400.00000
G92 E0
G1 Z0.700 F12000.000
G1 X-0.665 Y-9.825 F12000.000
G1 X-0.665 Y-9.825 F12000.000
G1 X7.112 Y-10.819 F12000.000
G1 Z0.200 F12000.000
G1 E2.00000 F2400.00000
G1 X7.112 Y-12.400 E2.04694 F1080.000
G1 X15.954 Y-12.400 E2.30947 F1080.000
G1 X12.475 Y-8.921 E2.45555
G1 X17.050 Y-4.348 E2.64763
G1 X13.282 Y-4.348 E2.75950
G1 X9.688 Y-7.940 E2.91039
G1 X9.688 Y-5.442 E2.98457
G1 X7.112 Y-5.442 E3.06106
G1 X7.112 Y-10.767 E3.21916
G1 X7.469 Y-10.767 F12000.000
G1 X7.469 Y-12.043 E3.25705 F756.000
G1 X15.092 Y-12.043 E3.48339 F756.000
G1 X11.970 Y-8.921 E3.61448
G1 X16.188 Y-4.705 E3.79155
G1 X13.430 Y-4.705 E3.87344
G1 X9.331 Y-8.802 E4.04552
G1 X9.331 Y-5.799 E4.13468
G1 X7.469 Y-5.799 E4.18997
G1 X7.469 Y-9.853 E4.31034
G1 X9.331 Y-9.853 E4.36562
G1 X9.331 Y-9.040 E4.38977
G1 X10.474 Y-10.183 E4.43777
G1 X7.469 Y-10.183 E4.52699
G1 X7.469 Y-10.714 E4.54277
G1 X7.166 Y-10.942 F12000.000
G1 E2.54277 F2400.00000
G92 E0
G1 Z0.700 F12000.000
G1 X13.101 Y-8.921 F12000.000
G1 X13.101 Y-8.921 F12000.000
G1 X15.113 Y-11.054 F12000.000
G1 Z0.200 F12000.000
G1 E2.00000 F2400.00000
G1 X16.582 Y-12.524 E2.06171 F540.000
G1 X16.610 Y-12.281 E2.06897
G1 X16.730 Y-11.970 E2.07886 F540.000
G1 X17.180 Y-11.370 E2.10113
G1 X16.977 Y-11.307 E2.10745
G1 X16.191 Y-10.814 E2.13499
G1 X15.560 Y-10.149 E2.16220
G1 X15.111 Y-9.329 E2.18997
G1 X14.889 Y-8.466 E2.21644
G1 X14.886 Y-7.551 E2.24361
G1 X14.995 Y-7.130 E2.25650
G1 X14.853 Y-7.049 E2.26136
G1 X12.980 Y-8.921 E2.33999
G1 X15.076 Y-11.017 E2.42799
G1 X16.022 Y-10.117 F12000.000
G1 X16.419 Y-10.535 E2.44510 F540.000
G1 X17.128 Y-10.980 E2.46993
G1 X17.689 Y-11.155 E2.48740
G1 X17.444 Y-11.613 E2.50282
G1 X17.048 Y-12.139 E2.52239
G1 X16.960 Y-12.367 E2.52963
G1 X16.932 Y-12.613 E2.53699
G1 X16.964 Y-12.856 E2.54426
G1 X17.059 Y-13.088 E2.55171
G1 X17.209 Y-13.284 E2.55905
G1 X17.398 Y-13.437 E2.56625
G1 X17.623 Y-13.540 E2.57359
G1 X17.866 Y-13.582 E2.58094
G1 X18.110 Y-13.563 E2.58818
G1 X18.344 Y-13.483 E2.59553
G1 X18.548 Y-13.349 E2.60279
G1 X18.717 Y-13.166 E2.61016
G1 X18.821 Y-12.967 E2.61684
G1 X18.880 Y-12.784 E2.62255
G1 X19.360 Y-13.342 E2.64442
G1 X19.896 Y-13.700 E2.66354
G1 X20.471 Y-13.892 E2.68154 F540.000
G1 X23.821 Y-14.520 E2.78274
G1 X23.873 Y-13.556 E2.81140
G1 X23.792 Y-13.161 E2.82335
G1 X23.614 Y-12.799 E2.83534
G1 X22.653 Y-11.704 E2.87860
G1 X21.431 Y-10.908 E2.92190
G1 X20.460 Y-10.603 E2.95212
G1 X20.891 Y-10.247 E2.96871
G1 X21.374 Y-9.583 E2.99310
G1 X21.679 Y-8.817 E3.01758
G1 X21.780 Y-7.999 E3.04206
G1 X21.679 Y-7.183 E3.06647
G1 X21.374 Y-6.417 E3.09095
G1 X20.891 Y-5.753 E3.11533
G1 X20.256 Y-5.228 E3.13980
G1 X19.531 Y-4.886 E3.16359
G1 X18.703 Y-4.724 E3.18864
G1 X17.881 Y-4.779 E3.21309
G1 X17.117 Y-5.026 E3.23695
G1 X16.405 Y-5.476 E3.26194
G1 X15.841 Y-6.076 E3.28640
G1 X15.455 Y-6.780 E3.31025
G1 X15.243 Y-7.596 E3.33527
G1 X15.246 Y-8.420 E3.35974
G1 X15.446 Y-9.197 E3.38355
G1 X15.851 Y-9.937 E3.40861
G1 X15.986 Y-10.079 E3.41444
G1 X16.245 Y-9.833 F12000.000
G1 X16.647 Y-10.257 E3.43178 F540.000
G1 X17.278 Y-10.653 E3.45389
G1 X17.982 Y-10.872 E3.47578
G1 X18.141 Y-10.882 E3.48052
G1 X17.967 Y-11.393 E3.49654
G1 X17.745 Y-11.808 E3.51051
G1 X17.365 Y-12.308 E3.52916
G1 X17.309 Y-12.453 E3.53376
G1 X17.291 Y-12.609 E3.53843
G1 X17.312 Y-12.763 E3.54304
G1 X17.372 Y-12.909 E3.54773
G1 X17.467 Y-13.034 E3.55237
G1 X17.587 Y-13.130 E3.55696
G1 X17.729 Y-13.196 E3.56161
G1 X17.883 Y-13.222 E3.56625
G1 X18.037 Y-13.210 E3.57084
G1 X18.186 Y-13.160 E3.57549
G1 X18.315 Y-13.075 E3.58010
G1 X18.422 Y-12.959 E3.58477
G1 X18.490 Y-12.829 E3.58914
G1 X18.674 Y-12.259 E3.60692
G1 X18.770 Y-11.813 E3.62045
G1 X18.947 Y-11.817 E3.62570
G1 X19.007 Y-12.162 E3.63610
G1 X19.242 Y-12.657 E3.65238
G1 X19.599 Y-13.072 E3.66864
G1 X20.054 Y-13.376 E3.68489
G1 X20.561 Y-13.545 E3.70074
G1 X23.094 Y-14.020 E3.77727
G1 X23.486 Y-14.094 E3.78912 F540.000
G1 X23.514 Y-13.582 E3.80433
G1 X23.452 Y-13.278 E3.81355
G1 X23.315 Y-12.999 E3.82277
G1 X22.417 Y-11.976 E3.86317
G1 X21.277 Y-11.234 E3.90356
G1 X19.995 Y-10.831 E3.94347
G1 X19.744 Y-10.780 E3.95108
G1 X19.725 Y-10.626 E3.95568
G1 X20.060 Y-10.470 E3.96663
G1 X20.628 Y-10.001 E3.98854
G1 X21.059 Y-9.409 E4.01025
G1 X21.330 Y-8.728 E4.03203
G1 X21.421 Y-7.999 E4.05384
G1 X21.330 Y-7.272 E4.07558
G1 X21.059 Y-6.591 E4.09736
G1 X20.629 Y-6.000 E4.11907
G1 X20.063 Y-5.532 E4.14087
G1 X19.419 Y-5.228 E4.16200
G1 X18.680 Y-5.084 E4.18435
G1 X17.949 Y-5.132 E4.20611
G1 X17.269 Y-5.352 E4.22732
G1 X16.635 Y-5.753 E4.24962
G1 X16.133 Y-6.288 E4.27139
G1 X15.789 Y-6.913 E4.29257
G1 X15.600 Y-7.641 E4.31490
G1 X15.602 Y-8.374 E4.33668
G1 X15.780 Y-9.064 E4.35784
G1 X16.142 Y-9.725 E4.38019
G1 X16.209 Y-9.795 E4.38308
G1 X16.146 Y-10.169 F12000.000
G1 E2.38308 F2400.00000
G92 E0
G1 Z0.700 F12000.000
G1 X15.063 Y-9.426 F12000.000
G1 X15.249 Y-19.199 F12000.000
G1 X-11.663 Y-19.113 F12000.000
G1 Z0.200 F12000.000
G1 E2.00000 F2400.00000
G1 X-15.335 Y-19.113 E2.10904 F1080.000
G1 X-15.335 Y-21.885 E2.19133
G1 X15.335 Y-21.885 E3.10195
G1 X15.335 Y-19.113 E3.18425
G1 X-11.610 Y-19.113 E3.98428 F1080.000
G1 E1.98428 F2400.00000
G92 E0
G1 Z0.700 F12000.000
G1 X15.249 Y-19.199 F12000.000
G1 X20.199 Y-0.999 F12000.000
G1 X17.465 Y4.447 F12000.000
G1 Z0.200 F12000.000
G1 E2.00000 F2400.00000
G1 X17.465 Y12.101 E2.22725 F1080.000
G1 X1.793 Y12.101 E2.69256 F1080.000
G1 X1.793 Y1.729 E3.00051
G1 X17.465 Y1.729 E3.46582
G1 X17.465 Y4.395 E3.54496
G1 E1.54496 F2400.00000
G92 E0
G1 Z0.700 F12000.000
G1 X20.199 Y-0.999 F12000.000
G1 X23.599 Y-6.887 F12000.000
G1 X24.633 Y-12.811 F12000.000
G1 X24.705 Y-13.444 F12000.000
G1 X24.667 Y-15.071 F12000.000
G1 X22.460 Y-17.400 F12000.000
G1 X20.174 Y-16.499 F12000.000
G1 X17.999 Y-16.499 F12000.000
G1 X17.465 Y-16.942 F12000.000
G1 Z0.200 F12000.000
G1 E2.00000 F2400.00000
G1 X-17.556 Y-16.942 E3.03982 F1080.000
G1 X-17.556 Y-24.056 E3.25105
G1 X17.556 Y-24.056 E4.29357 F1080.000
G1 X17.556 Y-16.942 E4.50480
G1 X17.517 Y-16.942 E4.50595
G1 X17.199 Y-17.299 F12000.000
G1 X-17.199 Y-17.299 E5.52727 F756.000
G1 X-17.199 Y-20.125 E5.61118
G1 X-16.049 Y-20.125 E5.64532
G1 X-16.049 Y-18.399 E5.69657
G1 X16.049 Y-18.399 E6.64960
G1 X16.049 Y-20.125 E6.70085
G1 X17.199 Y-20.125 E6.73499 F756.000
G1 X17.199 Y-17.352 E6.81734
G1 X17.199 Y-16.949 F12000.000
G1 X17.199 Y-20.925 F12000.000
G1 X16.049 Y-20.925 E6.85149 F756.000
G1 X16.049 Y-22.599 E6.90119
G1 X-16.049 Y-22.599 E7.85422
G1 X-16.049 Y-20.925 E7.90392
G1 X-17.199 Y-20.925 E7.93807
G1 X-17.199 Y-23.699 E8.02043
G1 X17.199 Y-23.699 E9.04175 F756.000
G1 X17.199 Y-20.978 E9.12256
G1 X17.199 Y-20.575 F12000.000
G1 X17.999 Y-16.499 F12000.000
G1 X22.460 Y-17.400 F12000.000
G1 X24.667 Y-15.071 F12000.000
G1 X23.395 Y-5.689 F12000.000
G1 X22.328 Y-2.771 F12000.000
G1 X20.559 Y-2.824 F12000.000
G1 X20.345 Y-2.795 F12000.000
G1 X20.199 Y-2.771 F12000.000
G1 X20.199 Y-0.999 F12000.000
G1 X17.199 Y-0.913 F12000.000
G1 X20.113 Y-0.913 E9.20908 F1080.000
G1 X20.113 Y14.715 E9.67311
G1 X-0.913 Y14.715 E10.29741
G1 X-0.913 Y-0.913 E10.76143
G1 X17.146 Y-0.913 E11.29765 F1080.000
G1 X17.146 Y-0.556 F12000.000
G1 X19.756 Y-0.556 E11.37513 F1080.000
G1 X19.756 Y14.358 E11.81795
G1 X-0.556 Y14.358 E12.42104
G1 X-0.556 Y-0.556 E12.86387
G1 X17.094 Y-0.556 E13.38792 F1080.000
G1 X17.094 Y-0.199 F12000.000
G1 X19.399 Y-0.199 E13.45636 F756.000
G1 X19.399 Y14.001 E13.87797
G1 X10.029 Y14.001 E14.15618
G1 X10.029 Y12.815 E14.19139
G1 X18.179 Y12.815 E14.43338
G1 X18.179 Y1.015 E14.78374
G1 X10.029 Y1.015 E15.02572
G1 X10.029 Y-0.199 E15.06177
G1 X17.041 Y-0.199 E15.26998 F756.000
G1 X17.269 Y-0.502 F12000.000
G1 X9.229 Y-0.199 F12000.000
G1 X9.229 Y1.015 E15.30602 F756.000
G1 X1.079 Y1.015 E15.54800
G1 X1.079 Y12.815 E15.89836
G1 X9.229 Y12.815 E16.14035
G1 X9.229 Y14.001 E16.17556
G1 X-0.199 Y14.001 E16.45549
G1 X-0.199 Y-0.199 E16.87711
G1 X9.177 Y-0.199 E17.15548 F756.000
