; generated by Slic3r 1.2.9 on 2018-03-31 at 10:52:10

; external perimeters extrusion width = 0.35mm
; perimeters extrusion width = 0.52mm
; infill extrusion width = 0.52mm
; solid infill extrusion width = 0.52mm
; top infill extrusion width = 0.52mm

M104 S185 ; set temperature
G28 ; home all axes
G29 Z3.6
G1 Z5 F5000 ; lift nozzle
M109 S185 ; wait for temperature to be reached
G21 ; set units to millimeters
G90 ; use absolute coordinates
M82 ; use absolute distances for extrusion
G92 E0
G1 E-3.00000 F2400.00000
G92 E0
G1 Z0.800 F12000.000
G1 X22.499 Y33.570 F12000.000
G1 Z0.200 F12000.000
G1 E3.00000 F2400.00000
G1 X-22.499 Y33.570 E3.58773 F3600.000
G1 X-23.598 Y33.499 E3.60212
G1 X-24.530 Y33.377 E3.61440
G1 X-26.676 Y32.802 E3.64341
G1 X-27.545 Y32.442 E3.65570
G1 X-29.453 Y31.340 E3.68448
G1 X-30.200 Y30.768 E3.69676
G1 X-31.768 Y29.200 E3.72572
G1 X-32.340 Y28.454 E3.73800
G1 X-33.442 Y26.544 E3.76679
G1 X-33.802 Y25.676 E3.77907
G1 X-34.376 Y23.531 E3.80807
G1 X-34.499 Y22.598 E3.82036
G1 X-34.570 Y21.499 E3.83475
G1 X-34.570 Y-21.499 E4.39636
G1 X-34.499 Y-22.598 E4.41075
G1 X-34.377 Y-23.531 E4.42303
G1 X-33.802 Y-25.676 E4.45204
G1 X-33.442 Y-26.544 E4.46432
G1 X-32.340 Y-28.454 E4.49311
G1 X-31.767 Y-29.200 E4.50540
G1 X-30.200 Y-30.768 E4.53435
G1 X-29.453 Y-31.340 E4.54663
G1 X-27.544 Y-32.442 E4.57542
G1 X-26.676 Y-32.802 E4.58770
G1 X-24.531 Y-33.377 E4.61671
G1 X-23.598 Y-33.499 E4.62899
G1 X-22.499 Y-33.570 E4.64338
G1 X22.499 Y-33.570 E5.23111
G1 X23.598 Y-33.499 E5.24549
G1 X24.531 Y-33.377 E5.25778
G1 X26.676 Y-32.802 E5.28679
G1 X27.544 Y-32.442 E5.29907
G1 X29.454 Y-31.340 E5.32786
G1 X30.200 Y-30.767 E5.34014
G1 X31.768 Y-29.200 E5.36910
G1 X32.340 Y-28.454 E5.38138
G1 X33.442 Y-26.544 E5.41018
G1 X33.802 Y-25.676 E5.42245
G1 X34.377 Y-23.530 E5.45147
G1 X34.499 Y-22.598 E5.46375
G1 X34.570 Y-21.499 E5.47813
G1 X34.570 Y21.499 E6.03974
G1 X34.499 Y22.598 E6.05413
G1 X34.377 Y23.530 E6.06641
G1 X33.802 Y25.676 E6.09542
G1 X33.442 Y26.545 E6.10771
G1 X32.340 Y28.454 E6.13649
G1 X31.768 Y29.200 E6.14877
G1 X30.200 Y30.768 E6.17773
G1 X29.454 Y31.340 E6.19001
G1 X27.545 Y32.442 E6.21879
G1 X26.676 Y32.802 E6.23108
G1 X24.530 Y33.377 E6.26010
G1 X23.598 Y33.499 E6.27237
G1 X22.551 Y33.567 E6.28608
G1 X22.499 Y33.413 F12000.000
G1 X-22.499 Y33.413 E6.87381 F3600.000
G1 X-23.578 Y33.343 E6.88793
G1 X-24.510 Y33.221 E6.90021
G1 X-26.616 Y32.657 E6.92868
G1 X-27.485 Y32.296 E6.94097
G1 X-29.358 Y31.215 E6.96922
G1 X-30.104 Y30.643 E6.98150
G1 X-31.643 Y29.104 E7.00992
G1 X-32.215 Y28.358 E7.02220
G1 X-33.297 Y26.484 E7.05046
G1 X-33.657 Y25.616 E7.06274
G1 X-34.221 Y23.511 E7.09120
G1 X-34.343 Y22.578 E7.10349
G1 X-34.413 Y21.499 E7.11761
G1 X-34.413 Y-21.499 E7.67922
G1 X-34.343 Y-22.578 E7.69334
G1 X-34.221 Y-23.510 E7.70562
G1 X-33.657 Y-25.616 E7.73410
G1 X-33.297 Y-26.484 E7.74637
G1 X-32.215 Y-28.358 E7.77463
G1 X-31.643 Y-29.104 E7.78692
G1 X-30.104 Y-30.643 E7.81534
G1 X-29.358 Y-31.215 E7.82762
G1 X-27.484 Y-32.297 E7.85588
G1 X-26.616 Y-32.657 E7.86815
G1 X-24.510 Y-33.221 E7.89663
G1 X-23.578 Y-33.343 E7.90891
G1 X-22.499 Y-33.413 E7.92303
G1 X22.499 Y-33.413 E8.51076
G1 X23.577 Y-33.343 E8.52487
G1 X24.510 Y-33.221 E8.53716
G1 X26.616 Y-32.657 E8.56564
G1 X27.484 Y-32.297 E8.57791
G1 X29.358 Y-31.215 E8.60617
G1 X30.104 Y-30.643 E8.61845
G1 X31.643 Y-29.104 E8.64688
G1 X32.215 Y-28.358 E8.65915
G1 X33.297 Y-26.484 E8.68741
G1 X33.657 Y-25.616 E8.69969
G1 X34.221 Y-23.510 E8.72817
G1 X34.343 Y-22.577 E8.74045
G1 X34.413 Y-21.499 E8.75457
G1 X34.413 Y21.499 E9.31617
G1 X34.343 Y22.578 E9.33030
G1 X34.221 Y23.510 E9.34257
G1 X33.657 Y25.616 E9.37105
G1 X33.296 Y26.485 E9.38334
G1 X32.215 Y28.358 E9.41159
G1 X31.643 Y29.104 E9.42387
G1 X30.104 Y30.643 E9.45229
G1 X29.358 Y31.215 E9.46457
G1 X27.485 Y32.296 E9.49282
G1 X26.616 Y32.657 E9.50510
G1 X24.510 Y33.221 E9.53358
G1 X23.578 Y33.343 E9.54586
G1 X22.551 Y33.410 E9.55930
G1 X22.499 Y33.256 F12000.000
G1 X-22.499 Y33.256 E10.14703 F3600.000
G1 X-23.558 Y33.187 E10.16088
G1 X-24.490 Y33.065 E10.17316
G1 X-26.556 Y32.512 E10.20110
G1 X-27.425 Y32.151 E10.21339
G1 X-29.262 Y31.090 E10.24110
G1 X-30.008 Y30.518 E10.25338
G1 X-31.518 Y29.008 E10.28127
G1 X-32.090 Y28.262 E10.29354
G1 X-33.152 Y26.424 E10.32127
G1 X-33.512 Y25.556 E10.33355
G1 X-34.065 Y23.490 E10.36148
G1 X-34.187 Y22.558 E10.37376
G1 X-34.256 Y21.499 E10.38762
G1 X-34.256 Y-21.499 E10.94923
G1 X-34.187 Y-22.558 E10.96308
G1 X-34.065 Y-23.490 E10.97536
G1 X-33.512 Y-25.556 E11.00330
G1 X-33.152 Y-26.424 E11.01557
G1 X-32.090 Y-28.262 E11.04330
G1 X-31.518 Y-29.009 E11.05559
G1 X-30.008 Y-30.518 E11.08347
G1 X-29.262 Y-31.090 E11.09575
G1 X-27.424 Y-32.152 E11.12347
G1 X-26.556 Y-32.512 E11.13575
G1 X-24.490 Y-33.065 E11.16368
G1 X-23.558 Y-33.187 E11.17596
G1 X-22.499 Y-33.256 E11.18982
G1 X22.499 Y-33.256 E11.77755
G1 X23.557 Y-33.187 E11.79140
G1 X24.490 Y-33.065 E11.80368
G1 X26.556 Y-32.512 E11.83162
G1 X27.424 Y-32.152 E11.84390
G1 X29.262 Y-31.090 E11.87162
G1 X30.009 Y-30.518 E11.88390
G1 X31.518 Y-29.008 E11.91179
G1 X32.090 Y-28.262 E11.92407
G1 X33.152 Y-26.424 E11.95179
G1 X33.512 Y-25.556 E11.96407
G1 X34.065 Y-23.490 E11.99201
G1 X34.187 Y-22.557 E12.00429
G1 X34.256 Y-21.499 E12.01814
G1 X34.256 Y21.499 E12.57975
G1 X34.187 Y22.558 E12.59361
G1 X34.065 Y23.490 E12.60588
G1 X33.512 Y25.556 E12.63382
G1 X33.151 Y26.425 E12.64611
G1 X32.090 Y28.262 E12.67382
G1 X31.518 Y29.008 E12.68610
G1 X30.008 Y30.518 E12.71399
G1 X29.262 Y31.090 E12.72627
G1 X27.425 Y32.151 E12.75398
G1 X26.556 Y32.512 E12.76627
G1 X24.490 Y33.065 E12.79421
G1 X23.558 Y33.187 E12.80649
G1 X22.551 Y33.253 E12.81966
G1 E9.81966 F2400.00000
G92 E0
G1 Z1.000 F12000.000
G1 X-17.413 Y18.585 F12000.000
G1 Z0.200 F12000.000
G1 E3.00000 F2400.00000
G1 X17.413 Y18.585 E3.45487 F1800.000
G1 X17.413 Y23.913 E3.52447
G1 X-17.413 Y23.913 E3.97934
G1 X-17.413 Y18.637 E4.04825
G1 X-17.256 Y18.742 F12000.000
G1 X17.256 Y18.742 E4.49902 F1800.000
G1 X17.256 Y23.756 E4.56451
G1 X-17.256 Y23.756 E5.01528
G1 X-17.256 Y18.794 E5.08009
G1 X-17.099 Y18.899 F12000.000
G1 X17.099 Y18.899 E5.52676 F1260.000
G1 X17.099 Y23.599 E5.58814
G1 X-17.099 Y23.599 E6.03481
G1 X-17.099 Y18.952 E6.09551
G1 X-17.099 Y18.549 F12000.000
G1 X-0.413 Y14.215 F12000.000
G1 X-0.413 Y-0.413 E6.28658 F1800.000
G1 X9.443 Y-0.413 E6.41531
G1 X9.443 Y1.229 E6.43676
G1 X1.293 Y1.229 E6.54321
G1 X1.293 Y12.601 E6.69174
G1 X9.443 Y12.601 E6.79819
G1 X9.443 Y14.215 E6.81927
G1 X-0.361 Y14.215 E6.94732
G1 X-0.256 Y14.058 F12000.000
G1 X-0.256 Y-0.256 E7.13428 F1800.000
G1 X9.286 Y-0.256 E7.25892
G1 X9.286 Y1.072 E7.27626
G1 X1.136 Y1.072 E7.38271
G1 X1.136 Y12.758 E7.53534
G1 X9.286 Y12.758 E7.64179
G1 X9.286 Y14.058 E7.65877
G1 X-0.204 Y14.058 E7.78272
G1 X-0.099 Y13.901 F12000.000
G1 X-0.099 Y-0.099 E7.96558 F1260.000
G1 X9.129 Y-0.099 E8.08611
G1 X9.129 Y0.915 E8.09935
G1 X0.979 Y0.915 E8.20580
G1 X0.979 Y12.915 E8.36253
G1 X9.129 Y12.915 E8.46898
G1 X9.129 Y13.901 E8.48186
G1 X-0.046 Y13.901 E8.60170
G1 X-0.449 Y13.901 F12000.000
G1 X9.815 Y14.215 F12000.000
G1 X9.815 Y12.601 E8.62279 F1800.000
G1 X17.965 Y12.601 E8.72924
G1 X17.965 Y1.229 E8.87777
G1 X9.815 Y1.229 E8.98421
G1 X9.815 Y-0.413 E9.00566
G1 X19.613 Y-0.413 E9.13364
G1 X19.613 Y14.215 E9.32471
G1 X9.867 Y14.215 E9.45200
G1 X9.972 Y14.058 F12000.000
G1 X9.972 Y12.758 E9.46898 F1800.000
G1 X18.122 Y12.758 E9.57543
G1 X18.122 Y1.072 E9.72806
G1 X9.972 Y1.072 E9.83451
G1 X9.972 Y-0.256 E9.85186
G1 X19.456 Y-0.256 E9.97573
G1 X19.456 Y14.058 E10.16269
G1 X10.024 Y14.058 E10.28588
G1 X10.129 Y13.901 F12000.000
G1 X10.129 Y12.915 E10.29876 F1260.000
G1 X18.279 Y12.915 E10.40521
G1 X18.279 Y0.915 E10.56194
G1 X10.129 Y0.915 E10.66839
G1 X10.129 Y-0.099 E10.68163
G1 X19.299 Y-0.099 E10.80141
G1 X19.299 Y13.901 E10.98426
G1 X10.182 Y13.901 E11.10335
G1 X9.779 Y13.901 F12000.000
G1 X9.545 Y-5.585 F12000.000
G1 X7.255 Y-5.585 E11.13326 F900.000
G1 X7.255 Y-12.257 E11.22041
G1 X15.609 Y-12.257 E11.32952
G1 X12.273 Y-8.921 E11.39115
G1 X16.705 Y-4.491 E11.47300
G1 X13.342 Y-4.491 E11.51693
G1 X9.545 Y-8.285 E11.58704
G1 X9.545 Y-5.637 E11.62162
G1 X9.388 Y-5.742 F12000.000
G1 X7.412 Y-5.742 E11.64744 F1800.000
G1 X7.412 Y-9.910 E11.70188
G1 X9.388 Y-9.910 E11.72769
G1 X9.388 Y-9.178 E11.73725
G1 X10.336 Y-10.126 E11.75477
G1 X7.412 Y-10.126 E11.79297
G1 X7.412 Y-12.100 E11.81875
G1 X15.230 Y-12.100 E11.92086
G1 X12.051 Y-8.921 E11.97958
G1 X16.326 Y-4.648 E12.05853
G1 X13.407 Y-4.648 E12.09666
G1 X9.388 Y-8.664 E12.17087
G1 X9.388 Y-5.794 E12.20835
G1 X9.354 Y-8.921 F12000.000
G1 X10.716 Y-10.283 E12.23351 F900.000
G1 X7.569 Y-10.283 E12.27461
G1 X7.569 Y-11.943 E12.29629
G1 X14.850 Y-11.943 E12.39140
G1 X11.828 Y-8.921 E12.44722
G1 X15.946 Y-4.805 E12.52326
G1 X13.472 Y-4.805 E12.55559
G1 X9.391 Y-8.884 E12.63095
G1 X9.106 Y-9.168 F12000.000
G1 X9.231 Y-9.753 F12000.000
G1 X9.231 Y-5.899 E12.68129 F900.000
G1 X7.569 Y-5.899 E12.70299
G1 X7.569 Y-9.753 E12.75333
G1 X9.178 Y-9.753 E12.77435
G1 X9.581 Y-9.753 F12000.000
G1 E9.77435 F2400.00000
G92 E0
G1 Z1.000 F12000.000
G1 X16.516 Y-12.843 F12000.000
G1 X15.866 Y-14.867 F12000.000
G1 X17.273 Y-15.223 F12000.000
G1 X17.940 Y-15.261 F12000.000
G1 X17.999 Y-15.259 F12000.000
G1 X17.999 Y-16.499 F12000.000
G1 X17.413 Y-17.085 F12000.000
G1 Z0.200 F12000.000
G1 E3.00000 F2400.00000
G1 X-17.413 Y-17.085 E3.45487 F1800.000
G1 X-17.413 Y-20.339 E3.49738
G1 X-15.835 Y-20.339 E3.51799
G1 X-15.835 Y-18.613 E3.54054
G1 X15.835 Y-18.613 E3.95418
G1 X15.835 Y-20.339 E3.97673
G1 X17.413 Y-20.339 E3.99734
G1 X17.413 Y-17.137 E4.03916
G1 X17.256 Y-17.242 F12000.000
G1 X-17.256 Y-17.242 E4.48993 F1800.000
G1 X-17.256 Y-20.182 E4.52833
G1 X-15.992 Y-20.182 E4.54484
G1 X-15.992 Y-18.456 E4.56739
G1 X15.992 Y-18.456 E4.98514
G1 X15.992 Y-20.182 E5.00768
G1 X17.256 Y-20.182 E5.02419
G1 X17.256 Y-17.294 E5.06191
G1 X17.099 Y-17.399 F12000.000
G1 X-17.099 Y-17.399 E5.50857 F1260.000
G1 X-17.099 Y-20.025 E5.54287
G1 X-16.149 Y-20.025 E5.55528
G1 X-16.149 Y-18.299 E5.57782
G1 X16.149 Y-18.299 E5.99968
G1 X16.149 Y-20.025 E6.02222
G1 X17.099 Y-20.025 E6.03463
G1 X17.099 Y-17.452 E6.06824
G1 X17.099 Y-17.049 F12000.000
G1 X18.281 Y-13.354 F12000.000
G1 X18.455 Y-13.239 E6.07097 F900.000
G1 X18.599 Y-13.083 E6.07374
G1 X18.688 Y-12.912 E6.07627
G1 X18.865 Y-12.364 E6.08378
G1 X19.061 Y-12.775 E6.08973
G1 X19.456 Y-13.234 E6.09764
G1 X19.959 Y-13.570 E6.10554
G1 X20.507 Y-13.753 E6.11308
G1 X23.687 Y-14.349 E6.15534
G1 X23.729 Y-13.566 E6.16558
G1 X23.656 Y-13.208 E6.17036
G1 X23.494 Y-12.879 E6.17515
G1 X22.559 Y-11.813 E6.19367
G1 X21.369 Y-11.039 E6.21221
G1 X20.166 Y-10.660 E6.22868
G1 X20.786 Y-10.148 E6.23918
G1 X21.248 Y-9.514 E6.24944
G1 X21.539 Y-8.781 E6.25973
G1 X21.636 Y-7.999 E6.27003
G1 X21.539 Y-7.219 E6.28030
G1 X21.248 Y-6.486 E6.29059
G1 X20.786 Y-5.852 E6.30085
G1 X20.179 Y-5.349 E6.31114
G1 X19.486 Y-5.023 E6.32114
G1 X18.694 Y-4.868 E6.33168
G1 X17.908 Y-4.920 E6.34197
G1 X17.178 Y-5.156 E6.35199
G1 X16.497 Y-5.587 E6.36251
G1 X15.958 Y-6.161 E6.37280
G1 X15.589 Y-6.833 E6.38282
G1 X15.386 Y-7.614 E6.39335
G1 X15.388 Y-8.402 E6.40364
G1 X15.580 Y-9.144 E6.41365
G1 X15.967 Y-9.852 E6.42420
G1 X16.510 Y-10.424 E6.43450
G1 X17.188 Y-10.849 E6.44494
G1 X17.855 Y-11.057 E6.45408
G1 X17.770 Y-11.307 E6.45753
G1 X17.564 Y-11.691 E6.46321
G1 X17.175 Y-12.207 E6.47166
G1 X17.100 Y-12.401 E6.47438
G1 X17.076 Y-12.611 E6.47714
G1 X17.104 Y-12.819 E6.47988
G1 X17.184 Y-13.016 E6.48266
G1 X17.312 Y-13.184 E6.48542
G1 X17.474 Y-13.314 E6.48813
G1 X17.665 Y-13.402 E6.49088
G1 X17.873 Y-13.438 E6.49364
G1 X18.081 Y-13.422 E6.49636
G1 X18.231 Y-13.371 E6.49843
G1 X23.540 Y-14.162 F12000.000
G1 X23.571 Y-13.578 E6.50606 F900.000
G1 X23.506 Y-13.259 E6.51031
G1 X23.363 Y-12.967 E6.51456
G1 X22.455 Y-11.933 E6.53254
G1 X21.302 Y-11.182 E6.55051
G1 X20.009 Y-10.776 E6.56821
G1 X19.789 Y-10.731 E6.57114
G1 X19.781 Y-10.664 E6.57203
G1 X20.090 Y-10.519 E6.57649
G1 X20.670 Y-10.040 E6.58632
G1 X21.109 Y-9.437 E6.59606
G1 X21.386 Y-8.742 E6.60583
G1 X21.478 Y-7.999 E6.61561
G1 X21.386 Y-7.258 E6.62536
G1 X21.109 Y-6.563 E6.63513
G1 X20.671 Y-5.960 E6.64487
G1 X20.094 Y-5.483 E6.65465
G1 X19.437 Y-5.174 E6.66413
G1 X18.684 Y-5.026 E6.67415
G1 X17.938 Y-5.075 E6.68391
G1 X17.245 Y-5.299 E6.69343
G1 X16.598 Y-5.709 E6.70343
G1 X16.086 Y-6.254 E6.71320
G1 X15.736 Y-6.892 E6.72270
G1 X15.543 Y-7.634 E6.73271
G1 X15.545 Y-8.382 E6.74248
G1 X15.727 Y-9.086 E6.75198
G1 X16.095 Y-9.759 E6.76200
G1 X16.611 Y-10.301 E6.77177
G1 X17.254 Y-10.705 E6.78169
G1 X17.971 Y-10.929 E6.79150
G1 X18.063 Y-10.935 E6.79271
G1 X17.914 Y-11.370 E6.79872
G1 X17.697 Y-11.777 E6.80474
G1 X17.314 Y-12.281 E6.81301
G1 X17.253 Y-12.439 E6.81522
G1 X17.234 Y-12.610 E6.81746
G1 X17.257 Y-12.778 E6.81968
G1 X17.322 Y-12.938 E6.82193
G1 X17.425 Y-13.074 E6.82417
G1 X17.557 Y-13.179 E6.82637
G1 X17.712 Y-13.251 E6.82860
G1 X17.881 Y-13.280 E6.83084
G1 X18.049 Y-13.267 E6.83304
G1 X18.211 Y-13.212 E6.83527
G1 X18.353 Y-13.118 E6.83749
G1 X18.469 Y-12.992 E6.83973
G1 X18.543 Y-12.851 E6.84182
G1 X18.730 Y-12.274 E6.84974
G1 X18.819 Y-11.859 E6.85528
G1 X18.897 Y-11.860 E6.85630
G1 X18.952 Y-12.180 E6.86053
G1 X19.194 Y-12.689 E6.86789
G1 X19.561 Y-13.115 E6.87524
G1 X20.029 Y-13.428 E6.88259
G1 X20.546 Y-13.600 E6.88972
G1 X23.488 Y-14.152 E6.92881
G1 X23.393 Y-13.974 F12000.000
G1 X23.414 Y-13.590 E6.93384 F900.000
G1 X23.356 Y-13.310 E6.93756
G1 X23.231 Y-13.055 E6.94128
G1 X22.351 Y-12.053 E6.95870
G1 X21.234 Y-11.326 E6.97611
G1 X19.970 Y-10.928 E6.99342
G1 X19.254 Y-10.784 E7.00296
G1 X19.254 Y-10.706 E7.00398
G1 X19.362 Y-10.686 E7.00541
G1 X20.006 Y-10.385 E7.01469
G1 X20.555 Y-9.932 E7.02399
G1 X20.971 Y-9.361 E7.03322
G1 X21.232 Y-8.703 E7.04247
G1 X21.320 Y-7.999 E7.05173
G1 X21.232 Y-7.297 E7.06096
G1 X20.971 Y-6.639 E7.07021
G1 X20.555 Y-6.069 E7.07943
G1 X20.009 Y-5.617 E7.08869
G1 X19.387 Y-5.324 E7.09767
G1 X18.674 Y-5.184 E7.10716
G1 X17.968 Y-5.231 E7.11640
G1 X17.312 Y-5.443 E7.12540
G1 X16.699 Y-5.831 E7.13488
G1 X16.214 Y-6.347 E7.14413
G1 X15.883 Y-6.950 E7.15312
G1 X15.700 Y-7.654 E7.16261
G1 X15.702 Y-8.361 E7.17186
G1 X15.874 Y-9.027 E7.18084
G1 X16.223 Y-9.665 E7.19034
G1 X16.711 Y-10.179 E7.19959
G1 X17.320 Y-10.561 E7.20898
G1 X18.000 Y-10.773 E7.21828
G1 X18.361 Y-10.796 E7.22300
G1 X18.244 Y-10.892 E7.22497
G1 X18.059 Y-11.433 E7.23244
G1 X17.829 Y-11.862 E7.23881
G1 X17.454 Y-12.356 E7.24690
G1 X17.407 Y-12.477 E7.24859
G1 X17.392 Y-12.608 E7.25032
G1 X17.410 Y-12.737 E7.25202
G1 X17.459 Y-12.859 E7.25374
G1 X17.539 Y-12.963 E7.25545
G1 X17.640 Y-13.045 E7.25715
G1 X17.759 Y-13.099 E7.25886
G1 X17.888 Y-13.122 E7.26057
G1 X18.017 Y-13.112 E7.26226
G1 X18.141 Y-13.070 E7.26397
G1 X18.250 Y-12.998 E7.26568
G1 X18.339 Y-12.901 E7.26739
G1 X18.398 Y-12.790 E7.26903
G1 X18.578 Y-12.233 E7.27668
G1 X18.700 Y-11.665 E7.28427
G1 X18.768 Y-11.027 E7.29264
G1 X18.732 Y-10.893 E7.29446
G1 X18.655 Y-10.817 E7.29588
G1 X19.155 Y-10.724 E7.30252
G1 X19.064 Y-11.107 E7.30765
G1 X19.014 Y-11.619 E7.31438
G1 X19.103 Y-12.132 E7.32117
G1 X19.326 Y-12.602 E7.32798
G1 X19.666 Y-12.997 E7.33478
G1 X20.099 Y-13.286 E7.34157
G1 X20.586 Y-13.448 E7.34828
G1 X23.341 Y-13.965 E7.38489
G1 X23.741 Y-14.009 F12000.000
G1 X6.593 Y-12.257 F12000.000
G1 X6.593 Y-5.585 E7.47204 F1800.000
G1 X-0.079 Y-5.585 E7.55919
G1 X-0.079 Y-11.239 E7.63304
G1 X-3.443 Y-7.875 E7.69518
G1 X-0.743 Y-7.875 E7.73045
G1 X-0.743 Y-5.585 E7.76036
G1 X-9.095 Y-5.585 E7.86945
G1 X-4.712 Y-9.969 E7.95041
G1 X-7.413 Y-9.969 E7.98569
G1 X-7.413 Y-12.257 E8.01558
G1 X6.541 Y-12.257 E8.19783
G1 X6.436 Y-7.718 F12000.000
G1 X6.436 Y-5.742 E8.22364 F900.000
G1 X0.078 Y-5.742 E8.30669
G1 X0.078 Y-7.718 E8.33250
G1 X6.384 Y-7.718 E8.41486
G1 X6.279 Y-7.561 F12000.000
G1 X6.279 Y-5.899 E8.43657 F900.000
G1 X0.235 Y-5.899 E8.51551
G1 X0.235 Y-7.561 E8.53722
G1 X6.226 Y-7.561 E8.61547
G1 X6.629 Y-7.561 F12000.000
G1 X6.436 Y-7.934 F12000.000
G1 X0.078 Y-7.934 E8.69852 F900.000
G1 X0.078 Y-9.910 E8.72433
G1 X6.436 Y-9.910 E8.80737
