; generated by Slic3r 1.2.9 on 2018-03-31 at 17:26:21

; external perimeters extrusion width = 0.35mm
; perimeters extrusion width = 0.52mm
; infill extrusion width = 0.52mm
; solid infill extrusion width = 0.52mm
; top infill extrusion width = 0.52mm

M104 S185 ; set temperature
G28 ; home all axes
G29 Z3.64
G1 Z5 F5000 ; lift nozzle
M109 S185 ; wait for temperature to be reached
G21 ; set units to millimeters
G90 ; use absolute coordinates
M82 ; use absolute distances for extrusion
G92 E0
G1 E-3.00000 F2400.00000
G92 E0
G1 Z0.800 F12000.000
G1 X22.499 Y33.256 F12000.000
G1 Z0.200 F12000.000
G1 E3.00000 F2400.00000
G1 X-22.499 Y33.256 E3.58773 F2160.000
G1 X-23.558 Y33.187 E3.60159
G1 X-24.490 Y33.065 E3.61386
G1 X-26.556 Y32.512 E3.64180
G1 X-27.425 Y32.151 E3.65409
G1 X-29.262 Y31.090 E3.68180
G1 X-30.008 Y30.518 E3.69408
G1 X-31.518 Y29.008 E3.72197
G1 X-32.090 Y28.262 E3.73425
G1 X-33.152 Y26.424 E3.76197
G1 X-33.512 Y25.556 E3.77425
G1 X-34.065 Y23.490 E3.80218
G1 X-34.187 Y22.558 E3.81447
G1 X-34.256 Y21.499 E3.82832
G1 X-34.256 Y-21.499 E4.38993
G1 X-34.187 Y-22.558 E4.40378
G1 X-34.065 Y-23.490 E4.41606
G1 X-33.512 Y-25.556 E4.44400
G1 X-33.152 Y-26.424 E4.45628
G1 X-32.090 Y-28.262 E4.48400
G1 X-31.518 Y-29.009 E4.49629
G1 X-30.008 Y-30.518 E4.52417
G1 X-29.262 Y-31.090 E4.53645
G1 X-27.424 Y-32.152 E4.56418
G1 X-26.556 Y-32.512 E4.57645
G1 X-24.490 Y-33.065 E4.60439
G1 X-23.558 Y-33.187 E4.61667
G1 X-22.499 Y-33.256 E4.63052
G1 X22.499 Y-33.256 E5.21825
G1 X23.557 Y-33.187 E5.23210
G1 X24.490 Y-33.065 E5.24439
G1 X26.556 Y-32.512 E5.27233
G1 X27.424 Y-32.152 E5.28460
G1 X29.262 Y-31.090 E5.31233
G1 X30.009 Y-30.518 E5.32461
G1 X31.518 Y-29.008 E5.35249
G1 X32.090 Y-28.262 E5.36477
G1 X33.152 Y-26.424 E5.39250
G1 X33.512 Y-25.556 E5.40478
G1 X34.065 Y-23.490 E5.43271
G1 X34.187 Y-22.557 E5.44500
G1 X34.256 Y-21.499 E5.45885
G1 X34.256 Y21.499 E6.02045
G1 X34.187 Y22.558 E6.03431
G1 X34.065 Y23.490 E6.04659
G1 X33.512 Y25.556 E6.07453
G1 X33.151 Y26.425 E6.08681
G1 X32.090 Y28.262 E6.11453
G1 X31.518 Y29.008 E6.12681
G1 X30.008 Y30.518 E6.15469
G1 X29.262 Y31.090 E6.16697
G1 X27.425 Y32.151 E6.19469
G1 X26.556 Y32.512 E6.20697
G1 X24.490 Y33.065 E6.23491
G1 X23.558 Y33.187 E6.24719
G1 X22.551 Y33.253 E6.26036
G1 E3.26036 F2400.00000
G92 E0
G1 Z1.000 F12000.000
G1 X-17.413 Y18.585 F12000.000
G1 Z0.200 F12000.000
G1 E3.00000 F2400.00000
G1 X17.413 Y18.585 E3.45487 F1080.000
G1 X17.413 Y23.913 E3.52447
G1 X-17.413 Y23.913 E3.97934
G1 X-17.413 Y18.637 E4.04825
G1 X-17.256 Y18.742 F12000.000
G1 X17.256 Y18.742 E4.49902 F1080.000
G1 X17.256 Y23.756 E4.56451
G1 X-17.256 Y23.756 E5.01528
G1 X-17.256 Y18.794 E5.08008
G1 X-17.099 Y18.899 F12000.000
G1 X17.099 Y18.899 E5.52675 F756.000
G1 X17.099 Y23.599 E5.58814
G1 X-17.099 Y23.599 E6.03481
G1 X-17.099 Y18.952 E6.09551
G1 X-17.099 Y18.549 F12000.000
G1 X-0.413 Y14.215 F12000.000
G1 X-0.413 Y-0.413 E6.28657 F1080.000
G1 X9.443 Y-0.413 E6.41530
G1 X9.443 Y1.229 E6.43675
G1 X1.293 Y1.229 E6.54320
G1 X1.293 Y12.601 E6.69173
G1 X9.443 Y12.601 E6.79818
G1 X9.443 Y14.215 E6.81927
G1 X-0.361 Y14.215 E6.94731
G1 X-0.256 Y14.058 F12000.000
G1 X-0.256 Y-0.256 E7.13427 F1080.000
G1 X9.286 Y-0.256 E7.25891
G1 X9.286 Y1.072 E7.27625
G1 X1.136 Y1.072 E7.38270
G1 X1.136 Y12.758 E7.53533
G1 X9.286 Y12.758 E7.64178
G1 X9.286 Y14.058 E7.65876
G1 X-0.204 Y14.058 E7.78271
G1 X-0.099 Y13.901 F12000.000
G1 X-0.099 Y-0.099 E7.96557 F756.000
G1 X9.129 Y-0.099 E8.08609
G1 X9.129 Y0.915 E8.09934
G1 X0.979 Y0.915 E8.20579
G1 X0.979 Y12.915 E8.36252
G1 X9.129 Y12.915 E8.46897
G1 X9.129 Y13.901 E8.48185
G1 X-0.046 Y13.901 E8.60169
G1 X-0.449 Y13.901 F12000.000
G1 X9.815 Y14.215 F12000.000
G1 X9.815 Y12.601 E8.62277 F1080.000
G1 X17.965 Y12.601 E8.72922
G1 X17.965 Y1.229 E8.87775
G1 X9.815 Y1.229 E8.98420
G1 X9.815 Y-0.413 E9.00565
G1 X19.613 Y-0.413 E9.13363
G1 X19.613 Y14.215 E9.32469
G1 X9.867 Y14.215 E9.45198
G1 X9.972 Y14.058 F12000.000
G1 X9.972 Y12.758 E9.46896 F1080.000
G1 X18.122 Y12.758 E9.57541
G1 X18.122 Y1.072 E9.72805
G1 X9.972 Y1.072 E9.83449
G1 X9.972 Y-0.256 E9.85184
G1 X19.456 Y-0.256 E9.97571
G1 X19.456 Y14.058 E10.16267
G1 X10.024 Y14.058 E10.28586
G1 X10.129 Y13.901 F12000.000
G1 X10.129 Y12.915 E10.29874 F756.000
G1 X18.279 Y12.915 E10.40519
G1 X18.279 Y0.915 E10.56192
G1 X10.129 Y0.915 E10.66837
G1 X10.129 Y-0.099 E10.68162
G1 X19.299 Y-0.099 E10.80139
G1 X19.299 Y13.901 E10.98424
G1 X10.182 Y13.901 E11.10333
G1 X9.779 Y13.901 F12000.000
G1 X9.545 Y-5.585 F12000.000
G1 X7.255 Y-5.585 E11.13324 F540.000
G1 X7.255 Y-12.257 E11.22039
G1 X15.609 Y-12.257 E11.32950
G1 X12.273 Y-8.921 E11.39112
G1 X16.705 Y-4.491 E11.47298
G1 X13.342 Y-4.491 E11.51691
G1 X9.545 Y-8.285 E11.58702
G1 X9.545 Y-5.637 E11.62160
G1 X9.388 Y-5.742 F12000.000
G1 X7.412 Y-5.742 E11.64741 F1080.000
G1 X7.412 Y-9.910 E11.70185
G1 X9.388 Y-9.910 E11.72766
G1 X9.388 Y-9.178 E11.73723
G1 X10.336 Y-10.126 E11.75475
G1 X7.412 Y-10.126 E11.79295
G1 X7.412 Y-12.100 E11.81873
G1 X15.230 Y-12.100 E11.92084
G1 X12.051 Y-8.921 E11.97956
G1 X16.326 Y-4.648 E12.05851
G1 X13.407 Y-4.648 E12.09664
G1 X9.388 Y-8.664 E12.17084
G1 X9.388 Y-5.794 E12.20833
G1 X9.354 Y-8.921 F12000.000
G1 X10.716 Y-10.283 E12.23349 F540.000
G1 X7.569 Y-10.283 E12.27459
G1 X7.569 Y-11.943 E12.29627
G1 X14.850 Y-11.943 E12.39137
G1 X11.828 Y-8.921 E12.44719
G1 X15.946 Y-4.805 E12.52324
G1 X13.472 Y-4.805 E12.55556
G1 X9.391 Y-8.884 E12.63092
G1 X9.106 Y-9.168 F12000.000
G1 X9.231 Y-9.753 F12000.000
G1 X9.231 Y-5.899 E12.68126 F540.000
G1 X7.569 Y-5.899 E12.70297
G1 X7.569 Y-9.753 E12.75330
G1 X9.178 Y-9.753 E12.77432
G1 X9.581 Y-9.753 F12000.000
G1 E9.77432 F2400.00000
G92 E0
G1 Z1.000 F12000.000
G1 X16.516 Y-12.843 F12000.000
G1 X15.866 Y-14.867 F12000.000
G1 X17.273 Y-15.223 F12000.000
G1 X17.940 Y-15.261 F12000.000
G1 X17.999 Y-15.259 F12000.000
G1 X17.999 Y-16.499 F12000.000
G1 X17.413 Y-17.085 F12000.000
G1 Z0.200 F12000.000
G1 E3.00000 F2400.00000
G1 X-17.413 Y-17.085 E3.45487 F1080.000
G1 X-17.413 Y-20.339 E3.49738
G1 X-15.835 Y-20.339 E3.51799
G1 X-15.835 Y-18.613 E3.54054
G1 X15.835 Y-18.613 E3.95418
G1 X15.835 Y-20.339 E3.97673
G1 X17.413 Y-20.339 E3.99734
G1 X17.413 Y-17.137 E4.03916
G1 X17.256 Y-17.242 F12000.000
G1 X-17.256 Y-17.242 E4.48993 F1080.000
G1 X-17.256 Y-20.182 E4.52833
G1 X-15.992 Y-20.182 E4.54484
G1 X-15.992 Y-18.456 E4.56738
G1 X15.992 Y-18.456 E4.98513
G1 X15.992 Y-20.182 E5.00768
G1 X17.256 Y-20.182 E5.02419
G1 X17.256 Y-17.294 E5.06190
G1 X17.099 Y-17.399 F12000.000
G1 X-17.099 Y-17.399 E5.50857 F756.000
G1 X-17.099 Y-20.025 E5.54287
G1 X-16.149 Y-20.025 E5.55528
G1 X-16.149 Y-18.299 E5.57782
G1 X16.149 Y-18.299 E5.99967
G1 X16.149 Y-20.025 E6.02221
G1 X17.099 Y-20.025 E6.03462
G1 X17.099 Y-17.452 E6.06823
G1 X17.099 Y-17.049 F12000.000
G1 X23.687 Y-14.349 F12000.000
G1 X23.729 Y-13.566 E6.07848 F540.000
G1 X23.656 Y-13.208 E6.08325
G1 X23.494 Y-12.879 E6.08804
G1 X22.559 Y-11.813 E6.10657
G1 X21.369 Y-11.039 E6.12510
G1 X20.166 Y-10.660 E6.14158
G1 X20.786 Y-10.148 E6.15207
G1 X21.248 Y-9.514 E6.16233
G1 X21.539 Y-8.781 E6.17263
G1 X21.636 Y-7.999 E6.18292
G1 X21.539 Y-7.219 E6.19319
G1 X21.248 Y-6.486 E6.20349
G1 X20.786 Y-5.852 E6.21374
G1 X20.179 Y-5.349 E6.22403
G1 X19.486 Y-5.023 E6.23403
G1 X18.694 Y-4.868 E6.24457
G1 X17.908 Y-4.920 E6.25486
G1 X17.178 Y-5.156 E6.26488
G1 X16.497 Y-5.587 E6.27540
G1 X15.958 Y-6.161 E6.28569
G1 X15.589 Y-6.833 E6.29571
G1 X15.386 Y-7.614 E6.30624
G1 X15.388 Y-8.402 E6.31654
G1 X15.580 Y-9.144 E6.32654
G1 X15.967 Y-9.852 E6.33709
G1 X16.510 Y-10.424 E6.34739
G1 X17.188 Y-10.849 E6.35783
G1 X17.855 Y-11.057 E6.36697
G1 X17.770 Y-11.307 E6.37042
G1 X17.564 Y-11.691 E6.37610
G1 X17.175 Y-12.207 E6.38455
G1 X17.100 Y-12.401 E6.38727
G1 X17.076 Y-12.611 E6.39004
G1 X17.104 Y-12.819 E6.39277
G1 X17.184 Y-13.016 E6.39556
G1 X17.312 Y-13.184 E6.39831
G1 X17.474 Y-13.314 E6.40102
G1 X17.665 Y-13.402 E6.40377
G1 X17.873 Y-13.438 E6.40653
G1 X18.081 Y-13.422 E6.40925
G1 X18.281 Y-13.354 E6.41200
G1 X18.455 Y-13.239 E6.41473
G1 X18.599 Y-13.083 E6.41750
G1 X18.688 Y-12.912 E6.42003
G1 X18.865 Y-12.364 E6.42755
G1 X19.061 Y-12.775 E6.43349
G1 X19.456 Y-13.234 E6.44140
G1 X19.959 Y-13.570 E6.44931
G1 X20.507 Y-13.753 E6.45685
G1 X23.635 Y-14.339 E6.49842
G1 X23.540 Y-14.162 F12000.000
G1 X23.571 Y-13.578 E6.50606 F540.000
G1 X23.506 Y-13.259 E6.51030
G1 X23.363 Y-12.967 E6.51456
G1 X22.455 Y-11.933 E6.53253
G1 X21.302 Y-11.182 E6.55050
G1 X20.009 Y-10.776 E6.56820
G1 X19.789 Y-10.731 E6.57113
G1 X19.781 Y-10.664 E6.57202
G1 X20.090 Y-10.519 E6.57649
G1 X20.670 Y-10.040 E6.58631
G1 X21.109 Y-9.437 E6.59605
G1 X21.386 Y-8.742 E6.60582
G1 X21.478 Y-7.999 E6.61560
G1 X21.386 Y-7.258 E6.62535
G1 X21.109 Y-6.563 E6.63513
G1 X20.670 Y-5.960 E6.64486
G1 X20.094 Y-5.483 E6.65464
G1 X19.437 Y-5.174 E6.66413
G1 X18.684 Y-5.026 E6.67415
G1 X17.938 Y-5.076 E6.68391
G1 X17.245 Y-5.299 E6.69342
G1 X16.598 Y-5.709 E6.70342
G1 X16.086 Y-6.254 E6.71319
G1 X15.736 Y-6.892 E6.72269
G1 X15.543 Y-7.634 E6.73270
G1 X15.545 Y-8.382 E6.74247
G1 X15.727 Y-9.086 E6.75197
G1 X16.095 Y-9.759 E6.76199
G1 X16.611 Y-10.301 E6.77176
G1 X17.254 Y-10.705 E6.78168
G1 X17.971 Y-10.929 E6.79150
G1 X18.063 Y-10.934 E6.79270
G1 X17.914 Y-11.370 E6.79871
G1 X17.697 Y-11.777 E6.80473
G1 X17.315 Y-12.281 E6.81300
G1 X17.253 Y-12.439 E6.81521
G1 X17.234 Y-12.610 E6.81746
G1 X17.257 Y-12.778 E6.81967
G1 X17.322 Y-12.938 E6.82193
G1 X17.425 Y-13.074 E6.82416
G1 X17.557 Y-13.179 E6.82636
G1 X17.712 Y-13.251 E6.82859
G1 X17.881 Y-13.280 E6.83083
G1 X18.049 Y-13.267 E6.83303
G1 X18.211 Y-13.212 E6.83527
G1 X18.353 Y-13.118 E6.83748
G1 X18.469 Y-12.992 E6.83973
G1 X18.543 Y-12.851 E6.84181
G1 X18.730 Y-12.274 E6.84973
G1 X18.819 Y-11.859 E6.85527
G1 X18.897 Y-11.860 E6.85629
G1 X18.952 Y-12.180 E6.86052
G1 X19.194 Y-12.689 E6.86788
G1 X19.561 Y-13.115 E6.87524
G1 X20.029 Y-13.428 E6.88259
G1 X20.546 Y-13.600 E6.88971
G1 X23.488 Y-14.152 E6.92880
G1 X23.393 Y-13.974 F12000.000
G1 X23.414 Y-13.590 E6.93384 F540.000
G1 X23.356 Y-13.310 E6.93756
G1 X23.231 Y-13.055 E6.94128
G1 X22.351 Y-12.053 E6.95869
G1 X21.234 Y-11.326 E6.97610
G1 X19.970 Y-10.928 E6.99341
G1 X19.253 Y-10.784 E7.00296
G1 X19.254 Y-10.706 E7.00397
G1 X19.362 Y-10.686 E7.00540
G1 X20.006 Y-10.385 E7.01469
G1 X20.555 Y-9.931 E7.02399
G1 X20.971 Y-9.361 E7.03321
G1 X21.232 Y-8.703 E7.04246
G1 X21.320 Y-7.999 E7.05172
G1 X21.232 Y-7.297 E7.06096
G1 X20.971 Y-6.639 E7.07021
G1 X20.555 Y-6.069 E7.07943
G1 X20.009 Y-5.617 E7.08869
G1 X19.387 Y-5.324 E7.09766
G1 X18.674 Y-5.184 E7.10716
G1 X17.968 Y-5.231 E7.11640
G1 X17.312 Y-5.443 E7.12540
G1 X16.699 Y-5.831 E7.13488
G1 X16.214 Y-6.347 E7.14413
G1 X15.883 Y-6.950 E7.15312
G1 X15.700 Y-7.654 E7.16261
G1 X15.702 Y-8.361 E7.17185
G1 X15.874 Y-9.027 E7.18083
G1 X16.223 Y-9.665 E7.19033
G1 X16.711 Y-10.179 E7.19958
G1 X17.320 Y-10.561 E7.20898
G1 X18.000 Y-10.773 E7.21828
G1 X18.361 Y-10.796 E7.22300
G1 X18.244 Y-10.892 E7.22497
G1 X18.059 Y-11.433 E7.23244
G1 X17.829 Y-11.862 E7.23880
G1 X17.454 Y-12.356 E7.24689
G1 X17.407 Y-12.477 E7.24859
G1 X17.392 Y-12.608 E7.25031
G1 X17.410 Y-12.737 E7.25201
G1 X17.459 Y-12.859 E7.25374
G1 X17.539 Y-12.963 E7.25545
G1 X17.640 Y-13.045 E7.25714
G1 X17.759 Y-13.099 E7.25885
G1 X17.888 Y-13.122 E7.26057
G1 X18.017 Y-13.112 E7.26226
G1 X18.141 Y-13.070 E7.26397
G1 X18.250 Y-12.998 E7.26567
G1 X18.339 Y-12.901 E7.26739
G1 X18.398 Y-12.790 E7.26903
G1 X18.578 Y-12.233 E7.27667
G1 X18.700 Y-11.665 E7.28426
G1 X18.768 Y-11.027 E7.29264
G1 X18.732 Y-10.893 E7.29446
G1 X18.655 Y-10.817 E7.29587
G1 X19.155 Y-10.724 E7.30252
G1 X19.064 Y-11.107 E7.30765
G1 X19.014 Y-11.619 E7.31437
G1 X19.103 Y-12.132 E7.32117
G1 X19.326 Y-12.602 E7.32797
G1 X19.666 Y-12.997 E7.33477
G1 X20.099 Y-13.286 E7.34157
G1 X20.586 Y-13.448 E7.34828
G1 X23.341 Y-13.965 E7.38489
G1 X23.741 Y-14.008 F12000.000
G1 X6.593 Y-12.257 F12000.000
G1 X6.593 Y-5.585 E7.47204 F1080.000
G1 X-0.079 Y-5.585 E7.55919
G1 X-0.079 Y-11.239 E7.63304
G1 X-3.443 Y-7.875 E7.69518
G1 X-0.743 Y-7.875 E7.73045
G1 X-0.743 Y-5.585 E7.76036
G1 X-9.095 Y-5.585 E7.86944
G1 X-4.712 Y-9.969 E7.95041
G1 X-7.413 Y-9.969 E7.98569
G1 X-7.413 Y-12.257 E8.01558
G1 X6.541 Y-12.257 E8.19783
G1 X6.436 Y-7.718 F12000.000
G1 X6.436 Y-5.742 E8.22364 F540.000
G1 X0.078 Y-5.742 E8.30668
G1 X0.078 Y-7.718 E8.33249
G1 X6.384 Y-7.718 E8.41485
G1 X6.279 Y-7.561 F12000.000
G1 X6.279 Y-5.899 E8.43656 F540.000
G1 X0.235 Y-5.899 E8.51550
G1 X0.235 Y-7.561 E8.53721
G1 X6.226 Y-7.561 E8.61546
G1 X6.629 Y-7.561 F12000.000
G1 X6.436 Y-7.934 F12000.000
G1 X0.078 Y-7.934 E8.69851 F540.000
G1 X0.078 Y-9.910 E8.72432
G1 X6.436 Y-9.910 E8.80736
G1 X6.436 Y-7.986 E8.83249
G1 X6.279 Y-8.091 F12000.000
G1 X0.235 Y-8.091 E8.91143 F540.000
G1 X0.235 Y-9.753 E8.93314
G1 X6.279 Y-9.753 E9.01208
G1 X6.279 Y-8.144 E9.03310
G1 X6.279 Y-7.741 F12000.000
G1 X6.436 Y-10.126 F12000.000
G1 X0.078 Y-10.126 E9.11614 F540.000
G1 X0.078 Y-11.618 E9.13564
G1 X-5.799 Y-5.742 E9.24418
G1 X-8.715 Y-5.742 E9.28228
G1 X-2.360 Y-12.100 E9.39970
G1 X6.436 Y-12.100 E9.51458
G1 X6.436 Y-10.178 E9.53968
G1 X-0.665 Y-9.825 F12000.000
G1 X-0.665 Y-9.825 F12000.000
G1 X0.180 Y-11.943 F12000.000
G1 X-5.864 Y-5.899 E9.65132 F540.000
G1 X-8.336 Y-5.899 E9.68362
G1 X-2.294 Y-11.943 E9.79524
G1 X0.128 Y-11.943 E9.82688
G1 X0.483 Y-11.768 F12000.000
G1 X0.235 Y-11.943 F12000.000
G1 X6.279 Y-11.943 E9.90582 F540.000
G1 X6.279 Y-10.283 E9.92750
G1 X0.235 Y-10.283 E10.00644
G1 X0.235 Y-11.890 E10.02744
G1 X0.235 Y-12.293 F12000.000
G1 X-0.900 Y-7.718 F12000.000
G1 X-0.900 Y-5.742 E10.05325 F540.000
G1 X-5.430 Y-5.742 E10.11241
G1 X-3.453 Y-7.718 E10.14891
G1 X-0.952 Y-7.718 E10.18158
G1 X-1.057 Y-7.561 F12000.000
G1 X-1.057 Y-5.899 E10.20328 F540.000
G1 X-5.050 Y-5.899 E10.25544
G1 X-3.388 Y-7.561 E10.28614
G1 X-1.110 Y-7.561 E10.31590
G1 X-0.707 Y-7.561 F12000.000
G1 X-2.726 Y-12.100 F12000.000
G1 X-4.703 Y-10.126 E10.35239 F540.000
G1 X-7.256 Y-10.126 E10.38574
G1 X-7.256 Y-12.100 E10.41153
G1 X-2.778 Y-12.100 E10.47001
G1 X-3.105 Y-11.943 F12000.000
G1 X-4.768 Y-10.283 E10.50070 F540.000
G1 X-7.099 Y-10.283 E10.53115
G1 X-7.099 Y-11.943 E10.55283
G1 X-3.158 Y-11.943 E10.60430
G1 X-2.802 Y-11.768 F12000.000
G1 E7.60430 F2400.00000
G92 E0
G1 Z1.000 F12000.000
G1 X-7.999 Y-12.843 F12000.000
G1 X-15.249 Y-19.199 F12000.000
G1 X-15.835 Y-20.711 F12000.000
G1 Z0.200 F12000.000
G1 E3.00000 F2400.00000
G1 X-17.413 Y-20.711 E3.02061 F1080.000
G1 X-17.413 Y-23.913 E3.06244
G1 X17.413 Y-23.913 E3.51731
G1 X17.413 Y-20.711 E3.55914
G1 X15.835 Y-20.711 E3.57975
G1 X15.835 Y-22.385 E3.60162
G1 X-15.835 Y-22.385 E4.01526
G1 X-15.835 Y-20.763 E4.03644
G1 X-15.992 Y-20.868 F12000.000
G1 X-17.256 Y-20.868 E4.05295 F1080.000
G1 X-17.256 Y-23.756 E4.09067
G1 X17.256 Y-23.756 E4.54144
G1 X17.256 Y-20.868 E4.57917
G1 X15.992 Y-20.868 E4.59568
G1 X15.992 Y-22.542 E4.61754
G1 X-15.992 Y-22.542 E5.03529
G1 X-15.992 Y-20.920 E5.05647
G1 X-16.149 Y-21.025 F12000.000
G1 X-17.099 Y-21.025 E5.06888 F756.000
G1 X-17.099 Y-23.599 E5.10250
G1 X17.099 Y-23.599 E5.54916
G1 X17.099 Y-21.025 E5.58278
G1 X16.149 Y-21.025 E5.59519
G1 X16.149 Y-22.699 E5.61705
G1 X-16.149 Y-22.699 E6.03891
G1 X-16.149 Y-21.078 E6.06008
G1 X-16.149 Y-20.675 F12000.000
G1 E3.06008 F2400.00000
G92 E0
G1 Z1.000 F12000.000
G1 X-15.249 Y-19.199 F12000.000
G1 X-14.299 Y-16.399 F12000.000
G1 X-14.885 Y-15.813 F12000.000
G1 Z0.200 F12000.000
G1 E3.00000 F2400.00000
G1 X-14.885 Y-11.385 E3.05784 F540.000
G1 X-24.913 Y-11.385 E3.18882
G1 X-24.913 Y-15.813 E3.24666
G1 X-14.937 Y-15.813 E3.37695
G1 X-15.042 Y-15.656 F12000.000
G1 X-15.042 Y-11.542 E3.43069 F540.000
G1 X-24.756 Y-11.542 E3.55757
G1 X-24.756 Y-15.656 E3.61130
G1 X-15.094 Y-15.656 E3.73749
G1 X-15.199 Y-15.499 F12000.000
G1 X-15.199 Y-11.699 E3.78713 F540.000
G1 X-24.599 Y-11.699 E3.90990
G1 X-24.599 Y-15.499 E3.95953
G1 X-15.252 Y-15.499 E4.08162
G1 X-14.849 Y-15.499 F12000.000
G1 X-10.185 Y-9.613 F12000.000
G1 X-25.685 Y-9.613 E4.28407 F1080.000
G1 X-25.685 Y-21.472 E4.43896
G1 X-25.573 Y-22.323 E4.45017
