; generated by Slic3r 1.2.9 on 2018-03-31 at 09:51:28

; external perimeters extrusion width = 0.35mm
; perimeters extrusion width = 0.52mm
; infill extrusion width = 0.52mm
; solid infill extrusion width = 0.52mm
; top infill extrusion width = 0.52mm

M104 S185 ; set temperature
G28 ; home all axes
G29 Z3.65
G1 Z5 F5000 ; lift nozzle
M109 S185 ; wait for temperature to be reached
G21 ; set units to millimeters
G90 ; use absolute coordinates
M82 ; use absolute distances for extrusion
G92 E0
G1 E-3.00000 F2400.00000
G92 E0
G1 Z0.800 F12000.000
G1 X22.500 Y-34.171 F12000.000
G1 Z0.200 F12000.000
G1 E3.00000 F2400.00000
G1 X23.684 Y-34.094 E3.03523 F2160.000
G1 X24.616 Y-33.971 E3.06313
G1 X26.903 Y-33.358 E3.13345
G1 X27.772 Y-32.998 E3.16136
G1 X29.822 Y-31.815 E3.23164
G1 X30.568 Y-31.242 E3.25956
G1 X32.242 Y-29.568 E3.32988
G1 X32.815 Y-28.822 E3.35779
G1 X33.998 Y-26.771 E3.42809
G1 X34.353 Y-25.915 E3.45562
G1 X34.971 Y-23.616 E3.52630
G1 X35.094 Y-22.684 E3.55420
G1 X35.171 Y-21.500 E3.58944
G1 X35.171 Y21.500 E4.86616
G1 X35.094 Y22.684 E4.90139
G1 X34.971 Y23.617 E4.92933
G1 X34.358 Y25.903 E4.99961
G1 X33.998 Y26.771 E5.02751
G1 X32.815 Y28.822 E5.09780
G1 X32.242 Y29.568 E5.12572
G1 X30.568 Y31.242 E5.19604
G1 X29.822 Y31.815 E5.22396
G1 X27.771 Y32.998 E5.29425
G1 X26.903 Y33.358 E5.32215
G1 X24.617 Y33.971 E5.39243
G1 X23.684 Y34.094 E5.42037
G1 X22.500 Y34.171 E5.45560
G1 X-22.500 Y34.171 E6.79171
G1 X-23.684 Y34.094 E6.82694
G1 X-24.616 Y33.971 E6.85484
G1 X-26.903 Y33.358 E6.92515
G1 X-27.772 Y32.998 E6.95306
G1 X-29.822 Y31.815 E7.02336
G1 X-30.568 Y31.242 E7.05127
G1 X-32.242 Y29.568 E7.12158
G1 X-32.814 Y28.822 E7.14949
G1 X-33.998 Y26.771 E7.21980
G1 X-34.358 Y25.903 E7.24770
G1 X-34.971 Y23.616 E7.31801
G1 X-35.094 Y22.683 E7.34594
G1 X-35.171 Y21.500 E7.38115
G1 X-35.171 Y-21.500 E8.65787
G1 X-35.094 Y-22.683 E8.69308
G1 X-34.971 Y-23.616 E8.72101
G1 X-34.358 Y-25.903 E8.79132
G1 X-33.998 Y-26.772 E8.81924
G1 X-32.814 Y-28.822 E8.88953
G1 X-32.242 Y-29.568 E8.91744
G1 X-30.568 Y-31.242 E8.98775
G1 X-29.822 Y-31.815 E9.01567
G1 X-27.771 Y-32.998 E9.08596
G1 X-26.903 Y-33.358 E9.11387
G1 X-24.616 Y-33.971 E9.18418
G1 X-23.683 Y-34.094 E9.21210
G1 X-22.500 Y-34.171 E9.24731
G1 X22.447 Y-34.171 E10.58186
G1 X22.500 Y-33.814 F12000.000
G1 X23.637 Y-33.740 E10.61570 F2160.000
G1 X24.569 Y-33.617 E10.64361
G1 X26.767 Y-33.028 E10.71115
G1 X27.635 Y-32.668 E10.73907
G1 X29.604 Y-31.532 E10.80658
G1 X30.350 Y-30.959 E10.83450
G1 X31.959 Y-29.350 E10.90205
G1 X32.531 Y-28.605 E10.92996
G1 X33.669 Y-26.635 E10.99749
G1 X34.023 Y-25.778 E11.02503
G1 X34.617 Y-23.569 E11.09294
G1 X34.740 Y-22.637 E11.12084
G1 X34.814 Y-21.500 E11.15468
G1 X34.814 Y21.500 E12.43141
G1 X34.740 Y22.637 E12.46525
G1 X34.617 Y23.570 E12.49319
G1 X34.028 Y25.767 E12.56070
G1 X33.669 Y26.635 E12.58861
G1 X32.531 Y28.604 E12.65613
G1 X31.959 Y29.350 E12.68405
G1 X30.350 Y30.959 E12.75160
G1 X29.604 Y31.531 E12.77951
G1 X27.635 Y32.669 E12.84704
G1 X26.767 Y33.028 E12.87494
G1 X24.570 Y33.617 E12.94245
G1 X23.637 Y33.740 E12.97039
G1 X22.500 Y33.814 E13.00424
G1 X-22.500 Y33.814 E14.34034
G1 X-23.637 Y33.740 E14.37419
G1 X-24.569 Y33.617 E14.40209
G1 X-26.767 Y33.028 E14.46964
G1 X-27.635 Y32.668 E14.49754
G1 X-29.605 Y31.531 E14.56507
G1 X-30.350 Y30.959 E14.59299
G1 X-31.959 Y29.350 E14.66053
G1 X-32.531 Y28.605 E14.68843
G1 X-33.669 Y26.635 E14.75598
G1 X-34.028 Y25.767 E14.78388
G1 X-34.617 Y23.569 E14.85142
G1 X-34.740 Y22.637 E14.87935
G1 X-34.814 Y21.500 E14.91317
G1 X-34.814 Y-21.500 E16.18990
G1 X-34.740 Y-22.637 E16.22372
G1 X-34.617 Y-23.569 E16.25164
G1 X-34.028 Y-25.767 E16.31919
G1 X-33.668 Y-26.635 E16.34711
G1 X-32.531 Y-28.605 E16.41463
G1 X-31.959 Y-29.350 E16.44254
G1 X-30.350 Y-30.959 E16.51008
G1 X-29.604 Y-31.532 E16.53801
G1 X-27.635 Y-32.669 E16.60553
G1 X-26.766 Y-33.028 E16.63344
G1 X-24.569 Y-33.617 E16.70097
G1 X-23.637 Y-33.740 E16.72890
G1 X-22.500 Y-33.814 E16.76272
G1 X22.447 Y-33.814 E18.09727
G1 X22.500 Y-33.457 F12000.000
G1 X23.591 Y-33.386 E18.12973 F2160.000
G1 X24.523 Y-33.263 E18.15763
G1 X26.630 Y-32.698 E18.22241
G1 X27.498 Y-32.338 E18.25032
G1 X29.387 Y-31.248 E18.31507
G1 X30.133 Y-30.676 E18.34299
G1 X31.676 Y-29.133 E18.40777
G1 X32.248 Y-28.387 E18.43568
G1 X33.339 Y-26.498 E18.50045
G1 X33.694 Y-25.641 E18.52798
G1 X34.263 Y-23.523 E18.59312
G1 X34.386 Y-22.591 E18.62103
G1 X34.457 Y-21.500 E18.65348
G1 X34.457 Y21.500 E19.93021
G1 X34.386 Y22.591 E19.96267
G1 X34.263 Y23.524 E19.99061
G1 X33.698 Y25.630 E20.05535
G1 X33.339 Y26.498 E20.08325
G1 X32.248 Y28.387 E20.14801
G1 X31.676 Y29.133 E20.17593
G1 X30.133 Y30.676 E20.24070
G1 X29.387 Y31.248 E20.26862
G1 X27.498 Y32.339 E20.33338
G1 X26.630 Y32.698 E20.36129
G1 X24.524 Y33.263 E20.42603
G1 X23.591 Y33.386 E20.45397
G1 X22.500 Y33.457 E20.48642
G1 X-22.500 Y33.457 E21.82253
G1 X-23.591 Y33.386 E21.85499
G1 X-24.523 Y33.263 E21.88289
G1 X-26.630 Y32.698 E21.94767
G1 X-27.498 Y32.339 E21.97557
G1 X-29.387 Y31.248 E22.04034
G1 X-30.133 Y30.676 E22.06825
G1 X-31.676 Y29.133 E22.13303
G1 X-32.248 Y28.387 E22.16093
G1 X-33.339 Y26.498 E22.22570
G1 X-33.698 Y25.630 E22.25361
G1 X-34.263 Y23.523 E22.31838
G1 X-34.386 Y22.590 E22.34631
G1 X-34.457 Y21.500 E22.37875
G1 X-34.457 Y-21.500 E23.65547
G1 X-34.386 Y-22.590 E23.68791
G1 X-34.263 Y-23.523 E23.71583
G1 X-33.698 Y-25.630 E23.78061
G1 X-33.338 Y-26.499 E23.80853
G1 X-32.248 Y-28.387 E23.87329
G1 X-31.676 Y-29.133 E23.90119
G1 X-30.133 Y-30.676 E23.96597
G1 X-29.387 Y-31.248 E23.99389
G1 X-27.498 Y-32.339 E24.05864
G1 X-26.630 Y-32.698 E24.08656
G1 X-24.523 Y-33.263 E24.15132
G1 X-23.590 Y-33.386 E24.17925
G1 X-22.500 Y-33.457 E24.21168
G1 X22.447 Y-33.457 E25.54623
G1 E22.54623 F2400.00000
G92 E0
G1 Z1.000 F12000.000
G1 X20.296 Y16.146 F12000.000
G1 Z0.200 F12000.000
G1 E3.00000 F2400.00000
G1 X21.246 Y16.086 E3.02827 F540.000
G1 X22.212 Y16.270 E3.05746
G1 X23.101 Y16.689 E3.08664
G1 X23.859 Y17.316 E3.11583
G1 X24.436 Y18.111 E3.14501
G1 X24.798 Y19.025 E3.17420
G1 X24.921 Y20.000 E3.20338
G1 X24.798 Y20.975 E3.23257
G1 X24.436 Y21.889 E3.26176
G1 X23.859 Y22.684 E3.29094
G1 X23.101 Y23.311 E3.32013
G1 X22.212 Y23.729 E3.34931
G1 X21.246 Y23.914 E3.37850
G1 X20.265 Y23.852 E3.40768
G1 X19.330 Y23.548 E3.43687
G1 X18.500 Y23.022 E3.46605
G1 X17.828 Y22.305 E3.49524
G1 X17.354 Y21.444 E3.52443
G1 X17.109 Y20.491 E3.55361
G1 X17.109 Y19.509 E3.58280
G1 X17.346 Y18.586 E3.61107
G1 X17.825 Y17.698 E3.64103
G1 X18.500 Y16.978 E3.67033
G1 X19.334 Y16.450 E3.69963
G1 X20.246 Y16.162 E3.72803
G1 X20.362 Y16.500 F12000.000
G1 X21.224 Y16.446 E3.75367 F540.000
G1 X22.101 Y16.613 E3.78018
G1 X22.908 Y16.993 E3.80669
G1 X23.596 Y17.562 E3.83319
G1 X24.121 Y18.284 E3.85970
G1 X24.450 Y19.114 E3.88621
G1 X24.562 Y20.000 E3.91271
G1 X24.450 Y20.886 E3.93922
G1 X24.121 Y21.716 E3.96573
G1 X23.596 Y22.438 E3.99223
G1 X22.908 Y23.007 E4.01874
G1 X22.101 Y23.387 E4.04525
G1 X21.224 Y23.554 E4.07175
G1 X20.333 Y23.498 E4.09826
G1 X19.484 Y23.223 E4.12477
G1 X18.730 Y22.744 E4.15128
G1 X18.119 Y22.093 E4.17778
G1 X17.689 Y21.311 E4.20429
G1 X17.467 Y20.446 E4.23080
G1 X17.467 Y19.554 E4.25730
G1 X17.681 Y18.717 E4.28294
G1 X18.117 Y17.908 E4.31022
G1 X18.730 Y17.256 E4.33680
G1 X19.486 Y16.776 E4.36338
G1 X20.312 Y16.516 E4.38910
G1 X20.428 Y16.853 F12000.000
G1 X21.201 Y16.805 E4.41211 F540.000
G1 X21.989 Y16.955 E4.43593
G1 X22.715 Y17.297 E4.45976
G1 X23.334 Y17.808 E4.48359
G1 X23.806 Y18.458 E4.50742
G1 X24.101 Y19.204 E4.53125
G1 X24.202 Y20.000 E4.55507
G1 X24.101 Y20.796 E4.57890
G1 X23.806 Y21.542 E4.60273
G1 X23.334 Y22.192 E4.62656
G1 X22.715 Y22.703 E4.65039
G1 X21.989 Y23.045 E4.67422
G1 X21.201 Y23.195 E4.69804
G1 X20.400 Y23.145 E4.72187
G1 X19.637 Y22.897 E4.74570
G1 X18.959 Y22.467 E4.76953
G1 X18.410 Y21.882 E4.79336
G1 X18.023 Y21.179 E4.81718
G1 X17.824 Y20.401 E4.84101
G1 X17.824 Y19.599 E4.86484
G1 X18.016 Y18.848 E4.88785
G1 X18.409 Y18.119 E4.91245
G1 X18.959 Y17.533 E4.93630
G1 X19.638 Y17.103 E4.96016
G1 X20.378 Y16.869 E4.98320
G1 X20.558 Y16.528 F12000.000
G1 X21.201 Y0.286 F12000.000
G1 X20.880 Y2.790 E5.05815 F1080.000
G1 X20.583 Y4.278 E5.10321
G1 X20.184 Y5.742 E5.14826
G1 X19.685 Y7.175 E5.19331
G1 X19.088 Y8.570 E5.23836
G1 X18.396 Y9.920 E5.28342
G1 X17.612 Y11.219 E5.32847
G1 X16.740 Y12.461 E5.37352
G1 X15.784 Y13.639 E5.41857
G1 X14.749 Y14.749 E5.46362
G1 X13.639 Y15.784 E5.50868
G1 X12.461 Y16.740 E5.55373
G1 X11.219 Y17.612 E5.59878
G1 X9.920 Y18.396 E5.64383
G1 X8.570 Y19.088 E5.68889
G1 X7.175 Y19.685 E5.73394
G1 X5.742 Y20.184 E5.77899
G1 X4.278 Y20.583 E5.82404
G1 X2.790 Y20.880 E5.86909
G1 X0.286 Y21.201 E5.94405
G1 X0.286 Y18.138 E6.03500
G1 X2.585 Y17.899 E6.10364
G1 X4.012 Y17.635 E6.14672
G1 X5.412 Y17.256 E6.18979
G1 X6.778 Y16.767 E6.23287
G1 X8.016 Y16.208 E6.27318
G1 X9.372 Y15.467 E6.31908
G1 X10.580 Y14.667 E6.36209
G1 X11.722 Y13.772 E6.40517
G1 X12.787 Y12.790 E6.44818
G1 X13.829 Y11.649 E6.49408
G1 X14.667 Y10.580 E6.53439
G1 X15.468 Y9.370 E6.57747
G1 X16.170 Y8.100 E6.62055
G1 X16.767 Y6.778 E6.66362
G1 X17.256 Y5.412 E6.70670
G1 X17.635 Y4.012 E6.74978
G1 X17.899 Y2.585 E6.79286
G1 X18.138 Y0.286 E6.86150
G1 X21.148 Y0.286 E6.95089
G1 X20.795 Y0.643 F12000.000
G1 X20.527 Y2.732 E7.01343 F1080.000
G1 X20.236 Y4.196 E7.05774
G1 X19.843 Y5.636 E7.10206
G1 X19.352 Y7.046 E7.14638
G1 X18.765 Y8.418 E7.19070
G1 X18.084 Y9.746 E7.23501
G1 X17.312 Y11.024 E7.27933
G1 X16.455 Y12.245 E7.32365
G1 X15.514 Y13.405 E7.36797
G1 X14.496 Y14.496 E7.41229
G1 X13.405 Y15.514 E7.45660
G1 X12.245 Y16.455 E7.50092
G1 X11.024 Y17.312 E7.54524
G1 X9.746 Y18.084 E7.58956
G1 X8.418 Y18.765 E7.63387
G1 X7.046 Y19.352 E7.67819
G1 X5.636 Y19.843 E7.72251
G1 X4.196 Y20.236 E7.76683
G1 X2.732 Y20.527 E7.81114
G1 X0.643 Y20.795 E7.87369
G1 X0.643 Y18.460 E7.94303
G1 X2.636 Y18.253 E8.00253
G1 X4.091 Y17.983 E8.04646
G1 X5.519 Y17.597 E8.09039
G1 X6.912 Y17.098 E8.13432
G1 X8.175 Y16.528 E8.17546
G1 X9.557 Y15.773 E8.22220
G1 X10.789 Y14.957 E8.26609
G1 X11.954 Y14.044 E8.31002
G1 X13.040 Y13.042 E8.35391
G1 X14.102 Y11.880 E8.40066
G1 X14.957 Y10.789 E8.44180
G1 X15.774 Y9.556 E8.48573
G1 X16.489 Y8.260 E8.52966
G1 X17.098 Y6.912 E8.57358
G1 X17.597 Y5.519 E8.61751
G1 X17.983 Y4.091 E8.66144
G1 X18.253 Y2.636 E8.70537
G1 X18.460 Y0.643 E8.76488
G1 X20.743 Y0.643 E8.83266
G1 X20.389 Y1.000 F12000.000
G1 X20.175 Y2.675 E8.88278 F756.000
G1 X19.888 Y4.114 E8.92637
G1 X19.502 Y5.530 E8.96995
G1 X19.019 Y6.916 E9.01353
G1 X18.441 Y8.266 E9.05711
G1 X17.772 Y9.572 E9.10070
G1 X17.013 Y10.829 E9.14428
G1 X16.169 Y12.030 E9.18786
G1 X15.245 Y13.170 E9.23145
G1 X14.243 Y14.243 E9.27503
G1 X13.170 Y15.245 E9.31861
G1 X12.030 Y16.169 E9.36220
G1 X10.829 Y17.013 E9.40578
G1 X9.572 Y17.772 E9.44936
G1 X8.266 Y18.441 E9.49295
G1 X6.916 Y19.019 E9.53653
G1 X5.530 Y19.502 E9.58011
G1 X4.114 Y19.888 E9.62370
G1 X2.675 Y20.175 E9.66728
G1 X1.000 Y20.389 E9.71740
G1 X1.000 Y18.782 E9.76514
G1 X2.687 Y18.607 E9.81551
G1 X4.170 Y18.331 E9.86029
G1 X5.626 Y17.938 E9.90507
G1 X7.046 Y17.429 E9.94985
G1 X8.334 Y16.848 E9.99181
G1 X9.741 Y16.079 E10.03941
G1 X10.998 Y15.247 E10.08418
G1 X12.185 Y14.316 E10.12896
G1 X13.293 Y13.294 E10.17372
G1 X14.375 Y12.111 E10.22132
G1 X15.247 Y10.998 E10.26329
G1 X16.080 Y9.741 E10.30807
G1 X16.809 Y8.421 E10.35285
G1 X17.429 Y7.046 E10.39763
G1 X17.938 Y5.626 E10.44241
G1 X18.331 Y4.170 E10.48719
G1 X18.607 Y2.687 E10.53197
G1 X18.782 Y1.000 E10.58234
G1 X20.337 Y1.000 E10.62851
G1 X20.738 Y1.030 F12000.000
G1 X21.242 Y-16.086 F12000.000
G1 X20.236 Y-16.158 E10.65847 F540.000
G1 X19.330 Y-16.452 E10.68674
G1 X18.500 Y-16.978 E10.71593
G1 X17.828 Y-17.695 E10.74511
G1 X17.354 Y-18.556 E10.77430
G1 X17.109 Y-19.509 E10.80348
G1 X17.109 Y-20.491 E10.83267
G1 X17.346 Y-21.414 E10.86094
G1 X17.825 Y-22.302 E10.89090
G1 X18.500 Y-23.022 E10.92020
G1 X19.334 Y-23.550 E10.94951
G1 X20.296 Y-23.854 E10.97947
G1 X21.246 Y-23.914 E11.00774
G1 X22.212 Y-23.729 E11.03692
G1 X23.101 Y-23.311 E11.06611
G1 X23.859 Y-22.684 E11.09529
G1 X24.436 Y-21.889 E11.12448
G1 X24.798 Y-20.975 E11.15366
G1 X24.921 Y-20.000 E11.18285
G1 X24.798 Y-19.025 E11.21203
G1 X24.436 Y-18.111 E11.24122
G1 X23.859 Y-17.316 E11.27041
G1 X23.101 Y-16.689 E11.29959
G1 X22.212 Y-16.271 E11.32878
G1 X21.294 Y-16.095 E11.35652
G1 X21.221 Y-16.445 F12000.000
G1 X20.305 Y-16.511 E11.38380 F540.000
G1 X19.484 Y-16.777 E11.40944
G1 X18.730 Y-17.256 E11.43595
G1 X18.119 Y-17.907 E11.46245
G1 X17.689 Y-18.689 E11.48896
G1 X17.467 Y-19.554 E11.51547
G1 X17.467 Y-20.446 E11.54197
G1 X17.681 Y-21.283 E11.56761
G1 X18.117 Y-22.092 E11.59489
G1 X18.730 Y-22.744 E11.62147
G1 X19.486 Y-23.224 E11.64805
G1 X20.362 Y-23.500 E11.67533
G1 X21.224 Y-23.554 E11.70097
G1 X22.101 Y-23.387 E11.72747
G1 X22.908 Y-23.007 E11.75398
G1 X23.596 Y-22.438 E11.78049
G1 X24.121 Y-21.716 E11.80700
G1 X24.450 Y-20.886 E11.83350
G1 X24.562 Y-20.000 E11.86001
G1 X24.450 Y-19.114 E11.88652
G1 X24.121 Y-18.284 E11.91302
G1 X23.596 Y-17.562 E11.93953
G1 X22.908 Y-16.993 E11.96604
G1 X22.101 Y-16.613 E11.99254
G1 X21.273 Y-16.455 E12.01756
G1 X21.200 Y-16.805 F12000.000
G1 X20.374 Y-16.864 E12.04217 F540.000
G1 X19.637 Y-17.103 E12.06517
G1 X18.959 Y-17.533 E12.08900
G1 X18.410 Y-18.118 E12.11283
G1 X18.023 Y-18.821 E12.13666
G1 X17.824 Y-19.599 E12.16048
G1 X17.824 Y-20.401 E12.18431
G1 X18.016 Y-21.152 E12.20732
G1 X18.409 Y-21.881 E12.23192
G1 X18.959 Y-22.467 E12.25577
G1 X19.638 Y-22.897 E12.27963
G1 X20.428 Y-23.147 E12.30423
G1 X21.201 Y-23.195 E12.32723
G1 X21.989 Y-23.045 E12.35106
G1 X22.715 Y-22.703 E12.37489
G1 X23.334 Y-22.192 E12.39872
G1 X23.806 Y-21.542 E12.42255
G1 X24.101 Y-20.796 E12.44637
G1 X24.202 Y-20.000 E12.47020
G1 X24.101 Y-19.204 E12.49403
G1 X23.806 Y-18.458 E12.51786
G1 X23.334 Y-17.808 E12.54169
G1 X22.715 Y-17.297 E12.56551
G1 X21.989 Y-16.955 E12.58934
G1 X21.252 Y-16.814 E12.61164
G1 X21.030 Y-16.499 F12000.000
G1 X21.201 Y-0.286 F12000.000
G1 X18.138 Y-0.286 E12.70259 F1080.000
G1 X17.899 Y-2.585 E12.77123
G1 X17.635 Y-4.012 E12.81430
G1 X17.256 Y-5.412 E12.85738
G1 X16.767 Y-6.778 E12.90046
G1 X16.170 Y-8.100 E12.94353
G1 X15.468 Y-9.370 E12.98661
G1 X14.667 Y-10.580 E13.02969
G1 X13.772 Y-11.722 E13.07277
G1 X12.788 Y-12.788 E13.11584
G1 X11.722 Y-13.772 E13.15892
G1 X10.580 Y-14.667 E13.20200
G1 X9.370 Y-15.468 E13.24508
G1 X8.100 Y-16.170 E13.28815
G1 X6.778 Y-16.767 E13.33123
G1 X5.500 Y-17.225 E13.37154
G1 X4.010 Y-17.635 E13.41744
G1 X2.585 Y-17.899 E13.46045
G1 X0.286 Y-18.138 E13.52909
G1 X0.286 Y-21.201 E13.62004
G1 X2.790 Y-20.880 E13.69500
G1 X4.278 Y-20.583 E13.74005
G1 X5.742 Y-20.184 E13.78510
G1 X7.175 Y-19.685 E13.83015
G1 X8.570 Y-19.088 E13.87521
G1 X9.920 Y-18.396 E13.92026
G1 X11.219 Y-17.612 E13.96531
G1 X12.461 Y-16.740 E14.01036
G1 X13.639 Y-15.784 E14.05541
G1 X14.749 Y-14.749 E14.10047
G1 X15.784 Y-13.639 E14.14552
G1 X16.740 Y-12.461 E14.19057
G1 X17.612 Y-11.219 E14.23562
G1 X18.396 Y-9.920 E14.28068
G1 X19.088 Y-8.570 E14.32573
G1 X19.685 Y-7.175 E14.37078
G1 X20.184 Y-5.742 E14.41583
G1 X20.583 Y-4.278 E14.46088
G1 X20.880 Y-2.790 E14.50594
G1 X21.194 Y-0.338 E14.57933
G1 X20.795 Y-0.643 F12000.000
G1 X18.460 Y-0.643 E14.64867 F1080.000
G1 X18.253 Y-2.636 E14.70818
G1 X17.983 Y-4.091 E14.75211
G1 X17.597 Y-5.519 E14.79604
G1 X17.098 Y-6.912 E14.83997
G1 X16.489 Y-8.260 E14.88389
G1 X15.774 Y-9.556 E14.92782
G1 X14.957 Y-10.789 E14.97175
G1 X14.044 Y-11.954 E15.01568
G1 X13.041 Y-13.041 E15.05961
G1 X11.954 Y-14.044 E15.10354
G1 X10.789 Y-14.957 E15.14746
G1 X9.556 Y-15.774 E15.19139
G1 X8.260 Y-16.489 E15.23532
G1 X6.912 Y-17.098 E15.27925
G1 X5.608 Y-17.566 E15.32039
G1 X4.090 Y-17.983 E15.36714
G1 X2.636 Y-18.253 E15.41103
G1 X0.643 Y-18.460 E15.47053
G1 X0.643 Y-20.795 E15.53987
G1 X2.732 Y-20.527 E15.60241
G1 X4.196 Y-20.236 E15.64673
G1 X5.636 Y-19.843 E15.69105
G1 X7.046 Y-19.352 E15.73537
G1 X8.418 Y-18.765 E15.77968
G1 X9.746 Y-18.084 E15.82400
G1 X11.024 Y-17.312 E15.86832
G1 X12.245 Y-16.455 E15.91264
G1 X13.405 Y-15.514 E15.95695
