; generated by Slic3r 1.2.9 on 2018-03-31 at 11:01:10

; external perimeters extrusion width = 0.35mm
; perimeters extrusion width = 0.52mm
; infill extrusion width = 0.52mm
; solid infill extrusion width = 0.52mm
; top infill extrusion width = 0.52mm

M104 S185 ; set temperature
G28 ; home all axes
G29 Z3.62
G1 Z5 F5000 ; lift nozzle
M109 S185 ; wait for temperature to be reached
G21 ; set units to millimeters
G90 ; use absolute coordinates
M82 ; use absolute distances for extrusion
G92 E0
G1 E-3.00000 F2400.00000
G92 E0
G1 Z0.800 F12000.000
G1 X22.499 Y33.870 F12000.000
G1 Z0.200 F12000.000
G1 E3.00000 F2400.00000
G1 X-22.499 Y33.870 E3.96189 F2160.000
G1 X-23.637 Y33.796 E3.98628
G1 X-24.569 Y33.674 E4.00637
G1 X-26.791 Y33.079 E4.05554
G1 X-27.660 Y32.719 E4.07565
G1 X-29.636 Y31.578 E4.12442
G1 X-30.382 Y31.006 E4.14452
G1 X-32.006 Y29.382 E4.19359
G1 X-32.578 Y28.636 E4.21369
G1 X-33.719 Y26.659 E4.26248
G1 X-34.079 Y25.791 E4.28257
G1 X-34.674 Y23.570 E4.33172
G1 X-34.796 Y22.637 E4.35183
G1 X-34.870 Y21.499 E4.37622
G1 X-34.870 Y-21.499 E5.29536
G1 X-34.796 Y-22.637 E5.31974
G1 X-34.674 Y-23.569 E5.33984
G1 X-34.079 Y-25.791 E5.38900
G1 X-33.719 Y-26.659 E5.40909
G1 X-32.578 Y-28.636 E5.45789
G1 X-32.005 Y-29.383 E5.47799
G1 X-30.382 Y-31.006 E5.52706
G1 X-29.636 Y-31.578 E5.54716
G1 X-27.659 Y-32.719 E5.59595
G1 X-26.791 Y-33.079 E5.61604
G1 X-24.569 Y-33.674 E5.66521
G1 X-23.637 Y-33.796 E5.68531
G1 X-22.499 Y-33.870 E5.70969
G1 X22.499 Y-33.870 E6.67158
G1 X23.637 Y-33.796 E6.69594
G1 X24.569 Y-33.674 E6.71606
G1 X26.791 Y-33.079 E6.76522
G1 X27.659 Y-32.719 E6.78531
G1 X29.636 Y-31.578 E6.83411
G1 X30.382 Y-31.005 E6.85421
G1 X32.006 Y-29.382 E6.90328
G1 X32.578 Y-28.636 E6.92338
G1 X33.719 Y-26.659 E6.97217
G1 X34.079 Y-25.791 E6.99226
G1 X34.674 Y-23.569 E7.04143
G1 X34.796 Y-22.637 E7.06154
G1 X34.870 Y-21.499 E7.08591
G1 X34.870 Y21.499 E8.00504
G1 X34.796 Y22.637 E8.02943
G1 X34.674 Y23.569 E8.04952
G1 X34.079 Y25.791 E8.09869
G1 X33.719 Y26.660 E8.11880
G1 X32.578 Y28.636 E8.16757
G1 X32.006 Y29.382 E8.18767
G1 X30.382 Y31.006 E8.23675
G1 X29.636 Y31.578 E8.25684
G1 X27.660 Y32.719 E8.30562
G1 X26.791 Y33.079 E8.32573
G1 X24.569 Y33.674 E8.37489
G1 X23.637 Y33.796 E8.39499
G1 X22.551 Y33.867 E8.41825
G1 X22.499 Y33.613 F12000.000
G1 X-22.499 Y33.613 E9.38014 F2160.000
G1 X-23.604 Y33.541 E9.40381
G1 X-24.536 Y33.419 E9.42391
G1 X-26.693 Y32.842 E9.47163
G1 X-27.562 Y32.481 E9.49174
G1 X-29.480 Y31.374 E9.53908
G1 X-30.226 Y30.802 E9.55918
G1 X-31.802 Y29.226 E9.60682
G1 X-32.374 Y28.480 E9.62692
G1 X-33.482 Y26.561 E9.67428
G1 X-33.842 Y25.693 E9.69437
G1 X-34.419 Y23.537 E9.74208
G1 X-34.541 Y22.604 E9.76219
G1 X-34.613 Y21.499 E9.78586
G1 X-34.613 Y-21.499 E10.70500
G1 X-34.541 Y-22.604 E10.72866
G1 X-34.419 Y-23.536 E10.74876
G1 X-33.842 Y-25.693 E10.79649
G1 X-33.482 Y-26.561 E10.81658
G1 X-32.374 Y-28.480 E10.86394
G1 X-31.801 Y-29.226 E10.88405
G1 X-30.226 Y-30.802 E10.93168
G1 X-29.479 Y-31.374 E10.95178
G1 X-27.561 Y-32.482 E10.99914
G1 X-26.693 Y-32.842 E11.01923
G1 X-24.536 Y-33.419 E11.06695
G1 X-23.604 Y-33.541 E11.08705
G1 X-22.499 Y-33.613 E11.11072
G1 X22.499 Y-33.613 E12.07261
G1 X23.603 Y-33.541 E12.09626
G1 X24.536 Y-33.419 E12.11637
G1 X26.693 Y-32.842 E12.16410
G1 X27.561 Y-32.482 E12.18419
G1 X29.480 Y-31.374 E12.23155
G1 X30.226 Y-30.801 E12.25165
G1 X31.802 Y-29.226 E12.29929
G1 X32.374 Y-28.480 E12.31938
G1 X33.482 Y-26.561 E12.36675
G1 X33.842 Y-25.693 E12.38684
G1 X34.419 Y-23.536 E12.43456
G1 X34.541 Y-22.603 E12.45467
G1 X34.613 Y-21.499 E12.47833
G1 X34.613 Y21.499 E13.39746
G1 X34.541 Y22.604 E13.42114
G1 X34.419 Y23.536 E13.44123
G1 X33.842 Y25.693 E13.48896
G1 X33.481 Y26.562 E13.50906
G1 X32.374 Y28.480 E13.55641
G1 X31.802 Y29.226 E13.57650
G1 X30.226 Y30.802 E13.62414
G1 X29.480 Y31.374 E13.64424
G1 X27.562 Y32.481 E13.69158
G1 X26.693 Y32.842 E13.71169
G1 X24.536 Y33.419 E13.75942
G1 X23.604 Y33.541 E13.77951
G1 X22.551 Y33.610 E13.80206
G1 X22.499 Y33.356 F12000.000
G1 X-22.499 Y33.356 E14.76395 F2160.000
G1 X-23.571 Y33.286 E14.78691
G1 X-24.503 Y33.164 E14.80700
G1 X-26.594 Y32.604 E14.85329
G1 X-27.463 Y32.244 E14.87340
G1 X-29.323 Y31.170 E14.91931
G1 X-30.069 Y30.598 E14.93940
G1 X-31.598 Y29.069 E14.98561
G1 X-32.170 Y28.323 E15.00570
G1 X-33.244 Y26.462 E15.05163
G1 X-33.604 Y25.594 E15.07172
G1 X-34.164 Y23.503 E15.11800
G1 X-34.286 Y22.571 E15.13810
G1 X-34.356 Y21.499 E15.16106
G1 X-34.356 Y-21.499 E16.08020
G1 X-34.286 Y-22.570 E16.10315
G1 X-34.164 Y-23.503 E16.12325
G1 X-33.604 Y-25.594 E16.16953
G1 X-33.244 Y-26.462 E16.18962
G1 X-32.170 Y-28.323 E16.23555
G1 X-31.597 Y-29.070 E16.25566
G1 X-30.069 Y-30.598 E16.30185
G1 X-29.323 Y-31.170 E16.32195
G1 X-27.462 Y-32.244 E16.36788
G1 X-26.594 Y-32.604 E16.38797
G1 X-24.503 Y-33.164 E16.43426
G1 X-23.570 Y-33.286 E16.45435
G1 X-22.499 Y-33.356 E16.47731
G1 X22.499 Y-33.356 E17.43919
G1 X23.570 Y-33.286 E17.46214
G1 X24.503 Y-33.164 E17.48225
G1 X26.594 Y-32.604 E17.52853
G1 X27.462 Y-32.244 E17.54862
G1 X29.323 Y-31.170 E17.59455
G1 X30.069 Y-30.597 E17.61465
G1 X31.598 Y-29.069 E17.66085
G1 X32.170 Y-28.323 E17.68095
G1 X33.244 Y-26.462 E17.72688
G1 X33.604 Y-25.594 E17.74697
G1 X34.164 Y-23.503 E17.79325
G1 X34.286 Y-22.570 E17.81336
G1 X34.356 Y-21.499 E17.83630
G1 X34.356 Y21.499 E18.75544
G1 X34.286 Y22.571 E18.77840
G1 X34.164 Y23.503 E18.79849
G1 X33.604 Y25.594 E18.84478
G1 X33.244 Y26.463 E18.86489
G1 X32.170 Y28.323 E18.91080
G1 X31.598 Y29.069 E18.93090
G1 X30.069 Y30.598 E18.97710
G1 X29.323 Y31.170 E18.99719
G1 X27.463 Y32.244 E19.04311
G1 X26.594 Y32.604 E19.06321
G1 X24.503 Y33.164 E19.10950
G1 X23.571 Y33.286 E19.12959
G1 X22.551 Y33.353 E19.15143
G1 E16.15143 F2400.00000
G92 E0
G1 Z1.000 F12000.000
G1 X-17.663 Y18.335 F12000.000
G1 Z0.200 F12000.000
G1 E3.00000 F2400.00000
G1 X17.663 Y18.335 E3.75514 F1080.000
G1 X17.663 Y24.163 E3.87973
G1 X-17.663 Y24.163 E4.63487
G1 X-17.663 Y18.387 E4.75834
G1 X-17.406 Y18.592 F12000.000
G1 X17.406 Y18.592 E5.50249 F1080.000
G1 X17.406 Y23.906 E5.61609
G1 X-17.406 Y23.906 E6.36024
G1 X-17.406 Y18.644 E6.47271
G1 X-17.149 Y18.849 F12000.000
G1 X17.149 Y18.849 E7.20588 F756.000
G1 X17.149 Y23.649 E7.30848
G1 X-17.149 Y23.649 E8.04164
G1 X-17.149 Y18.902 E8.14313
G1 X-17.149 Y18.499 F12000.000
G1 X-0.663 Y14.465 F12000.000
G1 X-0.663 Y-0.663 E8.46651 F1080.000
G1 X19.863 Y-0.663 E8.90529
G1 X19.863 Y14.465 E9.22867
G1 X-0.611 Y14.465 E9.66633
G1 X9.822 Y14.208 F12000.000
G1 X9.822 Y12.608 E9.70053 F1080.000
G1 X17.972 Y12.608 E9.87475
G1 X17.972 Y1.222 E10.11813
G1 X9.822 Y1.222 E10.29235
G1 X9.822 Y-0.406 E10.32715
G1 X19.606 Y-0.406 E10.53630
G1 X19.606 Y14.208 E10.84870
G1 X9.874 Y14.208 E11.05672
G1 X10.079 Y13.951 F12000.000
G1 X10.079 Y12.865 E11.07994 F756.000
G1 X18.229 Y12.865 E11.25415
G1 X18.229 Y0.965 E11.50853
G1 X10.079 Y0.965 E11.68275
G1 X10.079 Y-0.149 E11.70656
G1 X19.349 Y-0.149 E11.90472
G1 X19.349 Y13.951 E12.20612
G1 X10.132 Y13.951 E12.40316
G1 X9.729 Y13.951 F12000.000
G1 X9.436 Y14.208 F12000.000
G1 X-0.406 Y14.208 E12.61354 F1080.000
G1 X-0.406 Y-0.406 E12.92594
G1 X9.436 Y-0.406 E13.13633
G1 X9.436 Y1.222 E13.17113
G1 X1.286 Y1.222 E13.34535
G1 X1.286 Y12.608 E13.58873
G1 X9.436 Y12.608 E13.76295
G1 X9.436 Y14.156 E13.79603
G1 X9.179 Y13.951 F12000.000
G1 X-0.149 Y13.951 E13.99543 F756.000
G1 X-0.149 Y-0.149 E14.29683
G1 X9.179 Y-0.149 E14.49623
G1 X9.179 Y0.965 E14.52004
G1 X1.029 Y0.965 E14.69426
G1 X1.029 Y12.865 E14.94864
G1 X9.179 Y12.865 E15.12286
G1 X9.179 Y13.898 E15.14495
G1 X9.179 Y14.301 F12000.000
G1 X-0.999 Y14.801 F12000.000
G1 X-5.299 Y9.201 F12000.000
G1 X-0.999 Y-2.999 F12000.000
G1 X10.131 Y-2.999 F12000.000
G1 X10.131 Y-4.999 F12000.000
G1 X6.843 Y-5.335 F12000.000
G1 X-0.329 Y-5.335 E15.29826 F1080.000
G1 X-0.329 Y-10.636 E15.41157
G1 X-2.840 Y-8.125 E15.48747
G1 X-0.493 Y-8.125 E15.53763
G1 X-0.493 Y-5.335 E15.59728
G1 X-9.698 Y-5.335 E15.79405
G1 X-5.315 Y-9.719 E15.92656
G1 X-7.663 Y-9.719 E15.97674
G1 X-7.663 Y-12.507 E16.03634
G1 X6.843 Y-12.507 E16.34643
G1 X6.843 Y-5.387 E16.49863
G1 X6.586 Y-5.592 F12000.000
G1 X-0.072 Y-5.592 E16.64095 F1080.000
G1 X-0.072 Y-11.256 E16.76204
G1 X-3.460 Y-7.868 E16.86446
G1 X-0.750 Y-7.868 E16.92240
G1 X-0.750 Y-5.592 E16.97106
G1 X-9.077 Y-5.592 E17.14907
G1 X-4.695 Y-9.976 E17.28158
G1 X-7.406 Y-9.976 E17.33953
G1 X-7.406 Y-12.250 E17.38814
G1 X6.586 Y-12.250 E17.68724
G1 X6.586 Y-5.644 E17.82844
G1 X6.329 Y-5.849 F12000.000
G1 X0.185 Y-5.849 E17.95978 F540.000
G1 X0.185 Y-7.611 E17.99744
G1 X6.329 Y-7.611 E18.12878
G1 X6.329 Y-5.902 E18.16532
G1 X6.329 Y-5.499 F12000.000
G1 X6.329 Y-8.041 F12000.000
G1 X0.185 Y-8.041 E18.29665 F540.000
G1 X0.185 Y-9.803 E18.33432
G1 X6.329 Y-9.803 E18.46565
G1 X6.329 Y-8.094 E18.50219
G1 X6.329 Y-7.691 F12000.000
G1 X6.329 Y-10.233 F12000.000
G1 X0.185 Y-10.233 E18.63353 F540.000
G1 X0.185 Y-11.877 E18.66867
G1 X-5.843 Y-5.849 E18.85090
G1 X-8.457 Y-5.849 E18.90678
G1 X-2.315 Y-11.993 E19.09248
G1 X6.329 Y-11.993 E19.27726
G1 X6.329 Y-10.286 E19.31376
G1 X6.329 Y-9.883 F12000.000
G1 E16.31376 F2400.00000
G92 E0
G1 Z1.000 F12000.000
G1 X-0.665 Y-8.461 F12000.000
G1 X-0.665 Y-8.461 F12000.000
G1 X-1.007 Y-7.611 F12000.000
G1 Z0.200 F12000.000
G1 E3.00000 F2400.00000
G1 X-1.007 Y-5.849 E3.03766 F540.000
G1 X-5.171 Y-5.849 E3.12668
G1 X-3.409 Y-7.611 E3.17994
G1 X-1.060 Y-7.611 E3.23017
G1 X-0.657 Y-7.611 F12000.000
G1 X-2.985 Y-11.993 F12000.000
G1 X-4.747 Y-10.233 E3.28341 F540.000
G1 X-7.149 Y-10.233 E3.33475
G1 X-7.149 Y-11.993 E3.37238
G1 X-3.037 Y-11.993 E3.46027
G1 X-2.682 Y-11.818 F12000.000
G1 X-17.663 Y-16.835 F12000.000
G1 X-17.663 Y-24.163 E3.61692 F1080.000
G1 X17.663 Y-24.163 E4.37207
G1 X17.663 Y-16.835 E4.52872
G1 X-17.611 Y-16.835 E5.28274
G1 X-17.406 Y-17.092 F12000.000
G1 X-17.406 Y-20.332 E5.35200 F1080.000
G1 X-15.842 Y-20.332 E5.38544
G1 X-15.842 Y-18.606 E5.42233
G1 X15.842 Y-18.606 E6.09962
G1 X15.842 Y-20.332 E6.13651
G1 X17.406 Y-20.332 E6.16995
G1 X17.406 Y-17.092 E6.23921
G1 X-17.354 Y-17.092 E6.98224
G1 X-17.149 Y-17.349 F12000.000
G1 X-17.149 Y-20.075 E7.04051 F756.000
G1 X-16.099 Y-20.075 E7.06295
G1 X-16.099 Y-18.349 E7.09985
G1 X16.099 Y-18.349 E7.78812
G1 X16.099 Y-20.075 E7.82502
G1 X17.149 Y-20.075 E7.84746
G1 X17.149 Y-17.349 E7.90573
G1 X-17.096 Y-17.349 E8.63777
G1 X-17.499 Y-17.349 F12000.000
G1 X-17.406 Y-20.718 F12000.000
G1 X-17.406 Y-23.906 E8.70592 F1080.000
G1 X17.406 Y-23.906 E9.45008
G1 X17.406 Y-20.718 E9.51823
G1 X15.842 Y-20.718 E9.55166
G1 X15.842 Y-22.392 E9.58744
G1 X-15.842 Y-22.392 E10.26473
G1 X-15.842 Y-20.718 E10.30051
G1 X-17.354 Y-20.718 E10.33282
G1 X-17.149 Y-20.975 F12000.000
G1 X-17.149 Y-23.649 E10.38998 F756.000
G1 X17.149 Y-23.649 E11.12315
G1 X17.149 Y-20.975 E11.18030
G1 X16.099 Y-20.975 E11.20275
G1 X16.099 Y-22.649 E11.23853
G1 X-16.099 Y-22.649 E11.92681
G1 X-16.099 Y-20.975 E11.96259
G1 X-17.096 Y-20.975 E11.98391
G1 X-17.499 Y-20.975 F12000.000
G1 E8.98391 F2400.00000
G92 E0
G1 Z1.000 F12000.000
G1 X-15.249 Y-19.199 F12000.000
G1 X-14.299 Y-16.399 F12000.000
G1 X-14.635 Y-16.063 F12000.000
G1 Z0.200 F12000.000
G1 E3.00000 F2400.00000
G1 X-14.635 Y-11.135 E3.10535 F540.000
G1 X-25.163 Y-11.135 E3.33040
G1 X-25.163 Y-16.063 E3.43575
G1 X-14.687 Y-16.063 E3.65968
G1 X-14.892 Y-15.806 F12000.000
G1 X-14.892 Y-11.392 E3.75404 F540.000
G1 X-24.906 Y-11.392 E3.96811
G1 X-24.906 Y-15.806 E4.06246
G1 X-14.944 Y-15.806 E4.27541
G1 X-15.149 Y-15.549 F12000.000
G1 X-15.149 Y-11.649 E4.35877 F540.000
G1 X-24.649 Y-11.649 E4.56185
G1 X-24.649 Y-15.549 E4.64521
G1 X-15.202 Y-15.549 E4.84716
G1 X-14.799 Y-15.549 F12000.000
G1 X7.005 Y-12.507 F12000.000
G1 X16.212 Y-12.507 E5.04399 F1080.000
G1 X12.626 Y-8.921 E5.15239
G1 X15.690 Y-5.859 E5.24499
G1 X15.799 Y-5.964 E5.24824
G1 X15.754 Y-6.013 E5.24966
G1 X15.355 Y-6.740 E5.26740
G1 X15.136 Y-7.582 E5.28599
G1 X15.138 Y-8.434 E5.30419
G1 X15.345 Y-9.236 E5.32191
G1 X15.764 Y-10.001 E5.34054
G1 X16.351 Y-10.619 E5.35876
G1 X17.082 Y-11.078 E5.37722
G1 X17.534 Y-11.219 E5.38733
G1 X17.354 Y-11.554 E5.39547
G1 X16.953 Y-12.088 E5.40976
G1 X16.855 Y-12.341 E5.41554
G1 X16.824 Y-12.614 E5.42142
G1 X16.860 Y-12.884 E5.42723
G1 X16.965 Y-13.141 E5.43319
G1 X17.132 Y-13.360 E5.43905
G1 X17.341 Y-13.528 E5.44480
G1 X17.591 Y-13.643 E5.45067
G1 X17.861 Y-13.690 E5.45654
G1 X18.131 Y-13.669 E5.46233
G1 X18.391 Y-13.580 E5.46820
G1 X18.618 Y-13.431 E5.47400
G1 X18.805 Y-13.229 E5.47989
G1 X18.924 Y-13.000 E5.48541
G1 X19.289 Y-13.423 E5.49735
G1 X19.848 Y-13.797 E5.51173
G1 X20.444 Y-13.995 E5.52516
G1 X23.921 Y-14.647 E5.60078
G1 X23.981 Y-13.548 E5.62433
G1 X23.895 Y-13.126 E5.63351
G1 X23.704 Y-12.739 E5.64274
G1 X22.724 Y-11.622 E5.67451
G1 X21.477 Y-10.811 E5.70631
G1 X20.680 Y-10.560 E5.72417
G1 X20.969 Y-10.321 E5.73219
G1 X21.469 Y-9.635 E5.75032
G1 X21.783 Y-8.844 E5.76853
G1 X21.888 Y-7.999 E5.78673
G1 X21.783 Y-7.156 E5.80489
G1 X21.469 Y-6.365 E5.82309
G1 X20.969 Y-5.679 E5.84122
G1 X20.314 Y-5.137 E5.85941
G1 X19.564 Y-4.784 E5.87711
G1 X18.710 Y-4.616 E5.89572
G1 X17.861 Y-4.673 E5.91391
G1 X17.071 Y-4.928 E5.93166
G1 X16.376 Y-5.368 E5.94925
G1 X16.289 Y-5.260 E5.95220
G1 X17.309 Y-4.241 E5.98301
G1 X13.238 Y-4.241 E6.07003
G1 X9.795 Y-7.682 E6.17409
G1 X9.795 Y-5.335 E6.22426
G1 X7.005 Y-5.335 E6.28390
G1 X7.005 Y-12.455 E6.43610
G1 X7.262 Y-12.250 F12000.000
G1 X15.592 Y-12.250 E6.61416 F540.000
G1 X12.263 Y-8.921 E6.71480
G1 X16.688 Y-4.498 E6.84854
G1 X13.344 Y-4.498 E6.92002
G1 X9.538 Y-8.302 E7.03506
G1 X9.538 Y-5.592 E7.09300
G1 X7.262 Y-5.592 E7.14165
G1 X7.262 Y-12.198 E7.28286
G1 X7.519 Y-11.993 F12000.000
G1 X14.971 Y-11.993 E7.44215 F540.000
G1 X11.899 Y-8.921 E7.53502
G1 X16.067 Y-4.755 E7.66099
G1 X13.451 Y-4.755 E7.71692
G1 X9.283 Y-8.921 E7.84289
G1 X10.595 Y-10.233 E7.88255
G1 X7.519 Y-10.233 E7.94830
G1 X7.519 Y-11.940 E7.98480
G1 X7.519 Y-12.343 F12000.000
G1 X7.519 Y-9.803 F12000.000
G1 X9.281 Y-9.803 E8.02247 F540.000
G1 X9.281 Y-5.849 E8.10699
G1 X7.519 Y-5.849 E8.14465
G1 X7.519 Y-9.750 E8.22805
G1 X7.519 Y-10.153 F12000.000
G1 E5.22805 F2400.00000
G92 E0
G1 Z1.000 F12000.000
G1 X13.101 Y-8.921 F12000.000
G1 X15.208 Y-10.470 F12000.000
G1 X16.036 Y-11.293 F12000.000
G1 X16.369 Y-11.554 F12000.000
G1 X16.385 Y-11.742 F12000.000
G1 X16.654 Y-11.929 F12000.000
G1 X17.317 Y-13.179 F12000.000
G1 Z0.200 F12000.000
G1 E3.00000 F2400.00000
G1 X17.477 Y-13.308 E3.00439 F540.000
G1 X17.667 Y-13.395 E3.00886
G1 X17.874 Y-13.431 E3.01334
G1 X18.079 Y-13.415 E3.01775
G1 X18.277 Y-13.348 E3.02222
G1 X18.450 Y-13.234 E3.02665
G1 X18.593 Y-13.079 E3.03114
G1 X18.682 Y-12.909 E3.03525
G1 X18.864 Y-12.345 E3.04792
G1 X19.067 Y-12.771 E3.05801
G1 X19.461 Y-13.229 E3.07091
G1 X19.962 Y-13.564 E3.08381
G1 X20.509 Y-13.746 E3.09612
G1 X23.680 Y-14.341 E3.16510
G1 X23.722 Y-13.567 E3.18167
G1 X23.649 Y-13.210 E3.18944
G1 X23.489 Y-12.883 E3.19724
G1 X22.554 Y-11.818 E3.22752
G1 X21.366 Y-11.045 E3.25781
G1 X20.151 Y-10.663 E3.28503
G1 X20.780 Y-10.144 E3.30248
G1 X21.242 Y-9.510 E3.31922
G1 X21.532 Y-8.780 E3.33603
G1 X21.629 Y-7.999 E3.35285
G1 X21.532 Y-7.220 E3.36962
G1 X21.242 Y-6.490 E3.38643
G1 X20.781 Y-5.857 E3.40317
G1 X20.175 Y-5.355 E3.41998
G1 X19.484 Y-5.030 E3.43630
G1 X18.694 Y-4.875 E3.45352
G1 X17.910 Y-4.927 E3.47031
G1 X17.181 Y-5.163 E3.48668
G1 X16.502 Y-5.592 E3.50386
G1 X15.964 Y-6.165 E3.52066
G1 X15.596 Y-6.836 E3.53702
G1 X15.393 Y-7.615 E3.55422
G1 X15.395 Y-8.401 E3.57102
G1 X15.586 Y-9.141 E3.58737
G1 X15.973 Y-9.848 E3.60459
G1 X16.515 Y-10.418 E3.62141
G1 X17.191 Y-10.842 E3.63846
G1 X17.864 Y-11.052 E3.65354
G1 X17.776 Y-11.310 E3.65936
G1 X17.570 Y-11.695 E3.66869
G1 X17.181 Y-12.210 E3.68250
G1 X17.106 Y-12.403 E3.68692
G1 X17.083 Y-12.611 E3.69140
G1 X17.111 Y-12.817 E3.69583
G1 X17.191 Y-13.013 E3.70036
G1 X17.285 Y-13.137 E3.70370
G1 X23.439 Y-14.034 F12000.000
G1 X23.464 Y-13.586 E3.71330 F540.000
G1 X23.404 Y-13.294 E3.71966
G1 X23.273 Y-13.027 E3.72602
G1 X22.384 Y-12.015 E3.75482
G1 X21.256 Y-11.280 E3.78360
G1 X19.982 Y-10.880 E3.81213
