; generated by Slic3r 1.2.9 on 2018-03-13 at 20:42:36

; external perimeters extrusion width = 0.40mm
; perimeters extrusion width = 0.67mm
; infill extrusion width = 0.67mm
; solid infill extrusion width = 0.67mm
; top infill extrusion width = 0.67mm

M107
M104 S185 ; set temperature
G28 ; home all axes
G29 Z3.6
G1 Z5 F5000 ; lift nozzle

M109 S185 ; wait for temperature to be reached
G21 ; set units to millimeters
G90 ; use absolute coordinates
M82 ; use absolute distances for extrusion
G92 E0
G1 Z0.200 F4200.000
G1 E-2.00000 F2400.00000
G92 E0
G1 X0.000 Y35.814 F4200.000
G1 E2.00000 F2400.00000
G1 X-22.500 Y35.814 E2.66805 F1800.000
G1 X-23.898 Y35.722 E2.70967
G1 X-24.830 Y35.600 E2.73757
G1 X-27.532 Y34.876 E2.82062
G1 X-28.400 Y34.516 E2.84852
G1 X-30.822 Y33.118 E2.93155
G1 X-31.568 Y32.546 E2.95947
G1 X-33.546 Y30.568 E3.04251
G1 X-34.118 Y29.822 E3.07042
G1 X-35.516 Y27.400 E3.15346
G1 X-35.876 Y26.532 E3.18136
G1 X-36.600 Y23.830 E3.26441
G1 X-36.723 Y22.898 E3.29234
G1 X-36.814 Y21.500 E3.33393
G1 X-36.814 Y-21.500 E4.61065
G1 X-36.723 Y-22.898 E4.65224
G1 X-36.600 Y-23.830 E4.68017
G1 X-35.876 Y-26.532 E4.76321
G1 X-35.516 Y-27.401 E4.79114
G1 X-34.118 Y-29.822 E4.87416
G1 X-33.546 Y-30.568 E4.90206
G1 X-31.568 Y-32.546 E4.98511
G1 X-30.822 Y-33.118 E5.01304
G1 X-28.400 Y-34.516 E5.09606
G1 X-27.532 Y-34.876 E5.12397
G1 X-24.830 Y-35.600 E5.20701
G1 X-23.898 Y-35.723 E5.23494
G1 X-22.500 Y-35.814 E5.27652
G1 X22.500 Y-35.814 E6.61263
G1 X23.898 Y-35.723 E6.65424
G1 X24.830 Y-35.600 E6.68215 F1800.000
G1 X27.532 Y-34.876 E6.76519
G1 X28.401 Y-34.516 E6.79311
G1 X30.822 Y-33.118 E6.87612
G1 X31.568 Y-32.546 E6.90404
G1 X33.546 Y-30.568 E6.98709
G1 X34.118 Y-29.822 E7.01500
G1 X35.516 Y-27.400 E7.09804
G1 X35.871 Y-26.543 E7.12557
G1 X36.600 Y-23.830 E7.20898
G1 X36.722 Y-22.898 E7.23689
G1 X36.814 Y-21.500 E7.27850
G1 X36.814 Y21.500 E8.55522
G1 X36.722 Y22.898 E8.59684
G1 X36.600 Y23.832 E8.62479
G1 X35.876 Y26.532 E8.70779
G1 X35.516 Y27.400 E8.73569
G1 X34.118 Y29.822 E8.81871
G1 X33.546 Y30.568 E8.84664
G1 X31.568 Y32.546 E8.92968
G1 X30.822 Y33.118 E8.95761
G1 X28.400 Y34.516 E9.04063
G1 X27.532 Y34.876 E9.06853
G1 X24.832 Y35.600 E9.15154
G1 X23.898 Y35.722 E9.17949
G1 X22.500 Y35.814 E9.22110
G1 X0.060 Y35.814 E9.88737
G1 X0.060 Y35.457 F4200.000
G1 X-22.500 Y35.457 E10.55721 F1800.000
G1 X-23.852 Y35.368 E10.59743
G1 X-24.784 Y35.246 E10.62533
G1 X-27.395 Y34.546 E10.70561
G1 X-28.264 Y34.186 E10.73352
G1 X-30.605 Y32.835 E10.81378
G1 X-31.351 Y32.262 E10.84169
G1 X-33.262 Y30.351 E10.92197
G1 X-33.835 Y29.605 E10.94988
G1 X-35.186 Y27.263 E11.03015
G1 X-35.546 Y26.395 E11.05806
G1 X-36.246 Y23.784 E11.13834
G1 X-36.369 Y22.851 E11.16627
G1 X-36.457 Y21.500 E11.20646
G1 X-36.457 Y-21.500 E12.48319
G1 X-36.369 Y-22.851 E12.52339
G1 X-36.246 Y-23.784 E12.55132
G1 X-35.546 Y-26.395 E12.63160
G1 X-35.186 Y-27.264 E12.65952
G1 X-33.835 Y-29.605 E12.73978
G1 X-33.262 Y-30.351 E12.76768
G1 X-31.351 Y-32.262 E12.84796
G1 X-30.604 Y-32.835 E12.87589
G1 X-28.263 Y-34.186 E12.95614
G1 X-27.395 Y-34.546 E12.98405
G1 X-24.784 Y-35.246 E13.06432
G1 X-23.851 Y-35.369 E13.09225
G1 X-22.500 Y-35.457 E13.13245
G1 X22.500 Y-35.457 E14.46856
G1 X23.852 Y-35.368 E14.50878
G1 X24.784 Y-35.246 E14.53669 F1800.000
G1 X27.395 Y-34.546 E14.61696
G1 X28.264 Y-34.186 E14.64488
G1 X30.604 Y-32.835 E14.72512
G1 X31.351 Y-32.262 E14.75305
G1 X33.262 Y-30.351 E14.83333
G1 X33.835 Y-29.605 E14.86124
G1 X35.186 Y-27.264 E14.94151
G1 X35.541 Y-26.407 E14.96904
G1 X36.246 Y-23.784 E15.04968
G1 X36.368 Y-22.852 E15.07759
G1 X36.457 Y-21.500 E15.11781
G1 X36.457 Y21.500 E16.39454
G1 X36.368 Y22.852 E16.43476
G1 X36.246 Y23.785 E16.46271
G1 X35.546 Y26.395 E16.54295
G1 X35.186 Y27.264 E16.57085
G1 X33.835 Y29.604 E16.65111
G1 X33.262 Y30.351 E16.67903
G1 X31.351 Y32.262 E16.75931
G1 X30.604 Y32.835 E16.78723
G1 X28.264 Y34.186 E16.86749
G1 X27.395 Y34.546 E16.89539
G1 X24.785 Y35.246 E16.97563
G1 X23.852 Y35.368 E17.00357
G1 X22.500 Y35.457 E17.04380
G1 X0.120 Y35.457 E17.70829
G1 E15.70829 F2400.00000
G92 E0
G1 X17.828 Y22.305 F4200.000
G1 E2.00000 F2400.00000
G1 X17.354 Y21.444 E2.02919 F1800.000
G1 X17.109 Y20.491 E2.05837
G1 X17.109 Y19.509 E2.08756
G1 X17.346 Y18.586 E2.11583
G1 X17.825 Y17.698 E2.14579
G1 X18.500 Y16.978 E2.17509
G1 X19.334 Y16.450 E2.20439
G1 X20.296 Y16.146 E2.23435
G1 X21.246 Y16.086 E2.26262 F1800.000
G1 X22.212 Y16.270 E2.29181
G1 X23.101 Y16.689 E2.32099
G1 X23.859 Y17.316 E2.35018
G1 X24.436 Y18.111 E2.37937
G1 X24.798 Y19.025 E2.40855
G1 X24.921 Y20.000 E2.43774
G1 X24.798 Y20.975 E2.46692
G1 X24.436 Y21.889 E2.49611
G1 X23.859 Y22.684 E2.52529
G1 X23.101 Y23.311 E2.55448
G1 X22.212 Y23.729 E2.58367
G1 X21.246 Y23.914 E2.61285
G1 X20.265 Y23.852 E2.64204
G1 X19.330 Y23.548 E2.67122
G1 X18.500 Y23.022 E2.70041
G1 X17.869 Y22.349 E2.72781
G1 X18.129 Y22.104 F4200.000
G1 X17.689 Y21.311 E2.75475 F1800.000
G1 X17.467 Y20.446 E2.78125
G1 X17.467 Y19.554 E2.80776
G1 X17.681 Y18.717 E2.83340
G1 X18.117 Y17.908 E2.86068
G1 X18.730 Y17.256 E2.88726
G1 X19.486 Y16.776 E2.91384
G1 X20.362 Y16.500 E2.94112
G1 X21.224 Y16.446 E2.96675 F1800.000
G1 X22.101 Y16.613 E2.99326
G1 X22.908 Y16.993 E3.01977
G1 X23.596 Y17.562 E3.04628
G1 X24.121 Y18.284 E3.07278
G1 X24.450 Y19.114 E3.09929
G1 X24.562 Y20.000 E3.12580
G1 X24.450 Y20.886 E3.15230
G1 X24.121 Y21.716 E3.17881
G1 X23.596 Y22.438 E3.20532
G1 X22.908 Y23.007 E3.23182
G1 X22.101 Y23.387 E3.25833
G1 X21.224 Y23.554 E3.28484
G1 X20.333 Y23.498 E3.31134
G1 X19.484 Y23.223 E3.33785
G1 X18.730 Y22.744 E3.36436
G1 X18.170 Y22.148 E3.38864
G1 X18.430 Y21.904 F4200.000
G1 X18.023 Y21.179 E3.41333 F1800.000
G1 X17.824 Y20.401 E3.43716
G1 X17.824 Y19.599 E3.46098
G1 X18.016 Y18.848 E3.48399
G1 X18.409 Y18.119 E3.50859
G1 X18.959 Y17.533 E3.53244
G1 X19.638 Y17.103 E3.55630
G1 X20.428 Y16.853 E3.58090
G1 X21.201 Y16.805 E3.60390 F1800.000
G1 X21.989 Y16.955 E3.62773
G1 X22.715 Y17.297 E3.65156
G1 X23.334 Y17.808 E3.67539
G1 X23.806 Y18.458 E3.69922
G1 X24.101 Y19.204 E3.72305
G1 X24.202 Y20.000 E3.74687
G1 X24.101 Y20.796 E3.77070
G1 X23.806 Y21.542 E3.79453
G1 X23.334 Y22.192 E3.81836
G1 X22.715 Y22.703 E3.84219
G1 X21.989 Y23.045 E3.86601
G1 X21.201 Y23.195 E3.88984
G1 X20.400 Y23.145 E3.91367
G1 X19.637 Y22.897 E3.93750
G1 X18.959 Y22.467 E3.96133
G1 X18.471 Y21.947 E3.98249
G1 X18.031 Y21.931 F4200.000
G1 X13.538 Y15.866 F4200.000
G1 X12.461 Y16.740 E4.02368 F1800.000
G1 X11.219 Y17.612 E4.06873
G1 X9.920 Y18.396 E4.11378
G1 X8.570 Y19.088 E4.15884
G1 X7.175 Y19.685 E4.20389
G1 X5.742 Y20.184 E4.24894
G1 X4.278 Y20.583 E4.29399
G1 X2.790 Y20.880 E4.33904
G1 X0.286 Y21.201 E4.41400
G1 X0.286 Y18.138 E4.50495
G1 X2.585 Y17.899 E4.57359
G1 X4.012 Y17.635 E4.61667
G1 X5.412 Y17.256 E4.65974
G1 X6.778 Y16.767 E4.70282
G1 X8.016 Y16.208 E4.74313
G1 X9.372 Y15.467 E4.78903
G1 X10.580 Y14.667 E4.83204
G1 X11.722 Y13.772 E4.87512
G1 X12.787 Y12.790 E4.91813
G1 X13.829 Y11.649 E4.96403
G1 X14.667 Y10.580 E5.00434
G1 X15.468 Y9.370 E5.04742
G1 X16.170 Y8.100 E5.09050
G1 X16.767 Y6.778 E5.13357
G1 X17.256 Y5.412 E5.17665
G1 X17.635 Y4.012 E5.21973
G1 X17.899 Y2.585 E5.26281
G1 X18.138 Y0.286 E5.33145
G1 X21.201 Y0.286 E5.42239 F1800.000
G1 X20.880 Y2.790 E5.49735
G1 X20.583 Y4.278 E5.54240
G1 X20.184 Y5.742 E5.58745
G1 X19.685 Y7.175 E5.63251
G1 X19.088 Y8.570 E5.67756
G1 X18.396 Y9.920 E5.72261
G1 X17.612 Y11.219 E5.76766
G1 X16.740 Y12.461 E5.81272
G1 X15.784 Y13.639 E5.85777
G1 X14.749 Y14.749 E5.90282
G1 X13.585 Y15.828 E5.94995
G1 X13.360 Y15.551 F4200.000
G1 X12.245 Y16.455 E5.99255 F1800.000
G1 X11.024 Y17.312 E6.03687
G1 X9.746 Y18.084 E6.08119
G1 X8.418 Y18.765 E6.12551
G1 X7.046 Y19.352 E6.16982
G1 X5.636 Y19.843 E6.21414
G1 X4.196 Y20.236 E6.25846
G1 X2.732 Y20.527 E6.30278
G1 X0.643 Y20.795 E6.36532
G1 X0.643 Y18.460 E6.43466
G1 X2.636 Y18.253 E6.49416
G1 X4.091 Y17.983 E6.53809
G1 X5.519 Y17.597 E6.58202
G1 X6.912 Y17.098 E6.62595
G1 X8.175 Y16.528 E6.66709
G1 X9.557 Y15.773 E6.71384
G1 X10.789 Y14.957 E6.75773
G1 X11.954 Y14.044 E6.80165
G1 X13.040 Y13.042 E6.84554
G1 X14.102 Y11.880 E6.89229
G1 X14.957 Y10.789 E6.93343
G1 X15.774 Y9.556 E6.97736
G1 X16.489 Y8.260 E7.02129
G1 X17.098 Y6.912 E7.06522
G1 X17.597 Y5.519 E7.10914
G1 X17.983 Y4.091 E7.15307
G1 X18.253 Y2.636 E7.19700
G1 X18.460 Y0.643 E7.25651
G1 X20.795 Y0.643 E7.32585 F1800.000
G1 X20.527 Y2.732 E7.38839
G1 X20.236 Y4.196 E7.43271
G1 X19.843 Y5.636 E7.47702
G1 X19.352 Y7.046 E7.52134
G1 X18.765 Y8.418 E7.56566
G1 X18.084 Y9.746 E7.60998
G1 X17.312 Y11.024 E7.65429
G1 X16.455 Y12.245 E7.69861
G1 X15.514 Y13.405 E7.74293
G1 X14.496 Y14.496 E7.78725
G1 X13.406 Y15.513 E7.83150
G1 X13.170 Y15.245 F4200.000
G1 X12.030 Y16.169 E7.87508 F1800.000
G1 X10.829 Y17.013 E7.91866
G1 X9.572 Y17.772 E7.96225
G1 X8.266 Y18.441 E8.00583
G1 X6.916 Y19.019 E8.04941
G1 X5.530 Y19.502 E8.09300
G1 X4.114 Y19.888 E8.13658
G1 X2.675 Y20.175 E8.18016
G1 X1.000 Y20.389 E8.23029
G1 X1.000 Y18.782 E8.27802
G1 X2.687 Y18.607 E8.32839
G1 X4.170 Y18.331 E8.37317
G1 X5.626 Y17.938 E8.41795
G1 X7.046 Y17.429 E8.46273
G1 X8.334 Y16.848 E8.50470
G1 X9.741 Y16.079 E8.55230
G1 X10.998 Y15.247 E8.59706
G1 X12.185 Y14.316 E8.64184
G1 X13.293 Y13.294 E8.68661
G1 X14.375 Y12.111 E8.73421
G1 X15.247 Y10.998 E8.77617
G1 X16.080 Y9.741 E8.82095
G1 X16.809 Y8.421 E8.86573
G1 X17.429 Y7.046 E8.91051
G1 X17.938 Y5.626 E8.95529
G1 X18.331 Y4.170 E9.00007
G1 X18.607 Y2.687 E9.04485
G1 X18.782 Y1.000 E9.09522
G1 X20.389 Y1.000 E9.14296 F1800.000
G1 X20.175 Y2.675 E9.19308
G1 X19.888 Y4.114 E9.23666
G1 X19.502 Y5.530 E9.28025
G1 X19.019 Y6.916 E9.32383
G1 X18.441 Y8.266 E9.36741
G1 X17.772 Y9.572 E9.41100
G1 X17.013 Y10.829 E9.45458
G1 X16.169 Y12.030 E9.49816
G1 X15.245 Y13.170 E9.54175
G1 X14.243 Y14.243 E9.58533
G1 X13.214 Y15.204 E9.62713
G1 X13.242 Y15.638 F4200.000
G1 E7.62713 F2400.00000
G92 E0
G1 X20.236 Y-16.158 F4200.000
G1 E2.00000 F2400.00000
G1 X19.330 Y-16.452 E2.02827 F1800.000
G1 X18.500 Y-16.978 E2.05746
G1 X17.828 Y-17.695 E2.08664
G1 X17.354 Y-18.556 E2.11583
G1 X17.109 Y-19.509 E2.14501
G1 X17.109 Y-20.491 E2.17420
G1 X17.346 Y-21.414 E2.20247
G1 X17.825 Y-22.302 E2.23243
G1 X18.500 Y-23.022 E2.26173
G1 X19.334 Y-23.550 E2.29104
G1 X20.296 Y-23.854 E2.32099
G1 X21.246 Y-23.914 E2.34926 F1800.000
G1 X22.212 Y-23.729 E2.37845
G1 X23.101 Y-23.311 E2.40764
G1 X23.859 Y-22.684 E2.43682
G1 X24.436 Y-21.889 E2.46601
G1 X24.798 Y-20.975 E2.49519
G1 X24.921 Y-20.000 E2.52438
G1 X24.798 Y-19.025 E2.55356
G1 X24.436 Y-18.111 E2.58275
G1 X23.859 Y-17.316 E2.61193
G1 X23.101 Y-16.689 E2.64112
G1 X22.212 Y-16.271 E2.67031
G1 X21.242 Y-16.086 E2.69961
G1 X20.296 Y-16.153 E2.72779
G1 X20.321 Y-16.509 F4200.000
G1 X19.484 Y-16.777 E2.75390 F1800.000
G1 X18.730 Y-17.256 E2.78041
G1 X18.119 Y-17.907 E2.80691
G1 X17.689 Y-18.689 E2.83342
G1 X17.467 Y-19.554 E2.85993
G1 X17.467 Y-20.446 E2.88643
G1 X17.681 Y-21.283 E2.91207
G1 X18.117 Y-22.092 E2.93935
G1 X18.730 Y-22.744 E2.96593
G1 X19.486 Y-23.224 E2.99251
G1 X20.362 Y-23.500 E3.01979
G1 X21.224 Y-23.554 E3.04543 F1800.000
G1 X22.101 Y-23.387 E3.07193
G1 X22.908 Y-23.007 E3.09844
G1 X23.596 Y-22.438 E3.12495
G1 X24.121 Y-21.716 E3.15145
G1 X24.450 Y-20.886 E3.17796
G1 X24.562 Y-20.000 E3.20447
G1 X24.450 Y-19.114 E3.23098
G1 X24.121 Y-18.284 E3.25748
G1 X23.596 Y-17.562 E3.28399
G1 X22.908 Y-16.993 E3.31050
G1 X22.101 Y-16.613 E3.33700
G1 X21.221 Y-16.445 E3.36358
G1 X20.381 Y-16.505 E3.38859
G1 X20.407 Y-16.861 F4200.000
G1 X19.637 Y-17.103 E3.41255 F1800.000
G1 X18.959 Y-17.533 E3.43638
G1 X18.410 Y-18.118 E3.46020
G1 X18.023 Y-18.821 E3.48403
G1 X17.824 Y-19.599 E3.50786
G1 X17.824 Y-20.401 E3.53169
G1 X18.016 Y-21.152 E3.55469
G1 X18.409 Y-21.881 E3.57929
G1 X18.959 Y-22.467 E3.60315
G1 X19.638 Y-22.897 E3.62700
G1 X20.428 Y-23.147 E3.65160
G1 X21.201 Y-23.195 E3.67461 F1800.000
G1 X21.989 Y-23.045 E3.69844
G1 X22.715 Y-22.703 E3.72227
G1 X23.334 Y-22.192 E3.74609
G1 X23.806 Y-21.542 E3.76992
G1 X24.101 Y-20.796 E3.79375
G1 X24.202 Y-20.000 E3.81758
G1 X24.101 Y-19.204 E3.84141
G1 X23.806 Y-18.458 E3.86523
G1 X23.334 Y-17.808 E3.88906
G1 X22.715 Y-17.297 E3.91289
G1 X21.989 Y-16.955 E3.93672
G1 X21.200 Y-16.805 E3.96057
G1 X20.466 Y-16.857 E3.98242
G1 X20.134 Y-16.569 F4200.000
G1 X16.068 Y-13.289 F4200.000
G1 X16.740 Y-12.461 E4.01408 F1800.000
G1 X17.612 Y-11.219 E4.05913
G1 X18.396 Y-9.920 E4.10419
G1 X19.088 Y-8.570 E4.14924
G1 X19.685 Y-7.175 E4.19429
G1 X20.184 Y-5.742 E4.23934
G1 X20.583 Y-4.278 E4.28440
G1 X20.880 Y-2.790 E4.32945
G1 X21.201 Y-0.286 E4.40440
G1 X18.138 Y-0.286 E4.49535
G1 X17.899 Y-2.585 E4.56399
G1 X17.635 Y-4.012 E4.60707
G1 X17.256 Y-5.412 E4.65015
G1 X16.767 Y-6.778 E4.69322
G1 X16.170 Y-8.100 E4.73630
G1 X15.468 Y-9.370 E4.77938
G1 X14.667 Y-10.580 E4.82246
G1 X13.772 Y-11.722 E4.86553
G1 X12.788 Y-12.788 E4.90861
G1 X11.722 Y-13.772 E4.95169
G1 X10.580 Y-14.667 E4.99476
G1 X9.370 Y-15.468 E5.03784
G1 X8.100 Y-16.170 E5.08092
G1 X6.778 Y-16.767 E5.12400
G1 X5.500 Y-17.225 E5.16431
G1 X4.010 Y-17.635 E5.21021
G1 X2.585 Y-17.899 E5.25322
G1 X0.286 Y-18.138 E5.32186
G1 X0.286 Y-21.201 E5.41281 F1800.000
G1 X2.790 Y-20.880 E5.48776
G1 X4.278 Y-20.583 E5.53281
G1 X5.742 Y-20.184 E5.57787
G1 X7.175 Y-19.685 E5.62292
G1 X8.570 Y-19.088 E5.66797
G1 X9.920 Y-18.396 E5.71302
G1 X11.219 Y-17.612 E5.75808
G1 X12.461 Y-16.740 E5.80313
G1 X13.639 Y-15.784 E5.84818
G1 X14.749 Y-14.749 E5.89323
G1 X15.784 Y-13.639 E5.93828
G1 X16.030 Y-13.336 E5.94989
G1 X15.753 Y-13.111 F4200.000
G1 X16.455 Y-12.245 E5.98297 F1800.000
G1 X17.312 Y-11.024 E6.02729
G1 X18.084 Y-9.746 E6.07161
G1 X18.765 Y-8.418 E6.11592
G1 X19.352 Y-7.046 E6.16024
G1 X19.843 Y-5.636 E6.20456
G1 X20.236 Y-4.196 E6.24888
G1 X20.527 Y-2.732 E6.29319
G1 X20.795 Y-0.643 E6.35573
G1 X18.460 Y-0.643 E6.42507
G1 X18.253 Y-2.636 E6.48458
G1 X17.983 Y-4.091 E6.52851
G1 X17.597 Y-5.519 E6.57244
G1 X17.098 Y-6.912 E6.61637
G1 X16.489 Y-8.260 E6.66029
G1 X15.774 Y-9.556 E6.70422
G1 X14.957 Y-10.789 E6.74815
G1 X14.044 Y-11.954 E6.79208
G1 X13.041 Y-13.041 E6.83601
G1 X11.954 Y-14.044 E6.87994
G1 X10.789 Y-14.957 E6.92386
G1 X9.556 Y-15.774 E6.96779
G1 X8.260 Y-16.489 E7.01172
G1 X6.912 Y-17.098 E7.05565
G1 X5.608 Y-17.566 E7.09679
G1 X4.090 Y-17.983 E7.14354
G1 X2.636 Y-18.253 E7.18743
G1 X0.643 Y-18.460 E7.24693
G1 X0.643 Y-20.795 E7.31627 F1800.000
G1 X2.732 Y-20.527 E7.37881
G1 X4.196 Y-20.236 E7.42313
G1 X5.636 Y-19.843 E7.46745
G1 X7.046 Y-19.352 E7.51177
G1 X8.418 Y-18.765 E7.55608
G1 X9.746 Y-18.084 E7.60040
G1 X11.024 Y-17.312 E7.64472
G1 X12.245 Y-16.455 E7.68904
G1 X13.405 Y-15.514 E7.73336
G1 X14.496 Y-14.496 E7.77767
G1 X15.514 Y-13.405 E7.82199
G1 X15.715 Y-13.157 E7.83145
G1 X15.438 Y-12.932 F4200.000
G1 X16.169 Y-12.030 E7.86594 F1800.000
G1 X17.013 Y-10.829 E7.90952
G1 X17.772 Y-9.572 E7.95311
G1 X18.441 Y-8.266 E7.99669
G1 X19.019 Y-6.916 E8.04027
G1 X19.502 Y-5.530 E8.08386
G1 X19.888 Y-4.114 E8.12744
G1 X20.175 Y-2.675 E8.17102
G1 X20.389 Y-1.000 E8.22115
G1 X18.782 Y-1.000 E8.26888
G1 X18.607 Y-2.687 E8.31925
G1 X18.331 Y-4.170 E8.36403
G1 X17.938 Y-5.626 E8.40881
G1 X17.429 Y-7.046 E8.45359
G1 X16.809 Y-8.421 E8.49837
G1 X16.080 Y-9.741 E8.54315
G1 X15.247 Y-10.998 E8.58793
G1 X14.316 Y-12.185 E8.63271
G1 X13.293 Y-13.293 E8.67749
G1 X12.185 Y-14.316 E8.72227
G1 X10.998 Y-15.247 E8.76705
G1 X9.741 Y-16.080 E8.81183
G1 X8.421 Y-16.809 E8.85661
G1 X7.046 Y-17.429 E8.90139
G1 X5.716 Y-17.906 E8.94335
G1 X4.170 Y-18.332 E8.99095
G1 X2.687 Y-18.607 E9.03572
G1 X1.000 Y-18.782 E9.08609
G1 X1.000 Y-20.389 E9.13382 F1800.000
G1 X2.675 Y-20.175 E9.18395
G1 X4.114 Y-19.888 E9.22753
G1 X5.530 Y-19.502 E9.27112
G1 X6.916 Y-19.019 E9.31470
G1 X8.266 Y-18.441 E9.35828
G1 X9.572 Y-17.772 E9.40186
G1 X10.829 Y-17.013 E9.44545
G1 X12.030 Y-16.169 E9.48903
G1 X13.170 Y-15.245 E9.53261
G1 X14.243 Y-14.243 E9.57620
G1 X15.245 Y-13.170 E9.61978
G1 X15.400 Y-12.979 E9.62709
G1 X15.833 Y-12.995 F4200.000
G1 E7.62709 F2400.00000
G92 E0
G1 X12.929 Y-11.484 F4200.000
G1 E2.00000 F2400.00000
